;FLAVOR:UltiGCode
;TIME:2654
;MATERIAL:2174
;MATERIAL2:0

;Layer count: 46
;LAYER:0
M107
G0 F9000 X91.308 Y93.334 Z0.300
;TYPE:SKIRT
G1 F1200 X94.607 Y90.244 E0.54241
G1 X95.087 Y89.794 E0.62137
G1 X96.105 Y88.959 E0.77937
G1 X96.614 Y88.540 E0.85848
G1 X97.686 Y87.773 E1.01665
G1 X98.221 Y87.389 E1.09568
G1 X99.341 Y86.692 E1.25398
G1 X99.899 Y86.345 E1.33283
G1 X101.063 Y85.723 E1.49120
G1 X101.643 Y85.414 E1.57006
G1 X103.443 Y84.598 E1.80722
G1 X104.678 Y84.133 E1.96558
G1 X105.292 Y83.901 E2.04434
G1 X106.556 Y83.518 E2.20283
G1 X107.184 Y83.328 E2.28157
G1 X108.465 Y83.030 E2.43939
G1 X108.465 Y83.029 E2.43951
G1 X109.107 Y82.879 E2.51863
G1 X111.059 Y82.556 E2.75605
G1 X112.374 Y82.428 E2.91460
G1 X113.024 Y82.363 E2.99299
G1 X114.344 Y82.321 E3.15147
G1 X114.999 Y82.299 E3.23011
G1 X116.317 Y82.342 E3.38836
G1 X116.973 Y82.363 E3.46712
G1 X118.289 Y82.492 E3.62579
G1 X118.945 Y82.557 E3.70490
G1 X120.892 Y82.879 E3.94171
G1 X122.178 Y83.179 E4.10018
G1 X122.818 Y83.329 E4.17906
G1 X124.075 Y83.710 E4.33667
G1 X124.706 Y83.901 E4.41579
G1 X125.943 Y84.367 E4.57441
G1 X126.558 Y84.598 E4.65325
G1 X128.356 Y85.413 E4.89014
G1 X129.520 Y86.035 E5.04851
G1 X130.101 Y86.345 E5.12753
G1 X131.221 Y87.042 E5.28583
G1 X131.779 Y87.389 E5.36468
G1 X132.851 Y88.157 E5.52293
G1 X133.385 Y88.540 E5.60179
G1 X134.406 Y89.377 E5.76021
G1 X134.914 Y89.795 E5.83916
G1 X135.876 Y90.696 E5.99732
G1 X138.690 Y93.335 E6.46026
G1 X133.509 Y98.517 E7.33959
G1 X133.522 Y98.533 E7.34207
G1 X134.469 Y99.885 E7.54015
G1 X135.320 Y101.308 E7.73911
G1 X136.012 Y102.677 E7.92319
G1 X136.102 Y102.854 E7.94702
G1 X136.707 Y104.318 E8.13711
G1 X137.234 Y105.881 E8.33504
G1 X137.649 Y107.483 E8.53363
G1 X137.949 Y109.111 E8.73228
G1 X138.134 Y110.760 E8.93140
G1 X138.194 Y112.302 E9.11658
G1 X138.193 Y112.302 E9.11670
G1 X138.201 Y112.492 E9.13952
G1 X138.150 Y113.971 E9.31710
G1 X138.142 Y114.162 E9.34004
G1 X137.974 Y115.722 E9.52833
G1 X137.687 Y117.346 E9.72623
G1 X137.284 Y118.952 E9.92492
G1 X136.766 Y120.525 E10.12365
G1 X136.139 Y122.058 E10.32240
G1 X135.447 Y123.452 E10.50916
G1 X135.359 Y123.626 E10.53256
G1 X134.560 Y124.974 E10.72060
G1 X133.623 Y126.332 E10.91859
G1 X133.505 Y126.479 E10.94121
G1 X138.692 Y131.666 E11.82147
G1 X135.393 Y134.756 E12.36389
G1 X134.913 Y135.206 E12.44284
G1 X133.895 Y136.041 E12.60084
G1 X133.386 Y136.460 E12.67995
G1 X132.314 Y137.227 E12.83813
G1 X131.779 Y137.611 E12.91715
G1 X130.659 Y138.308 E13.07545
G1 X130.101 Y138.655 E13.15430
G1 X128.937 Y139.277 E13.31267
G1 X128.357 Y139.586 E13.39154
G1 X126.557 Y140.402 E13.62869
G1 X125.322 Y140.867 E13.78705
G1 X124.708 Y141.099 E13.86582
G1 X123.444 Y141.482 E14.02431
G1 X122.816 Y141.672 E14.10304
G1 X121.535 Y141.970 E14.26086
G1 X121.535 Y141.971 E14.26098
G1 X120.893 Y142.121 E14.34010
G1 X118.941 Y142.444 E14.57752
G1 X117.626 Y142.572 E14.73607
G1 X116.976 Y142.637 E14.81446
G1 X115.656 Y142.679 E14.97294
G1 X115.001 Y142.701 E15.05158
G1 X113.683 Y142.658 E15.20983
G1 X113.027 Y142.637 E15.28859
G1 X111.711 Y142.508 E15.44726
G1 X111.055 Y142.443 E15.52637
G1 X109.108 Y142.121 E15.76318
G1 X107.822 Y141.821 E15.92165
G1 X107.182 Y141.671 E16.00053
G1 X105.925 Y141.290 E16.15814
G1 X105.294 Y141.099 E16.23726
G1 X104.057 Y140.633 E16.39588
G1 X103.442 Y140.402 E16.47472
G1 X101.644 Y139.587 E16.71161
G1 X100.480 Y138.965 E16.86998
G1 X99.899 Y138.655 E16.94900
G1 X98.779 Y137.958 E17.10730
G1 X98.221 Y137.611 E17.18615
G1 X97.149 Y136.843 E17.34440
G1 X96.615 Y136.460 E17.42326
G1 X95.594 Y135.623 E17.58168
G1 X95.086 Y135.205 E17.66063
G1 X94.124 Y134.304 E17.81879
G1 X91.310 Y131.665 E18.28173
G1 X96.491 Y126.483 E19.16106
G1 X96.478 Y126.467 E19.16354
G1 X95.531 Y125.115 E19.36162
G1 X94.680 Y123.692 E19.56058
G1 X93.988 Y122.323 E19.74466
G1 X93.898 Y122.146 E19.76849
G1 X93.293 Y120.682 E19.95858
G1 X92.766 Y119.119 E20.15651
G1 X92.351 Y117.517 E20.35510
G1 X92.051 Y115.889 E20.55375
G1 X91.866 Y114.240 E20.75287
G1 X91.806 Y112.698 E20.93805
G1 X91.807 Y112.698 E20.93817
G1 X91.799 Y112.508 E20.96099
G1 X91.850 Y111.029 E21.13857
G1 X91.858 Y110.838 E21.16151
G1 X92.026 Y109.278 E21.34980
G1 X92.313 Y107.654 E21.54770
G1 X92.716 Y106.048 E21.74639
G1 X93.234 Y104.475 E21.94512
G1 X93.861 Y102.942 E22.14388
G1 X94.553 Y101.548 E22.33063
G1 X94.641 Y101.374 E22.35403
G1 X95.440 Y100.026 E22.54207
G1 X96.377 Y98.668 E22.74006
G1 X96.495 Y98.521 E22.76268
G1 X91.308 Y93.334 E23.64294
G10
G0 F9000 X96.771 Y93.423
;TYPE:WALL-INNER
G11
G1 F1200 X97.596 Y92.650 E23.77861
G1 X98.927 Y91.558 E23.98520
G1 X100.327 Y90.555 E24.19187
G1 X101.807 Y89.634 E24.40105
G1 X103.316 Y88.828 E24.60634
G1 X104.902 Y88.109 E24.81531
G1 X106.522 Y87.499 E25.02303
G1 X108.170 Y87.000 E25.22966
G1 X109.844 Y86.609 E25.43594
G1 X111.558 Y86.326 E25.64441
G1 X112.744 Y86.210 E25.78741
G1 X113.270 Y86.157 E25.85085
G1 X115.000 Y86.102 E26.05855
G1 X116.734 Y86.158 E26.26674
G1 X117.914 Y86.273 E26.40901
G1 X118.444 Y86.326 E26.47293
G1 X120.156 Y86.609 E26.68116
G1 X121.830 Y87.000 E26.88744
G1 X123.478 Y87.499 E27.09407
G1 X125.098 Y88.109 E27.30180
G1 X126.684 Y88.828 E27.51076
G1 X128.193 Y89.634 E27.71605
G1 X129.673 Y90.555 E27.92523
G1 X131.073 Y91.558 E28.13190
G1 X132.404 Y92.650 E28.33849
G1 X133.229 Y93.423 E28.47416
G1 X128.426 Y98.226 E29.28926
G1 X128.397 Y98.197 E29.29418
G1 X127.261 Y97.209 E29.47484
G1 X126.171 Y96.399 E29.63780
G1 X124.966 Y95.626 E29.80960
G1 X123.708 Y94.944 E29.98132
G1 X122.403 Y94.355 E30.15313
G1 X121.059 Y93.863 E30.32487
G1 X119.682 Y93.471 E30.49668
G1 X118.280 Y93.180 E30.66850
G1 X116.861 Y92.992 E30.84027
G1 X115.454 Y92.909 E31.00941
G1 X115.358 Y92.904 E31.02094
G1 X114.020 Y92.927 E31.18153
G1 X113.924 Y92.930 E31.19305
G1 X112.575 Y93.053 E31.35560
G1 X111.163 Y93.282 E31.52726
G1 X109.699 Y93.631 E31.70786
G1 X108.404 Y94.045 E31.87101
G1 X107.076 Y94.576 E32.04263
G1 X105.789 Y95.202 E32.21437
G1 X104.568 Y95.911 E32.38380
G1 X103.368 Y96.728 E32.55801
G1 X102.249 Y97.619 E32.72966
G1 X101.582 Y98.233 E32.83845
G1 X96.771 Y93.423 E33.65482
G10
G0 F9000 X101.603 Y126.803
G11
G1 F1200 X102.739 Y127.791 E33.83548
G1 X103.829 Y128.601 E33.99844
G1 X105.034 Y129.374 E34.17024
G1 X106.292 Y130.056 E34.34196
G1 X107.597 Y130.645 E34.51377
G1 X108.941 Y131.137 E34.68551
G1 X110.318 Y131.529 E34.85732
G1 X111.720 Y131.820 E35.02915
G1 X113.139 Y132.008 E35.20091
G1 X114.546 Y132.091 E35.37005
G1 X114.642 Y132.096 E35.38158
G1 X115.980 Y132.073 E35.54217
G1 X116.076 Y132.070 E35.55369
G1 X117.425 Y131.947 E35.71624
G1 X118.837 Y131.718 E35.88790
G1 X120.301 Y131.369 E36.06850
G1 X121.596 Y130.955 E36.23165
G1 X122.924 Y130.424 E36.40327
G1 X124.211 Y129.798 E36.57502
G1 X125.432 Y129.089 E36.74445
G1 X126.632 Y128.272 E36.91865
G1 X127.751 Y127.381 E37.09030
G1 X128.418 Y126.767 E37.19909
G1 X133.229 Y131.577 E38.01546
G1 X132.404 Y132.350 E38.15112
G1 X131.073 Y133.442 E38.35772
G1 X129.673 Y134.445 E38.56439
G1 X128.193 Y135.366 E38.77357
G1 X126.684 Y136.172 E38.97886
G1 X125.098 Y136.891 E39.18782
G1 X123.478 Y137.501 E39.39555
G1 X121.830 Y138.000 E39.60217
G1 X120.156 Y138.391 E39.80846
G1 X118.442 Y138.674 E40.01693
G1 X117.256 Y138.790 E40.15992
G1 X116.730 Y138.843 E40.22336
G1 X115.000 Y138.898 E40.43107
G1 X113.266 Y138.842 E40.63926
G1 X112.086 Y138.727 E40.78153
G1 X111.556 Y138.674 E40.84545
G1 X109.844 Y138.391 E41.05367
G1 X108.170 Y138.000 E41.25996
G1 X106.522 Y137.501 E41.46659
G1 X104.902 Y136.891 E41.67431
G1 X103.316 Y136.172 E41.88328
G1 X101.807 Y135.366 E42.08857
G1 X100.327 Y134.445 E42.29775
G1 X98.927 Y133.442 E42.50441
G1 X97.596 Y132.350 E42.71101
G1 X96.771 Y131.577 E42.84668
G1 X101.574 Y126.774 E43.66177
G1 X101.603 Y126.803 E43.66669
G0 F9000 X101.876 Y126.510
;TYPE:WALL-OUTER
G1 F1200 X102.990 Y127.479 E43.84387
G1 X104.056 Y128.272 E44.00330
G1 X105.237 Y129.029 E44.17164
G1 X106.470 Y129.697 E44.33992
G1 X107.748 Y130.274 E44.50818
G1 X109.065 Y130.756 E44.67647
G1 X110.413 Y131.140 E44.84467
G1 X111.787 Y131.425 E45.01306
G1 X113.177 Y131.609 E45.18131
G1 X114.649 Y131.696 E45.35826
G1 X115.971 Y131.673 E45.51693
G1 X116.052 Y131.671 E45.52665
G1 X117.375 Y131.550 E45.68607
G1 X118.758 Y131.325 E45.85421
G1 X120.194 Y130.984 E46.03133
G1 X121.461 Y130.578 E46.19098
G1 X122.762 Y130.058 E46.35911
G1 X124.023 Y129.445 E46.52736
G1 X125.299 Y128.703 E46.70449
G1 X126.394 Y127.950 E46.86396
G1 X127.491 Y127.077 E47.03220
G1 X128.523 Y126.127 E47.20052
G1 X129.480 Y125.102 E47.36880
G1 X130.362 Y124.012 E47.53705
G1 X131.161 Y122.860 E47.70529
G1 X131.912 Y121.589 E47.88244
G1 X132.498 Y120.396 E48.04194
G1 X133.027 Y119.099 E48.21003
G1 X133.460 Y117.764 E48.37845
G1 X133.794 Y116.409 E48.54591
G1 X134.030 Y115.020 E48.71498
G1 X134.164 Y113.624 E48.88327
G1 X134.194 Y112.231 E49.05047
G1 X134.196 Y112.150 E49.06019
G1 X134.119 Y110.750 E49.22845
G1 X133.950 Y109.431 E49.38802
G1 X133.676 Y108.056 E49.55627
G1 X133.302 Y106.705 E49.72448
G1 X132.830 Y105.384 E49.89282
G1 X132.263 Y104.101 E50.06114
G1 X131.604 Y102.864 E50.22933
G1 X130.855 Y101.677 E50.39776
G1 X130.024 Y100.549 E50.56589
G1 X129.115 Y99.489 E50.73345
G1 X128.124 Y98.490 E50.90231
G1 X127.010 Y97.521 E51.07949
G1 X125.944 Y96.728 E51.23892
G1 X124.763 Y95.971 E51.40725
G1 X123.530 Y95.303 E51.57553
G1 X122.252 Y94.726 E51.74380
G1 X120.935 Y94.244 E51.91209
G1 X119.587 Y93.860 E52.08029
G1 X118.213 Y93.575 E52.24868
G1 X116.823 Y93.391 E52.41693
G1 X115.351 Y93.304 E52.59388
G1 X114.029 Y93.327 E52.75254
G1 X113.948 Y93.329 E52.76227
G1 X112.625 Y93.450 E52.92169
G1 X111.242 Y93.675 E53.08983
G1 X109.806 Y94.016 E53.26694
G1 X108.539 Y94.422 E53.42660
G1 X107.238 Y94.942 E53.59473
G1 X105.977 Y95.555 E53.76298
G1 X104.701 Y96.297 E53.94011
G1 X103.606 Y97.050 E54.09958
G1 X102.509 Y97.923 E54.26781
G1 X101.477 Y98.873 E54.43614
G1 X100.520 Y99.898 E54.60441
G1 X99.638 Y100.988 E54.77267
G1 X98.839 Y102.140 E54.94091
G1 X98.088 Y103.411 E55.11806
G1 X97.502 Y104.604 E55.27756
G1 X96.973 Y105.901 E55.44565
G1 X96.540 Y107.236 E55.61406
G1 X96.206 Y108.591 E55.78153
G1 X95.970 Y109.980 E55.95060
G1 X95.836 Y111.376 E56.11889
G1 X95.806 Y112.769 E56.28609
G1 X95.804 Y112.850 E56.29581
G1 X95.881 Y114.250 E56.46406
G1 X96.050 Y115.569 E56.62364
G1 X96.324 Y116.944 E56.79188
G1 X96.698 Y118.295 E56.96010
G1 X97.170 Y119.616 E57.12844
G1 X97.737 Y120.899 E57.29676
G1 X98.396 Y122.136 E57.46495
G1 X99.145 Y123.323 E57.63338
G1 X99.976 Y124.451 E57.80150
G1 X100.885 Y125.511 E57.96907
G1 X101.876 Y126.510 E58.13793
G0 F9000 X101.136 Y126.647
G1 F1200 X100.040 Y125.470 E58.33092
G1 X99.197 Y124.423 E58.49222
G1 X98.388 Y123.267 E58.66154
G1 X97.657 Y122.045 E58.83241
G1 X96.987 Y120.718 E59.01080
G1 X96.481 Y119.494 E59.16974
G1 X96.025 Y118.141 E59.34107
G1 X95.671 Y116.774 E59.51052
G1 X95.415 Y115.384 E59.68013
G1 X95.258 Y113.978 E59.84989
G1 X95.201 Y112.493 E60.02823
G1 X95.248 Y111.157 E60.18864
G1 X95.250 Y111.095 E60.19609
G1 X95.393 Y109.763 E60.35685
G1 X95.640 Y108.365 E60.52720
G1 X95.986 Y106.988 E60.69758
G1 X96.423 Y105.658 E60.86558
G1 X96.964 Y104.337 E61.03687
G1 X97.591 Y103.074 E61.20608
G1 X98.302 Y101.866 E61.37429
G1 X99.112 Y100.691 E61.54554
G1 X99.987 Y99.596 E61.71374
G1 X100.337 Y99.212 E61.77609
G1 X101.136 Y98.353 E61.91687
G1 X96.196 Y93.414 E62.75513
G1 X97.325 Y92.356 E62.94080
G1 X98.691 Y91.235 E63.15285
G1 X100.106 Y90.221 E63.36175
G1 X101.606 Y89.288 E63.57373
G1 X103.142 Y88.467 E63.78273
G1 X104.751 Y87.738 E63.99470
G1 X106.387 Y87.122 E64.20448
G1 X108.057 Y86.616 E64.41387
G1 X109.778 Y86.214 E64.62595
G1 X111.500 Y85.930 E64.83538
G1 X113.245 Y85.758 E65.04580
G1 X115.000 Y85.701 E65.25651
G1 X116.755 Y85.758 E65.46722
G1 X118.500 Y85.930 E65.67763
G1 X120.222 Y86.214 E65.88707
G1 X121.943 Y86.616 E66.09915
G1 X123.613 Y87.122 E66.30854
G1 X125.249 Y87.738 E66.51832
G1 X126.858 Y88.467 E66.73029
G1 X128.394 Y89.288 E66.93929
G1 X129.894 Y90.221 E67.15127
G1 X131.309 Y91.235 E67.36016
G1 X132.675 Y92.356 E67.57221
G1 X133.804 Y93.414 E67.75789
G1 X128.864 Y98.353 E68.59615
G1 X129.958 Y99.528 E68.78880
G1 X130.799 Y100.572 E68.94967
G1 X131.610 Y101.729 E69.11922
G1 X132.343 Y102.955 E69.29063
G1 X133.013 Y104.282 E69.46902
G1 X133.519 Y105.506 E69.62796
G1 X133.975 Y106.859 E69.79929
G1 X134.329 Y108.226 E69.96874
G1 X134.585 Y109.616 E70.13835
G1 X134.742 Y111.022 E70.30811
G1 X134.799 Y112.500 E70.48561
G1 X134.752 Y113.843 E70.64686
G1 X134.750 Y113.905 E70.65431
G1 X134.607 Y115.237 E70.81507
G1 X134.360 Y116.635 E70.98543
G1 X134.015 Y118.008 E71.15531
G1 X133.577 Y119.342 E71.32379
G1 X133.038 Y120.658 E71.49445
G1 X132.409 Y121.926 E71.66430
G1 X131.698 Y123.134 E71.83250
G1 X130.888 Y124.309 E72.00376
G1 X130.013 Y125.404 E72.17196
G1 X129.663 Y125.788 E72.23431
G1 X128.864 Y126.647 E72.37509
G1 X133.804 Y131.586 E73.21335
G1 X132.675 Y132.644 E73.39902
G1 X131.310 Y133.764 E73.61090
G1 X129.894 Y134.779 E73.81997
G1 X128.394 Y135.712 E74.03194
G1 X126.858 Y136.533 E74.24094
G1 X125.250 Y137.261 E74.45276
G1 X123.613 Y137.878 E74.66269
G1 X121.943 Y138.384 E74.87208
G1 X120.222 Y138.786 E75.08416
G1 X118.500 Y139.070 E75.29359
G1 X116.755 Y139.242 E75.50401
G1 X115.000 Y139.299 E75.71472
G1 X113.245 Y139.242 E75.92543
G1 X111.500 Y139.070 E76.13585
G1 X109.778 Y138.786 E76.34528
G1 X108.057 Y138.384 E76.55736
G1 X106.387 Y137.878 E76.76675
G1 X104.750 Y137.261 E76.97668
G1 X103.142 Y136.533 E77.18850
G1 X101.606 Y135.712 E77.39750
G1 X100.106 Y134.779 E77.60947
G1 X98.690 Y133.764 E77.81854
G1 X97.325 Y132.644 E78.03042
G1 X96.196 Y131.586 E78.21609
G1 X101.136 Y126.647 E79.05435
G0 F9000 X101.459 Y126.632
;TYPE:SKIN
G1 F900 X100.543 Y125.716 E79.20980
G0 F9000 X100.616 Y125.649
G0 X101.614 Y126.655
G0 X101.402 Y127.141
G1 F900 X112.928 Y138.667 E81.16583
G0 F9000 X113.536 Y138.709
G1 F900 X102.944 Y128.117 E82.96335
G0 F9000 X101.119 Y127.424
G1 F900 X112.301 Y138.605 E84.86092
G0 F9000 X111.674 Y138.544
G1 F900 X100.836 Y127.707 E86.70010
G0 F9000 X100.554 Y127.989
G1 F900 X111.004 Y138.440 E88.47361
G0 F9000 X110.327 Y138.328
G1 F900 X100.271 Y128.272 E90.18017
G0 F9000 X99.988 Y128.555
G1 F900 X109.629 Y138.196 E91.81630
G0 F9000 X108.890 Y138.023
G1 F900 X99.705 Y128.838 E93.37505
G0 F9000 X99.422 Y129.121
G1 F900 X108.148 Y137.846 E94.85581
G0 F9000 X107.336 Y137.600
G1 F900 X99.139 Y129.404 E96.24681
G0 F9000 X98.857 Y129.686
G1 F900 X106.519 Y137.349 E97.54717
G0 F9000 X105.612 Y137.007
G1 F900 X98.574 Y129.969 E98.74156
G0 F9000 X98.291 Y130.252
G1 F900 X104.668 Y136.630 E99.82386
G0 F9000 X103.634 Y136.161
G1 F900 X98.008 Y130.535 E100.77862
G0 F9000 X97.725 Y130.818
G1 F900 X102.466 Y135.558 E101.58311
G0 F9000 X101.103 Y134.761
G1 F900 X97.442 Y131.101 E102.20432
G0 F9000 X97.160 Y131.383
G1 F900 X99.344 Y133.568 E102.57504
G0 F9000 X101.614 Y126.655
G0 X99.400 Y124.154
G0 X99.402 Y124.009
G1 F900 X98.569 Y123.177 E102.71632
G0 F9000 X98.272 Y122.314
G1 F900 X97.682 Y121.441 E102.80420
G1 X97.162 Y120.355 E102.87753
G1 X96.780 Y119.407 E102.93977
G1 X96.470 Y118.531 E102.99469
G1 X96.224 Y117.721 E103.04472
G1 X96.031 Y116.962 E103.09171
G1 X95.876 Y116.240 E103.13557
G1 X95.753 Y115.552 E103.17730
G1 X95.659 Y114.893 E103.21704
G1 X95.591 Y114.259 E103.25472
G1 X95.544 Y113.646 E103.29161
G1 X95.516 Y113.052 E103.32675
G1 X95.511 Y112.482 E103.36010
G1 X95.521 Y111.925 E103.39436
G1 X95.542 Y111.381 E103.42735
G1 X95.580 Y110.853 E103.45991
G1 X95.632 Y110.340 E103.49147
G1 X95.693 Y109.835 E103.52199
G1 X95.770 Y109.347 E103.55178
G1 X95.854 Y108.865 E103.58128
G1 X95.947 Y108.392 E103.61020
G1 X96.056 Y107.936 E103.63847
G1 X96.169 Y107.483 E103.66663
G1 X96.290 Y107.038 E103.69471
G1 X96.426 Y106.608 E103.72218
G1 X96.565 Y106.182 E103.74920
G1 X96.711 Y105.761 E103.77620
G1 X96.870 Y105.356 E103.80244
G1 X97.035 Y104.954 E103.82851
G1 X97.201 Y104.555 E103.85444
G1 X97.380 Y104.169 E103.87997
G1 X97.567 Y103.790 E103.90532
G1 X97.755 Y103.412 E103.93040
G1 X97.880 Y102.972 E103.95524
G1 X98.238 Y102.764 E103.98021
