; generated by Slic3r 1.2.9 on 2015-07-09 at 21:50:22

; external perimeters extrusion width = 0.40mm
; perimeters extrusion width = 0.68mm
; infill extrusion width = 1.28mm
; solid infill extrusion width = 0.68mm
; top infill extrusion width = 0.68mm

M107
M190 S65 ; set bed temperature
M104 S205 ; set temperature
G28 ; home all axes
G1 Z5 F5000 ; lift nozzle

M109 S205 ; wait for temperature to be reached
G21 ; set units to millimeters
G90 ; use absolute coordinates
M82 ; use absolute distances for extrusion
G92 E0
G1 Z0.300 F9000.000
G1 E-4.50000 F2400.00000
G92 E0
G1 X84.035 Y80.848 F9000.000
G1 E4.50000 F2400.00000
G1 X86.462 Y78.955 E4.57753 F1800.000
G1 X89.293 Y77.749 E4.65505
G1 X92.500 Y77.308 E4.73658
G1 X117.500 Y77.308 E5.36629
G1 X120.552 Y77.707 E5.44382
G1 X123.400 Y78.875 E5.52134 F1800.000
G1 X125.852 Y80.735 E5.59887
G1 X127.745 Y83.162 E5.67640
G1 X128.951 Y85.993 E5.75392
G1 X129.392 Y89.200 E5.83545
G1 X129.392 Y91.200 E5.88583
G1 X128.993 Y94.252 E5.96335
G1 X128.108 Y96.575 E6.02599
G1 X113.108 Y126.175 E6.86183
G1 X111.373 Y128.718 E6.93936
G1 X109.043 Y130.730 E7.01688
G1 X106.276 Y132.076 E7.09441
G1 X102.500 Y132.692 E7.19077
G1 X100.500 Y132.692 E7.24114
G1 X97.448 Y132.293 E7.31867
G1 X94.600 Y131.125 E7.39620
G1 X92.669 Y129.749 E7.45592
G1 X84.669 Y122.749 E7.72368
G1 X82.635 Y120.440 E7.80120
G1 X81.261 Y117.686 E7.87873
G1 X80.608 Y113.800 E7.97797
G1 X80.608 Y89.200 E8.59761
G1 X81.007 Y86.148 E8.67513
G1 X82.175 Y83.300 E8.75266
G1 X83.998 Y80.896 E8.82867
G1 X84.474 Y81.192 F9000.000
G1 X84.562 Y81.079 E8.83229 F1800.000
G1 X86.973 Y79.280 E8.90804
G1 X89.770 Y78.177 E8.98380
G1 X92.500 Y77.844 E9.05306
G1 X117.500 Y77.844 E9.68277
G1 X120.481 Y78.242 E9.75852
G1 X123.253 Y79.409 E9.83427 F1800.000
G1 X125.621 Y81.262 E9.91003
G1 X127.420 Y83.673 E9.98578
G1 X128.523 Y86.470 E10.06153
G1 X128.856 Y89.200 E10.13080
G1 X128.856 Y91.200 E10.18117
G1 X128.458 Y94.181 E10.25693
G1 X127.630 Y96.333 E10.31501
G1 X112.630 Y125.933 E11.15085
G1 X110.927 Y128.412 E11.22661
G1 X108.633 Y130.358 E11.30236
G1 X105.909 Y131.632 E11.37811
G1 X102.500 Y132.156 E11.46500
G1 X100.500 Y132.156 E11.51537
G1 X97.519 Y131.758 E11.59113
G1 X94.747 Y130.591 E11.66688
G1 X93.022 Y129.346 E11.72046
G1 X85.022 Y122.346 E11.98822
G1 X83.041 Y120.084 E12.06397
G1 X81.723 Y117.380 E12.13973
G1 X81.144 Y113.800 E12.23108
G1 X81.144 Y89.200 E12.85071
G1 X81.542 Y86.219 E12.92646
G1 X82.709 Y83.447 E13.00222
G1 X84.437 Y81.239 E13.07284
G1 X84.906 Y81.542 F9000.000
G1 X85.089 Y81.316 E13.08016 F1800.000
G1 X87.481 Y79.614 E13.15410
G1 X90.242 Y78.618 E13.22804
G1 X92.500 Y78.379 E13.28523
G1 X117.500 Y78.379 E13.91493
G1 X120.408 Y78.778 E13.98887
G1 X123.102 Y79.943 E14.06281 F1800.000
G1 X125.384 Y81.789 E14.13675
G1 X127.086 Y84.181 E14.21068
G1 X128.082 Y86.942 E14.28462
G1 X128.321 Y89.200 E14.34181
G1 X128.321 Y91.200 E14.39218
G1 X127.922 Y94.108 E14.46612
G1 X127.152 Y96.091 E14.51971
G1 X112.152 Y125.691 E15.35555
G1 X110.482 Y128.105 E15.42948
G1 X108.225 Y129.982 E15.50342
G1 X105.547 Y131.183 E15.57736
G1 X102.500 Y131.621 E15.65488
G1 X100.500 Y131.621 E15.70526
G1 X97.592 Y131.222 E15.77920
G1 X94.898 Y130.057 E15.85313
G1 X93.375 Y128.943 E15.90066
G1 X85.375 Y121.943 E16.16841
G1 X83.448 Y119.729 E16.24235
G1 X82.188 Y117.078 E16.31629
G1 X81.679 Y113.800 E16.39983
G1 X81.679 Y89.200 E17.01946
G1 X82.078 Y86.292 E17.09340
G1 X83.243 Y83.598 E17.16734
G1 X84.869 Y81.588 E17.23244
G1 X85.331 Y81.898 F9000.000
G1 X85.615 Y81.559 E17.24357 F1800.000
G1 X87.987 Y79.958 E17.31564
G1 X90.707 Y79.072 E17.38772
G1 X92.500 Y78.915 E17.43304
G1 X117.500 Y78.915 E18.06275
G1 X120.334 Y79.313 E18.13482
G1 X122.948 Y80.476 E18.20690 F1800.000
G1 X125.141 Y82.315 E18.27897
G1 X126.742 Y84.687 E18.35105
G1 X127.628 Y87.407 E18.42312
G1 X127.785 Y89.200 E18.46845
G1 X127.785 Y91.200 E18.51882
G1 X127.387 Y94.034 E18.59090
G1 X126.674 Y95.849 E18.64002
G1 X111.674 Y125.449 E19.47586
G1 X110.038 Y127.797 E19.54794
G1 X107.819 Y129.603 E19.62001
G1 X105.188 Y130.728 E19.69209
G1 X102.500 Y131.085 E19.76038
G1 X100.500 Y131.085 E19.81076
G1 X97.666 Y130.687 E19.88283
G1 X95.052 Y129.524 E19.95491
G1 X93.727 Y128.540 E19.99647
G1 X85.727 Y121.540 E20.26422
G1 X83.857 Y119.375 E20.33630
G1 X82.656 Y116.778 E20.40837
G1 X82.215 Y113.800 E20.48419
G1 X82.215 Y89.200 E21.10382
G1 X82.613 Y86.366 E21.17589
G1 X83.776 Y83.752 E21.24797
G1 X85.293 Y81.944 E21.30741
G1 X85.748 Y82.261 F9000.000
G1 X86.140 Y81.811 E21.32244 F1800.000
G1 X88.489 Y80.314 E21.39261
G1 X92.500 Y79.451 E21.49595
G1 X117.500 Y79.451 E22.12565
G1 X120.257 Y79.849 E22.19582
G1 X122.789 Y81.010 E22.26598 F1800.000
G1 X124.889 Y82.840 E22.33615
G1 X126.386 Y85.189 E22.40631
G1 X127.249 Y89.200 E22.50965
G1 X127.249 Y91.200 E22.56003
G1 X126.851 Y93.957 E22.63019
G1 X126.196 Y95.607 E22.67490
G1 X111.196 Y125.207 E23.51075
G1 X109.595 Y127.486 E23.58091
G1 X107.415 Y129.220 E23.65107
G1 X104.833 Y130.266 E23.72124
G1 X102.500 Y130.549 E23.78044
G1 X100.500 Y130.549 E23.83081
G1 X97.743 Y130.151 E23.90098
G1 X95.211 Y128.990 E23.97114
G1 X94.080 Y128.137 E24.00682
G1 X86.080 Y121.137 E24.27458
G1 X84.267 Y119.022 E24.34474
G1 X83.126 Y116.481 E24.41490
G1 X82.751 Y113.800 E24.48309
G1 X82.751 Y89.200 E25.10272
G1 X83.149 Y86.443 E25.17288
G1 X84.310 Y83.911 E25.24305
G1 X85.708 Y82.306 E25.29667
G1 X86.155 Y82.631 F9000.000
G1 X86.664 Y82.071 E25.31572 F1800.000
G1 X88.988 Y80.682 E25.38392
G1 X92.500 Y79.986 E25.47410
G1 X117.500 Y79.986 E26.10381
G1 X120.178 Y80.384 E26.17201
G1 X122.625 Y81.543 E26.24021 F1800.000
G1 X124.629 Y83.364 E26.30841
G1 X126.018 Y85.688 E26.37661
G1 X126.714 Y89.200 E26.46679
G1 X126.714 Y91.200 E26.51716
G1 X126.316 Y93.878 E26.58536
G1 X125.719 Y95.365 E26.62572
G1 X110.719 Y124.965 E27.46156
G1 X109.153 Y127.174 E27.52976
G1 X107.013 Y128.833 E27.59796
G1 X104.483 Y129.798 E27.66616
G1 X102.500 Y130.014 E27.71641
G1 X100.500 Y130.014 E27.76679
G1 X97.822 Y129.616 E27.83499
G1 X94.433 Y127.734 E27.93263
G1 X86.433 Y120.734 E28.20038
G1 X84.679 Y118.671 E28.26858
G1 X83.601 Y116.187 E28.33678
G1 X83.286 Y113.800 E28.39744
G1 X83.286 Y89.200 E29.01707
G1 X83.684 Y86.522 E29.08527
G1 X84.843 Y84.075 E29.15346
G1 X86.115 Y82.675 E29.20109
G1 X86.551 Y83.007 F9000.000
G1 X87.186 Y82.339 E29.22430 F1800.000
G1 X89.482 Y81.063 E29.29048
G1 X92.500 Y80.522 E29.36770
G1 X117.500 Y80.522 E29.99740
G1 X120.097 Y80.920 E30.06358
G1 X122.456 Y82.076 E30.12975 F1800.000
G1 X124.361 Y83.886 E30.19593
G1 X125.637 Y86.182 E30.26211
G1 X126.178 Y89.200 E30.33933
G1 X126.178 Y91.200 E30.38970
G1 X125.780 Y93.797 E30.45588
G1 X125.241 Y95.123 E30.49193
G1 X110.241 Y124.723 E31.32777
G1 X108.712 Y126.859 E31.39395
G1 X106.614 Y128.441 E31.46013
G1 X104.139 Y129.322 E31.52630
G1 X102.500 Y129.478 E31.56777
G1 X100.500 Y129.478 E31.61815
G1 X97.903 Y129.080 E31.68433
G1 X94.785 Y127.331 E31.77437
G1 X86.785 Y120.331 E32.04213
G1 X85.093 Y118.322 E32.10830
G1 X84.079 Y115.898 E32.17448
G1 X83.822 Y113.800 E32.22771
G1 X83.822 Y89.200 E32.84734
G1 X84.220 Y86.603 E32.91352
G1 X85.376 Y84.244 E32.97970
G1 X86.510 Y83.051 E33.02115
G1 X86.935 Y83.391 F9000.000
G1 X87.706 Y82.618 E33.04864 F1800.000
G1 X89.972 Y81.460 E33.11273
G1 X92.500 Y81.058 E33.17721
G1 X117.500 Y81.058 E33.80692
G1 X120.013 Y81.455 E33.87101
G1 X122.281 Y82.609 E33.93510 F1800.000
G1 X124.082 Y84.406 E33.99919
G1 X125.240 Y86.672 E34.06328
G1 X125.642 Y89.200 E34.12776
G1 X125.642 Y91.200 E34.17814
G1 X124.763 Y94.881 E34.27345
G1 X109.763 Y124.481 E35.10929
G1 X108.272 Y126.543 E35.17338
G1 X106.218 Y128.044 E35.23747
G1 X103.801 Y128.838 E35.30156
G1 X102.500 Y128.942 E35.33443
G1 X100.500 Y128.942 E35.38481
G1 X97.987 Y128.545 E35.44890
G1 X95.138 Y126.928 E35.53141
G1 X87.138 Y119.928 E35.79916
G1 X85.509 Y117.974 E35.86325
G1 X84.562 Y115.612 E35.92734
G1 X84.358 Y113.800 E35.97327
G1 X84.358 Y89.200 E36.59290
G1 X84.755 Y86.687 E36.65699
G1 X85.909 Y84.419 E36.72108
G1 X86.893 Y83.433 E36.75617
G1 X87.305 Y83.781 F9000.000
G1 X88.225 Y82.908 E36.78809 F1800.000
G1 X90.455 Y81.873 E36.85002
G1 X92.500 Y81.593 E36.90202
G1 X117.500 Y81.593 E37.53172
G1 X119.926 Y81.991 E37.59365
G1 X122.099 Y83.141 E37.65558 F1800.000
G1 X123.792 Y84.925 E37.71752
G1 X124.827 Y87.155 E37.77945
G1 X125.107 Y89.200 E37.83144
G1 X125.107 Y91.200 E37.88182
G1 X124.285 Y94.639 E37.97086
G1 X109.285 Y124.239 E38.80670
G1 X107.834 Y126.223 E38.86864
G1 X105.826 Y127.641 E38.93057
G1 X102.500 Y128.407 E39.01652
G1 X100.500 Y128.407 E39.06690
G1 X98.074 Y128.009 E39.12883
G1 X95.491 Y126.525 E39.20387
G1 X87.491 Y119.525 E39.47162
G1 X85.926 Y117.628 E39.53355
G1 X85.049 Y115.331 E39.59549
G1 X84.893 Y113.800 E39.63425
G1 X84.893 Y89.200 E40.25388
G1 X85.291 Y86.774 E40.31581
G1 X86.441 Y84.601 E40.37774
G1 X87.262 Y83.822 E40.40624
G1 X87.659 Y84.177 F9000.000
G1 X88.741 Y83.211 E40.44277 F1800.000
G1 X90.931 Y82.305 E40.50246
G1 X92.500 Y82.129 E40.54224
G1 X117.500 Y82.129 E41.17194
G1 X119.837 Y82.526 E41.23164
G1 X121.911 Y83.673 E41.29134 F1800.000
G1 X123.489 Y85.441 E41.35103
G1 X124.395 Y87.631 E41.41073
G1 X124.571 Y89.200 E41.45051
G1 X124.571 Y91.200 E41.50088
G1 X123.808 Y94.396 E41.58366
G1 X108.808 Y123.996 E42.41950
G1 X107.397 Y125.901 E42.47920
G1 X105.437 Y127.233 E42.53889
G1 X102.500 Y127.871 E42.61459
G1 X100.500 Y127.871 E42.66497
G1 X98.163 Y127.474 E42.72466
G1 X95.844 Y126.122 E42.79230
G1 X87.844 Y119.122 E43.06006
G1 X86.347 Y117.284 E43.11975
G1 X85.541 Y115.055 E43.17945
G1 X85.429 Y113.800 E43.21120
G1 X85.429 Y89.200 E43.83083
G1 X85.826 Y86.863 E43.89052
G1 X86.973 Y84.789 E43.95022
G1 X87.614 Y84.217 E43.97188
G1 X87.994 Y84.578 F9000.000
G1 X89.253 Y83.528 E44.01319 F1800.000
G1 X92.500 Y82.664 E44.09781
G1 X117.500 Y82.664 E44.72752
G1 X119.743 Y83.061 E44.78489
G1 X121.713 Y84.204 E44.84227 F1800.000
G1 X123.172 Y85.953 E44.89964
G1 X124.036 Y89.200 E44.98426
G1 X124.036 Y91.200 E45.03464
G1 X123.330 Y94.154 E45.11114
G1 X108.330 Y123.754 E45.94698
G1 X106.962 Y125.576 E46.00436
G1 X105.052 Y126.817 E46.06173
G1 X102.500 Y127.336 E46.12732
G1 X100.500 Y127.336 E46.17770
G1 X98.257 Y126.939 E46.23508
G1 X96.196 Y125.719 E46.29540
G1 X88.196 Y118.719 E46.56315
G1 X86.770 Y116.943 E46.62053
G1 X85.964 Y113.800 E46.70225
G1 X85.964 Y89.200 E47.32188
G1 X86.361 Y86.957 E47.37925
G1 X87.504 Y84.987 E47.43663
G1 X87.948 Y84.616 E47.45118
G1 E42.95118 F2400.00000
G92 E0
G1 X101.664 Y90.364 F9000.000
G1 E4.50000 F2400.00000
G1 X101.664 Y119.964 E5.24557 F1800.000
G1 X101.336 Y119.964 E5.25385
G1 X101.336 Y90.364 E5.99943
G1 X93.336 Y90.364 E6.20093
G1 X93.336 Y90.036 E6.20921
G1 X116.664 Y90.036 E6.79682
G1 X116.664 Y90.364 E6.80510
G1 X101.724 Y90.364 E7.18142
G1 X102.200 Y90.900 F9000.000
G1 X102.200 Y120.500 E7.92699 F1800.000
G1 X100.800 Y120.500 E7.96225
G1 X100.800 Y113.500 E8.13857
G1 X92.800 Y113.500 E8.34008
G1 X92.800 Y113.100 E8.35015
G1 X100.800 Y113.100 E8.55166
G1 X100.800 Y101.800 E8.83628
G1 X92.800 Y101.800 E9.03779
G1 X92.800 Y101.400 E9.04787
G1 X100.800 Y101.400 E9.24937
G1 X100.800 Y90.900 E9.51385
G1 X92.800 Y90.900 E9.71535
G1 X92.800 Y89.500 E9.75062
G1 X117.200 Y89.500 E10.36521
G1 X117.200 Y90.900 E10.40047
G1 X102.260 Y90.900 E10.77679
G1 X101.800 Y90.900 F9000.000
M104 S195 ; set temperature
G1 Z0.400 F9000.000
G1 X101.781 Y90.481 F9000.000
G1 X101.781 Y120.081 E11.08235 F3000.000
G1 X101.219 Y120.081 E11.08816
G1 X101.219 Y90.481 E11.39371
G1 X93.219 Y90.481 E11.47630
G1 X93.219 Y89.919 E11.48211
G1 X116.781 Y89.919 E11.72535
G1 X116.781 Y90.481 E11.73116
G1 X101.841 Y90.481 E11.88538
G1 X102.300 Y91.000 F9000.000
G1 X102.300 Y120.600 E12.06102 F1500.000
G1 X100.700 Y120.600 E12.07052
G1 X100.700 Y113.600 E12.11205
G1 X92.700 Y113.600 E12.15952
G1 X92.700 Y113.000 E12.16308
G1 X100.700 Y113.000 E12.21055
G1 X100.700 Y101.900 E12.27642
G1 X92.700 Y101.900 E12.32389
G1 X92.700 Y101.300 E12.32745
G1 X100.700 Y101.300 E12.37492
G1 X100.700 Y91.000 E12.43604
G1 X92.700 Y91.000 E12.48351
G1 X92.700 Y89.400 E12.49300
G1 X117.300 Y89.400 E12.63897
G1 X117.300 Y91.000 E12.64847
G1 X102.360 Y91.000 E12.73712
G1 X101.900 Y91.000 F9000.000
G1 X100.959 Y101.600 F9000.000
G1 X92.959 Y101.600 E12.81970 F1200.000
G1 E8.31970 F2400.00000
G92 E0
G1 X92.959 Y113.300 F9000.000
G1 E4.50000 F2400.00000
G1 X100.959 Y113.300 E4.58258 F1200.000
G1 Z0.500 F9000.000
G1 X101.781 Y90.481 F9000.000
G1 X101.781 Y120.081 E4.88814 F3000.000
G1 X101.219 Y120.081 E4.89395
G1 X101.219 Y90.481 E5.19951
G1 X93.219 Y90.481 E5.28209
G1 X93.219 Y89.919 E5.28791
G1 X116.781 Y89.919 E5.53114
G1 X116.781 Y90.481 E5.53695
G1 X101.841 Y90.481 E5.69118
G1 X102.300 Y91.000 F9000.000
G1 X102.300 Y120.600 E5.86682 F1500.000
G1 X100.700 Y120.600 E5.87631
G1 X100.700 Y113.600 E5.91785
G1 X92.700 Y113.600 E5.96532
G1 X92.700 Y113.000 E5.96888
G1 X100.700 Y113.000 E6.01635
G1 X100.700 Y101.900 E6.08222
G1 X92.700 Y101.900 E6.12969
G1 X92.700 Y101.300 E6.13325
G1 X100.700 Y101.300 E6.18072
G1 X100.700 Y91.000 E6.24183
G1 X92.700 Y91.000 E6.28930
G1 X92.700 Y89.400 E6.29880
G1 X117.300 Y89.400 E6.44477
G1 X117.300 Y91.000 E6.45426
G1 X102.360 Y91.000 E6.54291
G1 X101.900 Y91.000 F9000.000
G1 X100.959 Y101.600 F9000.000
G1 X92.959 Y101.600 E6.62550 F1200.000
G1 E2.12550 F2400.00000
G92 E0
G1 X92.959 Y113.300 F9000.000
G1 E4.50000 F2400.00000
G1 X100.959 Y113.300 E4.58258 F1200.000
M106 S242.25
G1 Z0.600 F9000.000
G1 X101.781 Y90.481 F9000.000
G1 X101.781 Y120.081 E4.88814 F3000.000
G1 X101.219 Y120.081 E4.89395
G1 X101.219 Y90.481 E5.19951
G1 X93.219 Y90.481 E5.28209
G1 X93.219 Y89.919 E5.28791
G1 X116.781 Y89.919 E5.53114
G1 X116.781 Y90.481 E5.53695
G1 X101.841 Y90.481 E5.69118
G1 X102.300 Y91.000 F9000.000
G1 X102.300 Y120.600 E5.86682 F1500.000
G1 X100.700 Y120.600 E5.87631
G1 X100.700 Y113.600 E5.91785
G1 X92.700 Y113.600 E5.96532
G1 X92.700 Y113.000 E5.96888
G1 X100.700 Y113.000 E6.01635
G1 X100.700 Y101.900 E6.08222
G1 X92.700 Y101.900 E6.12969
G1 X92.700 Y101.300 E6.13325
G1 X100.700 Y101.300 E6.18072
G1 X100.700 Y91.000 E6.24183
G1 X92.700 Y91.000 E6.28930
G1 X92.700 Y89.400 E6.29880
G1 X117.300 Y89.400 E6.44477
G1 X117.300 Y91.000 E6.45426
G1 X102.360 Y91.000 E6.54291
G1 X101.900 Y91.000 F9000.000
G1 X100.959 Y101.600 F9000.000
G1 X92.959 Y101.600 E6.62550 F1200.000
G1 E2.12550 F2400.00000
G92 E0
G1 X92.959 Y113.300 F9000.000
G1 E4.50000 F2400.00000
G1 X100.959 Y113.300 E4.58258 F1200.000
G1 Z0.700 F9000.000
G1 X101.781 Y90.481 F9000.000
G1 X101.781 Y120.081 E4.88814 F3000.000
G1 X101.219 Y120.081 E4.89395
G1 X101.219 Y90.481 E5.19951
G1 X93.219 Y90.481 E5.28209
G1 X93.219 Y89.919 E5.28791
G1 X116.781 Y89.919 E5.53114
G1 X116.781 Y90.481 E5.53695
G1 X101.841 Y90.481 E5.69118
G1 X102.300 Y91.000 F9000.000
G1 X102.300 Y120.600 E5.86682 F1500.000
G1 X100.700 Y120.600 E5.87631
G1 X100.700 Y113.600 E5.91785
G1 X92.700 Y113.600 E5.96532
G1 X92.700 Y113.000 E5.96888
G1 X100.700 Y113.000 E6.01635
G1 X100.700 Y101.900 E6.08222
G1 X92.700 Y101.900 E6.12969
G1 X92.700 Y101.300 E6.13325
G1 X100.700 Y101.300 E6.18072
G1 X100.700 Y91.000 E6.24183
G1 X92.700 Y91.000 E6.28930
G1 X92.700 Y89.400 E6.29880
G1 X117.300 Y89.400 E6.44477
G1 X117.300 Y91.000 E6.45426
G1 X102.360 Y91.000 E6.54291
G1 X101.900 Y91.000 F9000.000
G1 X100.959 Y101.600 F9000.000
G1 X92.959 Y101.600 E6.62550 F1200.000
G1 E2.12550 F2400.00000
G92 E0
G1 X92.959 Y113.300 F9000.000
G1 E4.50000 F2400.00000
G1 X100.959 Y113.300 E4.58258 F1200.000
G1 Z0.800 F9000.000
G1 X101.781 Y90.481 F9000.000
G1 X101.781 Y120.081 E4.88814 F3000.000
G1 X101.219 Y120.081 E4.89395
G1 X101.219 Y90.481 E5.19951
G1 X93.219 Y90.481 E5.28209
G1 X93.219 Y89.919 E5.28791
G1 X116.781 Y89.919 E5.53114
G1 X116.781 Y90.481 E5.53695
G1 X101.841 Y90.481 E5.69118
G1 X102.300 Y91.000 F9000.000
G1 X102.300 Y120.600 E5.86682 F1500.000
G1 X100.700 Y120.600 E5.87631
G1 X100.700 Y113.600 E5.91785
G1 X92.700 Y113.600 E5.96532
G1 X92.700 Y113.000 E5.96888
G1 X100.700 Y113.000 E6.01635
G1 X100.700 Y101.900 E6.08222
G1 X92.700 Y101.900 E6.12969
