;FLAVOR:UltiGCode
;TIME:1549
;MATERIAL:3646
;MATERIAL2:0

;Layer count: 299
;LAYER:0
M107
G0 F9000 X87.750 Y99.250 Z0.300
;TYPE:SKIRT
G1 F1800 X142.250 Y99.250 E8.17500
G1 X142.250 Y125.750 E12.15000
G1 X87.750 Y125.750 E20.32500
G1 X87.750 Y99.250 E24.30000
G10
G0 F9000 X91.750 Y103.250
;TYPE:WALL-INNER
G11
G1 F1800 X138.250 Y103.250 E31.27500
G1 X138.250 Y121.750 E34.05000
G1 X91.750 Y121.750 E41.02500
G1 X91.750 Y103.250 E43.80000
G0 F9000 X91.250 Y102.750
;TYPE:WALL-OUTER
G1 F1800 X138.750 Y102.750 E50.92500
G1 X138.750 Y122.250 E53.85000
G1 X91.250 Y122.250 E60.97500
G1 X91.250 Y102.750 E63.90000
G0 F9000 X91.925 Y103.592
;TYPE:SKIN
G1 F1800 X109.907 Y121.574 E67.71456
G0 F9000 X110.614 Y121.574
G1 F1800 X92.464 Y103.424 E71.56475
G0 F9000 X93.171 Y103.424
G1 F1800 X111.321 Y121.574 E75.41495
G0 F9000 X112.028 Y121.574
G1 F1800 X93.879 Y103.424 E79.26504
G0 F9000 X94.586 Y103.424
G1 F1800 X112.735 Y121.574 E83.11513
G0 F9000 X113.442 Y121.574
G1 F1800 X95.293 Y103.424 E86.96522
G0 F9000 X96.000 Y103.424
G1 F1800 X114.149 Y121.574 E90.81531
G0 F9000 X114.856 Y121.574
G1 F1800 X96.707 Y103.424 E94.66540
G0 F9000 X97.414 Y103.424
G1 F1800 X115.563 Y121.574 E98.51549
G0 F9000 X116.270 Y121.574
G1 F1800 X98.121 Y103.424 E102.36558
G0 F9000 X98.828 Y103.424
G1 F1800 X116.978 Y121.574 E106.21578
G0 F9000 X117.685 Y121.574
G1 F1800 X99.535 Y103.424 E110.06598
G0 F9000 X91.925 Y104.299
G1 F1800 X109.199 Y121.574 E113.73045
G0 F9000 X108.492 Y121.574
G1 F1800 X91.925 Y105.006 E117.24495
G0 F9000 X91.925 Y105.713
G1 F1800 X107.785 Y121.574 E120.60947
G0 F9000 X107.078 Y121.574
G1 F1800 X91.925 Y106.420 E123.82401
G0 F9000 X91.925 Y107.128
G1 F1800 X106.371 Y121.574 E126.88847
G0 F9000 X105.664 Y121.574
G1 F1800 X91.925 Y107.835 E129.80295
G0 F9000 X91.925 Y108.542
G1 F1800 X104.957 Y121.574 E132.56746
G0 F9000 X104.250 Y121.574
G1 F1800 X91.925 Y109.249 E135.18199
G0 F9000 X91.925 Y109.956
G1 F1800 X103.543 Y121.574 E137.64654
G0 F9000 X102.835 Y121.574
G1 F1800 X91.925 Y110.663 E139.96100
G0 F9000 X91.925 Y111.370
G1 F1800 X102.128 Y121.574 E142.12549
G0 F9000 X101.421 Y121.574
G1 F1800 X91.925 Y112.077 E144.14000
G0 F9000 X91.925 Y112.784
G1 F1800 X100.714 Y121.574 E146.00454
G0 F9000 X100.007 Y121.574
G1 F1800 X91.925 Y113.492 E147.71899
G0 F9000 X91.925 Y114.199
G1 F1800 X99.300 Y121.574 E149.28346
G0 F9000 X98.593 Y121.574
G1 F1800 X91.925 Y114.906 E150.69796
G0 F9000 X91.925 Y115.613
G1 F1800 X97.886 Y121.574 E151.96248
G0 F9000 X97.179 Y121.574
G1 F1800 X91.925 Y116.320 E153.07702
G0 F9000 X91.925 Y117.027
G1 F1800 X96.471 Y121.574 E154.04148
G0 F9000 X95.764 Y121.574
G1 F1800 X91.925 Y117.734 E154.85596
G0 F9000 X91.925 Y118.441
G1 F1800 X95.057 Y121.574 E155.52046
G0 F9000 X94.350 Y121.574
G1 F1800 X91.925 Y119.148 E156.03499
G0 F9000 X91.925 Y119.856
G1 F1800 X93.643 Y121.574 E156.39943
G0 F9000 X92.936 Y121.574
G1 F1800 X91.925 Y120.563 E156.61390
G0 F9000 X91.925 Y121.270
G1 F1800 X92.229 Y121.574 E156.67838
G0 F9000 X100.242 Y103.424
G1 F1800 X118.392 Y121.574 E160.52858
G0 F9000 X119.099 Y121.574
G1 F1800 X100.950 Y103.424 E164.37867
G0 F9000 X101.657 Y103.424
G1 F1800 X119.806 Y121.574 E168.22876
G0 F9000 X120.513 Y121.574
G1 F1800 X102.364 Y103.424 E172.07885
G0 F9000 X103.071 Y103.424
G1 F1800 X121.220 Y121.574 E175.92894
G0 F9000 X121.927 Y121.574
G1 F1800 X103.778 Y103.424 E179.77903
G0 F9000 X104.485 Y103.424
G1 F1800 X122.634 Y121.574 E183.62912
G0 F9000 X123.342 Y121.574
G1 F1800 X105.192 Y103.424 E187.47932
G0 F9000 X105.899 Y103.424
G1 F1800 X124.049 Y121.574 E191.32952
G0 F9000 X124.756 Y121.574
G1 F1800 X106.606 Y103.424 E195.17971
G0 F9000 X107.314 Y103.424
G1 F1800 X125.463 Y121.574 E199.02980
G0 F9000 X126.170 Y121.574
G1 F1800 X108.021 Y103.424 E202.87989
G0 F9000 X108.728 Y103.424
G1 F1800 X126.877 Y121.574 E206.72998
G0 F9000 X127.584 Y121.574
G1 F1800 X109.435 Y103.424 E210.58007
G0 F9000 X110.142 Y103.424
G1 F1800 X128.291 Y121.574 E214.43016
G0 F9000 X128.998 Y121.574
G1 F1800 X110.849 Y103.424 E218.28025
G0 F9000 X111.556 Y103.424
G1 F1800 X129.706 Y121.574 E222.13045
G0 F9000 X130.413 Y121.574
G1 F1800 X112.263 Y103.424 E225.98065
G0 F9000 X112.970 Y103.424
G1 F1800 X131.120 Y121.574 E229.83084
G0 F9000 X131.827 Y121.574
G1 F1800 X113.678 Y103.424 E233.68093
G0 F9000 X114.385 Y103.424
G1 F1800 X132.534 Y121.574 E237.53102
G0 F9000 X133.241 Y121.574
G1 F1800 X115.092 Y103.424 E241.38112
G0 F9000 X115.799 Y103.424
G1 F1800 X133.948 Y121.574 E245.23121
G0 F9000 X134.655 Y121.574
G1 F1800 X116.506 Y103.424 E249.08130
G0 F9000 X117.213 Y103.424
G1 F1800 X135.362 Y121.574 E252.93139
G0 F9000 X136.069 Y121.574
G1 F1800 X117.920 Y103.424 E256.78148
G0 F9000 X118.627 Y103.424
G1 F1800 X136.777 Y121.574 E260.63167
G0 F9000 X137.484 Y121.574
G1 F1800 X119.334 Y103.424 E264.48187
G0 F9000 X120.041 Y103.424
G1 F1800 X138.074 Y121.457 E268.30725
G0 F9000 X138.074 Y120.750
G1 F1800 X120.749 Y103.424 E271.98254
G0 F9000 X121.456 Y103.424
G1 F1800 X138.074 Y120.043 E275.50786
G0 F9000 X138.074 Y119.336
G1 F1800 X122.163 Y103.424 E278.88320
G0 F9000 X122.870 Y103.424
G1 F1800 X138.074 Y118.629 E282.10856
G0 F9000 X138.074 Y117.922
G1 F1800 X123.577 Y103.424 E285.18394
G0 F9000 X124.284 Y103.424
G1 F1800 X138.074 Y117.214 E288.10924
G0 F9000 X138.074 Y116.507
G1 F1800 X124.991 Y103.424 E290.88456
G0 F9000 X125.698 Y103.424
G1 F1800 X138.074 Y115.800 E293.50991
G0 F9000 X138.074 Y115.093
G1 F1800 X126.405 Y103.424 E295.98528
G0 F9000 X127.113 Y103.424
G1 F1800 X138.074 Y114.386 E298.31056
G0 F9000 X138.074 Y113.679
G1 F1800 X127.820 Y103.424 E300.48587
G0 F9000 X128.527 Y103.424
G1 F1800 X138.074 Y112.972 E302.51120
G0 F9000 X138.074 Y112.265
G1 F1800 X129.234 Y103.424 E304.38656
G0 F9000 X129.941 Y103.424
G1 F1800 X138.074 Y111.558 E306.11193
G0 F9000 X138.074 Y110.851
G1 F1800 X130.648 Y103.424 E307.68733
G0 F9000 X131.355 Y103.424
G1 F1800 X138.074 Y110.143 E309.11265
G0 F9000 X138.074 Y109.436
G1 F1800 X132.062 Y103.424 E310.38798
G0 F9000 X132.769 Y103.424
G1 F1800 X138.074 Y108.729 E311.51334
G0 F9000 X138.074 Y108.022
G1 F1800 X133.477 Y103.424 E312.48862
G0 F9000 X134.184 Y103.424
G1 F1800 X138.074 Y107.315 E313.31392
G0 F9000 X138.074 Y106.608
G1 F1800 X134.891 Y103.424 E313.98924
G0 F9000 X135.598 Y103.424
G1 F1800 X138.074 Y105.901 E314.51459
G0 F9000 X138.074 Y105.194
G1 F1800 X136.305 Y103.424 E314.88996
G0 F9000 X137.012 Y103.424
G1 F1800 X138.074 Y104.487 E315.11535
G0 F9000 X138.074 Y103.779
G1 F1800 X137.719 Y103.424 E315.19065
;LAYER:1
M106 S127
G0 F9000 X138.250 Y103.250 Z0.450
;TYPE:WALL-INNER
G1 F2520 X138.250 Y121.750 E316.57815
G1 X91.750 Y121.750 E320.06565
G1 X91.750 Y103.250 E321.45315
G1 X138.250 Y103.250 E324.94065
G0 F9000 X138.750 Y102.750
;TYPE:WALL-OUTER
G1 F1920 X138.750 Y122.250 E326.40315
G1 X91.250 Y122.250 E329.96565
G1 X91.250 Y102.750 E331.42815
G1 X138.750 Y102.750 E334.99065
G0 F9000 X138.052 Y103.424
;TYPE:SKIN
G1 F1740 X119.901 Y121.574 E336.91580
G0 F9000 X119.194 Y121.574
G1 F1740 X137.345 Y103.424 E338.84096
G0 F9000 X136.638 Y103.424
G1 F1740 X118.487 Y121.574 E340.76611
G0 F9000 X117.780 Y121.574
G1 F1740 X135.931 Y103.424 E342.69126
G0 F9000 X135.224 Y103.424
G1 F1740 X117.073 Y121.574 E344.61641
G0 F9000 X116.366 Y121.574
G1 F1740 X134.517 Y103.424 E346.54156
G0 F9000 X133.810 Y103.424
G1 F1740 X115.659 Y121.574 E348.46671
G0 F9000 X114.952 Y121.574
G1 F1740 X133.102 Y103.424 E350.39181
G0 F9000 X132.395 Y103.424
G1 F1740 X114.245 Y121.574 E352.31691
G0 F9000 X113.538 Y121.574
G1 F1740 X131.688 Y103.424 E354.24201
G0 F9000 X130.981 Y103.424
G1 F1740 X112.830 Y121.574 E356.16716
G0 F9000 X112.123 Y121.574
G1 F1740 X130.274 Y103.424 E358.09231
G0 F9000 X129.567 Y103.424
G1 F1740 X111.416 Y121.574 E360.01746
G0 F9000 X110.709 Y121.574
G1 F1740 X128.860 Y103.424 E361.94261
G0 F9000 X128.153 Y103.424
G1 F1740 X110.002 Y121.574 E363.86776
G0 F9000 X109.295 Y121.574
G1 F1740 X127.446 Y103.424 E365.79291
G0 F9000 X126.738 Y103.424
G1 F1740 X108.588 Y121.574 E367.71801
G0 F9000 X107.881 Y121.574
G1 F1740 X126.031 Y103.424 E369.64311
G0 F9000 X125.324 Y103.424
G1 F1740 X107.174 Y121.574 E371.56821
G0 F9000 X106.466 Y121.574
G1 F1740 X124.617 Y103.424 E373.49336
G0 F9000 X123.910 Y103.424
G1 F1740 X105.759 Y121.574 E375.41851
G0 F9000 X105.052 Y121.574
G1 F1740 X123.203 Y103.424 E377.34366
G0 F9000 X122.496 Y103.424
G1 F1740 X104.345 Y121.574 E379.26881
G0 F9000 X103.638 Y121.574
G1 F1740 X121.789 Y103.424 E381.19397
G0 F9000 X121.082 Y103.424
G1 F1740 X102.931 Y121.574 E383.11912
G0 F9000 X102.224 Y121.574
G1 F1740 X120.375 Y103.424 E385.04427
G0 F9000 X138.074 Y104.109
G1 F1740 X120.609 Y121.574 E386.89671
G0 F9000 X121.316 Y121.574
G1 F1740 X138.074 Y104.816 E388.67416
G0 F9000 X138.074 Y105.523
G1 F1740 X122.023 Y121.574 E390.37663
G0 F9000 X122.730 Y121.574
G1 F1740 X138.074 Y106.230 E392.00411
G0 F9000 X138.074 Y106.937
G1 F1740 X123.437 Y121.574 E393.55660
G0 F9000 X124.144 Y121.574
G1 F1740 X138.074 Y107.644 E395.03410
G0 F9000 X138.074 Y108.352
G1 F1740 X124.851 Y121.574 E396.43655
G0 F9000 X125.558 Y121.574
G1 F1740 X138.074 Y109.059 E397.76402
G0 F9000 X138.074 Y109.766
G1 F1740 X126.265 Y121.574 E399.01650
G0 F9000 X126.973 Y121.574
G1 F1740 X138.074 Y110.473 E400.19394
G0 F9000 X138.074 Y111.180
G1 F1740 X127.680 Y121.574 E401.29639
G0 F9000 X128.387 Y121.574
G1 F1740 X138.074 Y111.887 E402.32385
G0 F9000 X138.074 Y112.594
G1 F1740 X129.094 Y121.574 E403.27633
G0 F9000 X129.801 Y121.574
G1 F1740 X138.074 Y113.301 E404.15381
G0 F9000 X138.074 Y114.008
G1 F1740 X130.508 Y121.574 E404.95631
G0 F9000 X131.215 Y121.574
G1 F1740 X138.074 Y114.716 E405.68376
G0 F9000 X138.074 Y115.423
G1 F1740 X131.922 Y121.574 E406.33623
G0 F9000 X132.629 Y121.574
G1 F1740 X138.074 Y116.130 E406.91370
G0 F9000 X138.074 Y116.837
G1 F1740 X133.337 Y121.574 E407.41614
G0 F9000 X134.044 Y121.574
G1 F1740 X138.074 Y117.544 E407.84358
G0 F9000 X138.074 Y118.251
G1 F1740 X134.751 Y121.574 E408.19604
G0 F9000 X135.458 Y121.574
G1 F1740 X138.074 Y118.958 E408.47351
G0 F9000 X138.074 Y119.665
G1 F1740 X136.165 Y121.574 E408.67599
G0 F9000 X136.872 Y121.574
G1 F1740 X138.074 Y120.372 E408.80348
G0 F9000 X138.074 Y121.080
G1 F1740 X137.579 Y121.574 E408.85593
G0 F9000 X119.667 Y103.424
G1 F1740 X101.517 Y121.574 E410.78103
G0 F9000 X100.810 Y121.574
G1 F1740 X118.960 Y103.424 E412.70613
G0 F9000 X118.253 Y103.424
G1 F1740 X100.102 Y121.574 E414.63128
G0 F9000 X99.395 Y121.574
G1 F1740 X117.546 Y103.424 E416.55643
G0 F9000 X116.839 Y103.424
G1 F1740 X98.688 Y121.574 E418.48158
G0 F9000 X97.981 Y121.574
G1 F1740 X116.132 Y103.424 E420.40673
G0 F9000 X115.425 Y103.424
G1 F1740 X97.274 Y121.574 E422.33188
G0 F9000 X96.567 Y121.574
G1 F1740 X114.718 Y103.424 E424.25703
G0 F9000 X114.011 Y103.424
G1 F1740 X95.860 Y121.574 E426.18218
G0 F9000 X95.153 Y121.574
G1 F1740 X113.303 Y103.424 E428.10728
G0 F9000 X112.596 Y103.424
G1 F1740 X94.446 Y121.574 E430.03238
G0 F9000 X93.739 Y121.574
G1 F1740 X111.889 Y103.424 E431.95748
G0 F9000 X111.182 Y103.424
G1 F1740 X93.031 Y121.574 E433.88263
G0 F9000 X92.324 Y121.574
G1 F1740 X110.475 Y103.424 E435.80778
G0 F9000 X109.768 Y103.424
G1 F1740 X91.925 Y121.267 E437.70032
G0 F9000 X91.925 Y120.560
G1 F1740 X109.061 Y103.424 E439.51786
G0 F9000 X108.354 Y103.424
G1 F1740 X91.925 Y119.853 E441.26042
G0 F9000 X91.925 Y119.146
G1 F1740 X107.647 Y103.424 E442.92799
G0 F9000 X106.940 Y103.424
G1 F1740 X91.925 Y118.438 E444.52052
G0 F9000 X91.925 Y117.731
G1 F1740 X106.232 Y103.424 E446.03801
G0 F9000 X105.525 Y103.424
G1 F1740 X91.925 Y117.024 E447.48051
G0 F9000 X91.925 Y116.317
G1 F1740 X104.818 Y103.424 E448.84802
G0 F9000 X104.111 Y103.424
G1 F1740 X91.925 Y115.610 E450.14054
G0 F9000 X91.925 Y114.903
G1 F1740 X103.404 Y103.424 E451.35807
G0 F9000 X102.697 Y103.424
G1 F1740 X91.925 Y114.196 E452.50061
G0 F9000 X91.925 Y113.489
G1 F1740 X101.990 Y103.424 E453.56817
G0 F9000 X101.283 Y103.424
G1 F1740 X91.925 Y112.782 E454.56073
G0 F9000 X91.925 Y112.075
G1 F1740 X100.576 Y103.424 E455.47831
G0 F9000 X99.868 Y103.424
G1 F1740 X91.925 Y111.367 E456.32079
G0 F9000 X91.925 Y110.660
G1 F1740 X99.161 Y103.424 E457.08828
G0 F9000 X98.454 Y103.424
G1 F1740 X91.925 Y109.953 E457.78079
G0 F9000 X91.925 Y109.246
G1 F1740 X97.747 Y103.424 E458.39831
G0 F9000 X97.040 Y103.424
G1 F1740 X91.925 Y108.539 E458.94083
G0 F9000 X91.925 Y107.832
G1 F1740 X96.333 Y103.424 E459.40837
G0 F9000 X95.626 Y103.424
G1 F1740 X91.925 Y107.125 E459.80092
G0 F9000 X91.925 Y106.418
G1 F1740 X94.919 Y103.424 E460.11848
G0 F9000 X94.212 Y103.424
G1 F1740 X91.925 Y105.711 E460.36106
G0 F9000 X91.925 Y105.003
G1 F1740 X93.504 Y103.424 E460.52854
G0 F9000 X92.797 Y103.424
G1 F1740 X91.925 Y104.296 E460.62102
G0 F9000 X91.925 Y103.589
G1 F1740 X92.090 Y103.424 E460.63853
;LAYER:2
M106 S255
G0 F9000 X91.750 Y103.250 Z0.600
;TYPE:WALL-INNER
G1 F3300 X138.250 Y103.250 E464.12603
G1 X138.250 Y121.750 E465.51353
G1 X91.750 Y121.750 E469.00103
G1 X91.750 Y103.250 E470.38853
G0 F9000 X91.250 Y102.750
;TYPE:WALL-OUTER
G1 F2100 X138.750 Y102.750 E473.95103
G1 X138.750 Y122.250 E475.41353
G1 X91.250 Y122.250 E478.97603
G1 X91.250 Y102.750 E480.43853
G0 F9000 X91.925 Y103.592
;TYPE:SKIN
G1 F1800 X109.907 Y121.574 E482.34580
G0 F9000 X110.614 Y121.574
G1 F1800 X92.464 Y103.424 E484.27090
G0 F9000 X93.171 Y103.424
G1 F1800 X111.321 Y121.574 E486.19600
G0 F9000 X112.028 Y121.574
G1 F1800 X93.879 Y103.424 E488.12105
G0 F9000 X94.586 Y103.424
G1 F1800 X112.735 Y121.574 E490.04609
G0 F9000 X113.442 Y121.574
G1 F1800 X95.293 Y103.424 E491.97114
G0 F9000 X96.000 Y103.424
G1 F1800 X114.149 Y121.574 E493.89618
G0 F9000 X114.856 Y121.574
G1 F1800 X96.707 Y103.424 E495.82123
G0 F9000 X97.414 Y103.424
G1 F1800 X115.563 Y121.574 E497.74627
G0 F9000 X116.270 Y121.574
G1 F1800 X98.121 Y103.424 E499.67132
G0 F9000 X98.828 Y103.424
G1 F1800 X116.978 Y121.574 E501.59642
G0 F9000 X117.685 Y121.574
G1 F1800 X99.535 Y103.424 E503.52151
G0 F9000 X91.925 Y104.299
G1 F1800 X109.199 Y121.574 E505.35375
G0 F9000 X108.492 Y121.574
G1 F1800 X91.925 Y105.006 E507.11100
G0 F9000 X91.925 Y105.713
G1 F1800 X107.785 Y121.574 E508.79326
G0 F9000 X107.078 Y121.574
G1 F1800 X91.925 Y106.420 E510.40053
G0 F9000 X91.925 Y107.128
G1 F1800 X106.371 Y121.574 E511.93276
G0 F9000 X105.664 Y121.574
G1 F1800 X91.925 Y107.835 E513.39000
G0 F9000 X91.925 Y108.542
G1 F1800 X104.957 Y121.574 E514.77225
G0 F9000 X104.250 Y121.574
G1 F1800 X91.925 Y109.249 E516.07952
G0 F9000 X91.925 Y109.956
G1 F1800 X103.543 Y121.574 E517.31179
G0 F9000 X102.835 Y121.574
G1 F1800 X91.925 Y110.663 E518.46903
G0 F9000 X91.925 Y111.370
G1 F1800 X102.128 Y121.574 E519.55127
G0 F9000 X101.421 Y121.574
G1 F1800 X91.925 Y112.077 E520.55853
G0 F9000 X91.925 Y112.784
G1 F1800 X100.714 Y121.574 E521.49079
G0 F9000 X100.007 Y121.574
G1 F1800 X91.925 Y113.492 E522.34802
G0 F9000 X91.925 Y114.199
G1 F1800 X99.300 Y121.574 E523.13026
G0 F9000 X98.593 Y121.574
G1 F1800 X91.925 Y114.906 E523.83751
G0 F9000 X91.925 Y115.613
G1 F1800 X97.886 Y121.574 E524.46976
G0 F9000 X97.179 Y121.574
G1 F1800 X91.925 Y116.320 E525.02704
G0 F9000 X91.925 Y117.027
G1 F1800 X96.471 Y121.574 E525.50926
G0 F9000 X95.764 Y121.574
G1 F1800 X91.925 Y117.734 E525.91651
G0 F9000 X91.925 Y118.441
G1 F1800 X95.057 Y121.574 E526.24876
G0 F9000 X94.350 Y121.574
G1 F1800 X91.925 Y119.148 E526.50602
G0 F9000 X91.925 Y119.856
G1 F1800 X93.643 Y121.574 E526.68824
G0 F9000 X92.936 Y121.574
G1 F1800 X91.925 Y120.563 E526.79547
G0 F9000 X91.925 Y121.270
G1 F1800 X92.229 Y121.574 E526.82772
G0 F9000 X100.242 Y103.424
G1 F1800 X118.392 Y121.574 E528.75282
G0 F9000 X119.099 Y121.574
G1 F1800 X100.950 Y103.424 E530.67786
G0 F9000 X101.657 Y103.424
G1 F1800 X119.806 Y121.574 E532.60291
G0 F9000 X120.513 Y121.574
G1 F1800 X102.364 Y103.424 E534.52795
G0 F9000 X103.071 Y103.424
G1 F1800 X121.220 Y121.574 E536.45300
G0 F9000 X121.927 Y121.574
G1 F1800 X103.778 Y103.424 E538.37804
G0 F9000 X104.485 Y103.424
G1 F1800 X122.634 Y121.574 E540.30309
G0 F9000 X123.342 Y121.574
G1 F1800 X105.192 Y103.424 E542.22819
