; generated by Slic3r 1.2.9 on 2015-07-11 at 10:48:53

; external perimeters extrusion width = 0.50mm
; perimeters extrusion width = 0.72mm
; infill extrusion width = 0.72mm
; solid infill extrusion width = 0.72mm
; top infill extrusion width = 0.72mm

M107
M104 S200 ; set temperature
G28 ; home all axes
G1 Z5 F5000 ; lift nozzle

M109 S200 ; wait for temperature to be reached
G21 ; set units to millimeters
G90 ; use absolute coordinates
M82 ; use absolute distances for extrusion
G92 E0
G1 Z0.350 F7800.000
G1 E-2.00000 F2400.00000
G92 E0
G1 X89.695 Y58.531 F7800.000
G1 E2.00000 F2400.00000
G1 X91.512 Y57.132 E2.07096 F1800.000
G1 X94.705 Y56.377 E2.17247
G1 X96.897 Y56.437 E2.24031 F1800.000
G1 X99.359 Y56.640 E2.31678
G1 X101.644 Y56.953 E2.38811
G1 X103.585 Y57.317 E2.44922
G1 X105.832 Y57.853 E2.52070
G1 X106.496 Y58.041 E2.54206
G1 X108.353 Y58.607 E2.60211
G1 X110.520 Y59.392 E2.67344
G1 X112.643 Y60.291 E2.74478
G1 X114.716 Y61.301 E2.81611
G1 X116.732 Y62.418 E2.88744
G1 X118.438 Y63.478 E2.94957
G1 X120.338 Y64.792 E3.02105
G1 X120.890 Y65.207 E3.04241
G1 X122.389 Y66.387 E3.10145
G1 X124.226 Y67.996 E3.17699
G1 X125.708 Y69.433 E3.24089
G1 X127.357 Y71.210 E3.31590
G1 X128.868 Y73.026 E3.38900
G1 X130.083 Y74.647 E3.45167
G1 X131.390 Y76.586 E3.52402
G1 X132.405 Y78.276 E3.58501
G1 X132.763 Y78.899 E3.60725
G1 X133.839 Y80.975 E3.67960
G1 X134.689 Y82.835 E3.74288
G1 X135.559 Y85.032 E3.81598
G1 X136.309 Y87.272 E3.88908
G1 X136.937 Y89.550 E3.96219
G1 X137.441 Y91.858 E4.03529
G1 X137.768 Y93.826 E4.09703
G1 X138.039 Y96.173 E4.17013
G1 X138.174 Y98.304 E4.23618
G1 X138.201 Y100.786 E4.31298
G1 X138.109 Y102.922 E4.37914
G1 X137.890 Y105.250 E4.45149
G1 X137.795 Y105.962 E4.47373
G1 X137.500 Y107.826 E4.53210
G1 X137.014 Y110.138 E4.60520
G1 X136.403 Y112.420 E4.67830
G1 X135.781 Y114.345 E4.74090
G1 X134.954 Y116.532 E4.81325
G1 X134.160 Y118.337 E4.87424
G1 X133.858 Y118.989 E4.89648
G1 X132.784 Y121.066 E4.96883
G1 X131.754 Y122.836 E5.03218
G1 X130.463 Y124.814 E5.10528
G1 X129.067 Y126.720 E5.17839
G1 X127.570 Y128.548 E5.25149
G1 X126.150 Y130.112 E5.31687
G1 X124.387 Y131.858 E5.39362
G1 X122.605 Y133.435 E5.46726
G1 X121.182 Y134.575 E5.52367
G1 X120.609 Y135.009 E5.54591
G1 X119.292 Y135.951 E5.59602
G1 X118.695 Y136.353 E5.61827
G1 X117.142 Y137.339 E5.67520
G1 X115.088 Y138.506 E5.74831
G1 X112.973 Y139.560 E5.82141
G1 X111.076 Y140.386 E5.88544
G1 X108.888 Y141.212 E5.95779
G1 X108.206 Y141.437 E5.98003
G1 X106.331 Y142.013 E6.04072
G1 X104.053 Y142.584 E6.11337
G1 X102.090 Y142.974 E6.17530
G1 X99.753 Y143.317 E6.24840
G1 X97.400 Y143.534 E6.32150
G1 X94.867 Y143.623 E6.39992
G1 X92.711 Y143.586 E6.46664
G1 X90.877 Y143.462 E6.52350
G1 X90.190 Y143.402 E6.54486
G1 X88.188 Y143.153 E6.60728
G1 X85.917 Y142.755 E6.67861
G1 X83.378 Y142.160 E6.75930
G1 X81.454 Y141.602 E6.82128
G1 X79.632 Y140.976 E6.88089
G1 X78.983 Y140.739 E6.90226
G1 X77.138 Y139.984 E6.96395
G1 X74.764 Y138.861 E7.04521
G1 X73.017 Y137.920 E7.10661
G1 X71.044 Y136.727 E7.17795
G1 X68.865 Y135.236 E7.25965
G1 X67.300 Y134.038 E7.32061
G1 X65.548 Y132.556 E7.39162
G1 X63.820 Y130.930 E7.46505
G1 X62.470 Y129.075 E7.53601
G1 X61.834 Y126.872 E7.60698
G1 X62.301 Y123.629 E7.70835
G1 X88.464 Y60.466 E9.82372
G1 X89.655 Y58.594 E9.89236
G1 E7.89236 F2400.00000
G92 E0
G1 X96.186 Y66.446 F7800.000
G1 E2.00000 F2400.00000
G1 X96.188 Y64.644 E2.05574 F1800.000
G1 X96.465 Y64.651 E2.06431
G1 X98.326 Y64.800 E2.12207
G1 X100.183 Y65.047 E2.18006
G1 X102.025 Y65.392 E2.23804
G1 X103.846 Y65.835 E2.29602
G1 X105.641 Y66.373 E2.35401
G1 X107.405 Y67.005 E2.41199
G1 X109.133 Y67.730 E2.46997
G1 X110.821 Y68.545 E2.52796
G1 X112.463 Y69.448 E2.58594
G1 X114.059 Y70.440 E2.64409
G1 X115.591 Y71.508 E2.70187
G1 X117.069 Y72.660 E2.75987
G1 X118.534 Y73.933 E2.81991
G1 X119.881 Y75.238 E2.87794
G1 X121.110 Y76.560 E2.93380
G1 X122.331 Y78.019 E2.99266
G1 X123.472 Y79.540 E3.05148
G1 X124.528 Y81.120 E3.11029
G1 X125.499 Y82.755 E3.16913
G1 X126.230 Y84.149 E3.21782
G1 X126.378 Y84.436 E3.22782
G1 X127.169 Y86.168 E3.28674
G1 X127.864 Y87.937 E3.34556
G1 X128.464 Y89.741 E3.40438
G1 X128.965 Y91.575 E3.46319
G1 X129.368 Y93.437 E3.52213
G1 X129.621 Y94.958 E3.56985
G1 X129.842 Y96.849 E3.62876
G1 X129.966 Y98.879 E3.69167
G1 X129.976 Y100.747 E3.74949
G1 X129.895 Y102.491 E3.80350
G1 X129.710 Y104.385 E3.86239
G1 X129.361 Y106.589 E3.93143
G1 X129.039 Y108.124 E3.97996
G1 X128.553 Y109.964 E4.03883
G1 X127.969 Y111.773 E4.09765
G1 X127.289 Y113.548 E4.15647
G1 X126.515 Y115.284 E4.21529
G1 X125.648 Y116.976 E4.27410
G1 X124.691 Y118.620 E4.33298
G1 X123.654 Y120.201 E4.39148
G1 X122.522 Y121.739 E4.45055
G1 X121.313 Y123.209 E4.50944
G1 X120.138 Y124.499 E4.56345
G1 X118.809 Y125.813 E4.62127
G1 X117.286 Y127.161 E4.68418
G1 X115.793 Y128.342 E4.74310
G1 X114.539 Y129.239 E4.79081
G1 X112.937 Y130.270 E4.84975
G1 X111.286 Y131.212 E4.90857
G1 X109.587 Y132.064 E4.96738
G1 X107.844 Y132.823 E5.02620
G1 X106.060 Y133.489 E5.08512
G1 X104.250 Y134.056 E5.14381
G1 X102.407 Y134.526 E5.20265
G1 X100.542 Y134.896 E5.26147
G1 X98.661 Y135.165 E5.32029
G1 X96.766 Y135.333 E5.37914
G1 X94.962 Y135.399 E5.43500
G1 X93.087 Y135.369 E5.49303
G1 X91.151 Y135.234 E5.55308
G1 X89.290 Y135.002 E5.61108
G1 X87.452 Y134.675 E5.66886
G1 X85.622 Y134.247 E5.72701
G1 X83.822 Y133.725 E5.78499
G1 X82.053 Y133.108 E5.84297
G1 X80.318 Y132.399 E5.90095
G1 X78.624 Y131.598 E5.95894
G1 X76.974 Y130.710 E6.01692
G1 X75.374 Y129.735 E6.07490
G1 X73.827 Y128.676 E6.13289
G1 X72.339 Y127.538 E6.19087
G1 X70.918 Y126.327 E6.24863
G1 X70.714 Y126.134 E6.25732
G1 X71.996 Y124.852 E6.31339
G1 X72.406 Y125.235 E6.33076
G1 X73.602 Y126.244 E6.37917
G1 X75.137 Y127.402 E6.43866
G1 X76.738 Y128.470 E6.49821
G1 X78.397 Y129.445 E6.55776
G1 X80.106 Y130.321 E6.61719
G1 X81.537 Y130.962 E6.66570
G1 X83.661 Y131.774 E6.73605
G1 X85.155 Y132.250 E6.78457
G1 X87.013 Y132.737 E6.84399
G1 X88.895 Y133.116 E6.90341
G1 X90.806 Y133.388 E6.96311
G1 X92.721 Y133.550 E7.02260
G1 X94.582 Y133.601 E7.08018
G1 X96.447 Y133.550 E7.13790
G1 X98.328 Y133.392 E7.19632
G1 X100.198 Y133.129 E7.25475
G1 X102.050 Y132.761 E7.31318
G1 X103.879 Y132.290 E7.37161
G1 X105.678 Y131.717 E7.43004
G1 X107.443 Y131.044 E7.48847
G1 X109.166 Y130.272 E7.54690
G1 X110.844 Y129.405 E7.60533
G1 X112.470 Y128.446 E7.66375
G1 X114.041 Y127.395 E7.72223
G1 X115.548 Y126.259 E7.78062
G1 X116.990 Y125.040 E7.83904
G1 X118.342 Y123.762 E7.89661
G1 X119.624 Y122.407 E7.95433
G1 X120.843 Y120.965 E8.01275
G1 X121.979 Y119.457 E8.07118
G1 X123.029 Y117.887 E8.12961
G1 X123.989 Y116.261 E8.18804
G1 X124.856 Y114.583 E8.24646
G1 X125.004 Y114.252 E8.25768
G1 X125.627 Y112.859 E8.30490
G1 X126.300 Y111.095 E8.36333
G1 X126.874 Y109.296 E8.42176
G1 X127.345 Y107.467 E8.48018
G1 X127.712 Y105.615 E8.53860
G1 X127.926 Y104.103 E8.58587
G1 X127.976 Y103.743 E8.59710
G1 X128.133 Y101.863 E8.65546
G1 X128.185 Y99.999 E8.71319
G1 X128.133 Y98.139 E8.77075
G1 X127.975 Y96.257 E8.82917
G1 X127.712 Y94.387 E8.88760
G1 X127.345 Y92.535 E8.94603
G1 X126.874 Y90.707 E9.00444
G1 X126.300 Y88.907 E9.06290
G1 X125.627 Y87.143 E9.12132
G1 X124.856 Y85.419 E9.17975
G1 X123.988 Y83.741 E9.23820
G1 X123.029 Y82.115 E9.29661
G1 X121.979 Y80.546 E9.35503
G1 X120.841 Y79.036 E9.41353
G1 X119.624 Y77.595 E9.47189
G1 X118.345 Y76.244 E9.52946
G1 X116.990 Y74.961 E9.58719
G1 X115.520 Y73.720 E9.64671
G1 X113.981 Y72.565 E9.70626
G1 X112.378 Y71.500 E9.76580
G1 X110.717 Y70.528 E9.82535
G1 X109.007 Y69.656 E9.88473
G1 X107.581 Y69.018 E9.93309
G1 X105.790 Y68.325 E9.99250
G1 X103.958 Y67.735 E10.05204
G1 X102.097 Y67.251 E10.11154
G1 X100.208 Y66.875 E10.17115
G1 X98.304 Y66.607 E10.23064
G1 X96.261 Y66.448 E10.29404
G1 X95.560 Y67.053 F7800.000
G1 X95.564 Y64.002 E10.38844 F1800.000
G1 X96.498 Y64.027 E10.41736
G1 X98.392 Y64.178 E10.47614
G1 X100.282 Y64.430 E10.53515
G1 X102.157 Y64.781 E10.59415
G1 X104.010 Y65.231 E10.65316
G1 X105.836 Y65.779 E10.71217
G1 X107.632 Y66.422 E10.77117
G1 X109.390 Y67.160 E10.83018
G1 X111.108 Y67.989 E10.88919
G1 X112.778 Y68.908 E10.94819
G1 X114.401 Y69.917 E11.00730
G1 X115.962 Y71.005 E11.06619
G1 X117.467 Y72.177 E11.12520
G1 X118.957 Y73.473 E11.18629
G1 X120.328 Y74.801 E11.24534
G1 X121.579 Y76.147 E11.30221
G1 X122.821 Y77.631 E11.36209
G1 X123.982 Y79.179 E11.42195
G1 X125.057 Y80.787 E11.48181
G1 X126.045 Y82.451 E11.54168
G1 X126.940 Y84.162 E11.60146
G1 X127.745 Y85.924 E11.66138
G1 X128.452 Y87.725 E11.72123
G1 X129.062 Y89.560 E11.78109
G1 X129.572 Y91.426 E11.84094
G1 X129.982 Y93.319 E11.90087
G1 X130.240 Y94.870 E11.94952
G1 X130.464 Y96.794 E12.00944
G1 X130.591 Y98.858 E12.07343
G1 X130.601 Y100.760 E12.13228
G1 X130.519 Y102.536 E12.18728
G1 X130.331 Y104.463 E12.24718
G1 X130.039 Y106.380 E12.30720
G1 X129.974 Y106.714 E12.31771
G1 X129.647 Y108.268 E12.36686
G1 X129.153 Y110.140 E12.42675
G1 X128.559 Y111.981 E12.48661
G1 X127.867 Y113.787 E12.54646
G1 X127.079 Y115.554 E12.60632
G1 X126.197 Y117.276 E12.66618
G1 X125.223 Y118.949 E12.72607
G1 X124.165 Y120.561 E12.78573
G1 X123.016 Y122.123 E12.84575
G1 X121.786 Y123.618 E12.90565
G1 X120.589 Y124.932 E12.96065
G1 X119.236 Y126.270 E13.01950
G1 X117.688 Y127.640 E13.08349
G1 X116.169 Y128.841 E13.14340
G1 X114.890 Y129.756 E13.19206
G1 X113.261 Y130.805 E13.25199
G1 X111.581 Y131.763 E13.31184
G1 X109.852 Y132.630 E13.37170
G1 X108.078 Y133.403 E13.43155
G1 X106.264 Y134.080 E13.49147
G1 X104.420 Y134.657 E13.55125
G1 X102.545 Y135.135 E13.61112
G1 X100.648 Y135.512 E13.67098
G1 X98.733 Y135.786 E13.73084
G1 X96.805 Y135.957 E13.79072
G1 X94.968 Y136.024 E13.84759
G1 X93.060 Y135.993 E13.90664
G1 X91.090 Y135.856 E13.96773
G1 X89.197 Y135.621 E14.02674
G1 X87.324 Y135.287 E14.08563
G1 X85.464 Y134.852 E14.14474
G1 X83.632 Y134.321 E14.20374
G1 X81.831 Y133.693 E14.26275
G1 X80.066 Y132.971 E14.32176
G1 X78.342 Y132.156 E14.38076
G1 X76.663 Y131.252 E14.43977
G1 X75.034 Y130.260 E14.49878
G1 X73.461 Y129.183 E14.55778
G1 X71.946 Y128.024 E14.61679
G1 X70.500 Y126.792 E14.67557
G1 X69.819 Y126.145 E14.70463
G1 X71.981 Y123.983 E14.79923
G1 X72.821 Y124.767 E14.83480
G1 X73.992 Y125.756 E14.88219
G1 X75.499 Y126.892 E14.94060
G1 X77.070 Y127.940 E14.99903
G1 X78.698 Y128.897 E15.05747
G1 X80.377 Y129.758 E15.11584
G1 X81.777 Y130.384 E15.16329
G1 X83.868 Y131.184 E15.23256
G1 X85.329 Y131.650 E15.28003
G1 X87.154 Y132.128 E15.33839
G1 X89.003 Y132.500 E15.39674
G1 X90.876 Y132.767 E15.45527
G1 X92.756 Y132.926 E15.51368
G1 X94.582 Y132.976 E15.57018
G1 X96.412 Y132.926 E15.62682
G1 X98.258 Y132.771 E15.68416
G1 X100.094 Y132.513 E15.74150
G1 X101.911 Y132.152 E15.79884
G1 X103.706 Y131.690 E15.85619
G1 X105.472 Y131.127 E15.91353
G1 X107.203 Y130.466 E15.97087
G1 X108.895 Y129.709 E16.02821
G1 X110.541 Y128.858 E16.08556
G1 X112.137 Y127.916 E16.14289
G1 X113.679 Y126.886 E16.20027
G1 X115.158 Y125.771 E16.25758
G1 X116.573 Y124.575 E16.31492
G1 X117.900 Y123.320 E16.37141
G1 X119.158 Y121.990 E16.42806
G1 X120.354 Y120.575 E16.48539
G1 X121.469 Y119.095 E16.54274
G1 X122.499 Y117.554 E16.60008
G1 X123.442 Y115.958 E16.65742
G1 X124.292 Y114.312 E16.71476
G1 X124.433 Y113.997 E16.72544
G1 X125.049 Y112.620 E16.77211
G1 X125.710 Y110.889 E16.82945
G1 X126.273 Y109.123 E16.88679
G1 X126.735 Y107.328 E16.94413
G1 X127.096 Y105.511 E17.00147
G1 X127.354 Y103.674 E17.05885
G1 X127.509 Y101.829 E17.11615
G1 X127.560 Y99.999 E17.17280
G1 X127.509 Y98.173 E17.22929
G1 X127.354 Y96.327 E17.28663
G1 X127.096 Y94.492 E17.34397
G1 X126.735 Y92.674 E17.40131
G1 X126.273 Y90.880 E17.45864
G1 X125.710 Y89.113 E17.51600
G1 X125.049 Y87.382 E17.57334
G1 X124.292 Y85.690 E17.63068
G1 X123.441 Y84.044 E17.68804
G1 X122.500 Y82.448 E17.74537
G1 X121.469 Y80.908 E17.80270
G1 X120.353 Y79.426 E17.86009
G1 X119.158 Y78.012 E17.91739
G1 X117.903 Y76.686 E17.97388
G1 X116.573 Y75.427 E18.03054
G1 X115.130 Y74.209 E18.08896
G1 X113.620 Y73.075 E18.14739
G1 X112.047 Y72.030 E18.20583
G1 X110.417 Y71.077 E18.26426
G1 X108.737 Y70.220 E18.32260
G1 X107.340 Y69.595 E18.36997
G1 X105.581 Y68.914 E18.42832
G1 X103.784 Y68.335 E18.48675
G1 X101.957 Y67.861 E18.54515
G1 X100.103 Y67.491 E18.60363
G1 X98.234 Y67.229 E18.66203
G1 X96.435 Y67.078 E18.71790
G1 X95.635 Y67.055 E18.74265
G1 X94.935 Y67.661 F7800.000
G1 X94.940 Y63.361 E18.87570 F1800.000
G1 X96.531 Y63.403 E18.92496
G1 X98.458 Y63.556 E18.98477
G1 X100.381 Y63.812 E19.04480
G1 X102.288 Y64.170 E19.10483
G1 X104.173 Y64.628 E19.16486
G1 X106.032 Y65.185 E19.22489
G1 X107.858 Y65.839 E19.28492
G1 X109.647 Y66.590 E19.34495
G1 X111.394 Y67.434 E19.40499
G1 X113.094 Y68.369 E19.46502
G1 X114.743 Y69.393 E19.52508
G1 X115.015 Y69.580 E19.53528
G1 X116.333 Y70.502 E19.58507
G1 X117.864 Y71.695 E19.64510
G1 X119.379 Y73.012 E19.70723
G1 X120.774 Y74.363 E19.76731
G1 X122.048 Y75.733 E19.82519
G1 X123.311 Y77.242 E19.88610
G1 X124.492 Y78.817 E19.94699
G1 X125.586 Y80.453 E20.00789
G1 X126.591 Y82.146 E20.06879
G1 X127.502 Y83.889 E20.12966
G1 X128.320 Y85.680 E20.19058
G1 X129.040 Y87.512 E20.25147
G1 X129.660 Y89.379 E20.31237
G1 X130.180 Y91.278 E20.37326
G1 X130.596 Y93.202 E20.43418
G1 X130.859 Y94.783 E20.48377
G1 X131.087 Y96.738 E20.54469
G1 X131.216 Y98.837 E20.60974
G1 X131.226 Y100.773 E20.66964
G1 X131.142 Y102.581 E20.72563
G1 X130.951 Y104.540 E20.78654
G1 X130.655 Y106.487 E20.84749
G1 X130.586 Y106.838 E20.85855
G1 X130.256 Y108.412 E20.90832
G1 X129.753 Y110.315 E20.96923
G1 X129.148 Y112.188 E21.03012
G1 X128.444 Y114.026 E21.09102
G1 X127.643 Y115.824 E21.15192
G1 X126.745 Y117.575 E21.21281
G1 X125.755 Y119.277 E21.27372
G1 X124.876 Y120.624 E21.32349
G1 X124.677 Y120.920 E21.33455
G1 X123.509 Y122.507 E21.39550
G1 X122.258 Y124.027 E21.45641
G1 X121.040 Y125.365 E21.51240
G1 X119.664 Y126.726 E21.57230
G1 X118.089 Y128.119 E21.63735
G1 X116.544 Y129.341 E21.69827
G1 X115.241 Y130.273 E21.74786
G1 X113.586 Y131.339 E21.80878
G1 X111.876 Y132.314 E21.86967
G1 X110.117 Y133.196 E21.93057
G1 X108.312 Y133.982 E21.99147
G1 X106.468 Y134.671 E22.05238
G1 X106.127 Y134.779 E22.06345
G1 X104.590 Y135.258 E22.11325
G1 X102.683 Y135.745 E22.17415
G1 X100.753 Y136.128 E22.23505
G1 X98.805 Y136.407 E22.29594
G1 X96.844 Y136.581 E22.35685
G1 X94.975 Y136.649 E22.41473
G1 X93.033 Y136.618 E22.47481
G1 X91.030 Y136.478 E22.53694
G1 X89.104 Y136.239 E22.59697
G1 X87.520 Y135.958 E22.64676
G1 X87.196 Y135.898 E22.65696
G1 X85.305 Y135.457 E22.71703
G1 X83.442 Y134.916 E22.77706
G1 X81.610 Y134.278 E22.83709
G1 X79.814 Y133.543 E22.89712
G1 X78.060 Y132.714 E22.95715
G1 X76.352 Y131.794 E23.01718
G1 X74.695 Y130.785 E23.07721
G1 X73.094 Y129.689 E23.13724
G1 X71.553 Y128.510 E23.19727
G1 X70.082 Y127.256 E23.25708
G1 X68.923 Y126.157 E23.30650
G1 X71.965 Y123.115 E23.43963
G1 X73.236 Y124.300 E23.49339
G1 X74.382 Y125.267 E23.53977
G1 X75.861 Y126.382 E23.59709
G1 X77.402 Y127.411 E23.65441
G1 X78.999 Y128.349 E23.71174
G1 X80.647 Y129.194 E23.76904
G1 X82.016 Y129.807 E23.81545
G1 X84.075 Y130.594 E23.88363
G1 X85.504 Y131.049 E23.93004
G1 X87.295 Y131.519 E23.98734
G1 X89.110 Y131.884 E24.04464
G1 X89.468 Y131.937 E24.05584
G1 X90.946 Y132.146 E24.10200
G1 X92.791 Y132.301 E24.15931
G1 X94.582 Y132.351 E24.21473
G1 X96.377 Y132.301 E24.27030
G1 X98.189 Y132.150 E24.32655
G1 X99.989 Y131.896 E24.38281
G1 X101.773 Y131.542 E24.43907
G1 X103.533 Y131.089 E24.49532
G1 X105.266 Y130.537 E24.55158
G1 X106.964 Y129.889 E24.60783
G1 X108.624 Y129.146 E24.66409
G1 X110.239 Y128.311 E24.72034
G1 X111.805 Y127.387 E24.77659
G1 X113.044 Y126.559 E24.82273
G1 X113.316 Y126.376 E24.83286
G1 X114.768 Y125.282 E24.88911
G1 X116.156 Y124.109 E24.94536
G1 X117.458 Y122.878 E25.00078
G1 X118.692 Y121.573 E25.05635
G1 X119.866 Y120.185 E25.11260
G1 X120.960 Y118.733 E25.16886
G1 X121.970 Y117.221 E25.22511
G1 X122.894 Y115.656 E25.28137
G1 X123.729 Y114.040 E25.33762
G1 X123.863 Y113.742 E25.34775
G1 X124.472 Y112.381 E25.39388
G1 X125.120 Y110.682 E25.45013
G1 X125.672 Y108.950 E25.50639
G1 X126.126 Y107.189 E25.56264
