; generated by Slic3r 1.2.9 on 2015-07-12 at 14:14:44

; external perimeters extrusion width = 0.40mm
; perimeters extrusion width = 0.68mm
; infill extrusion width = 1.28mm
; solid infill extrusion width = 0.68mm
; top infill extrusion width = 0.68mm

M107
; old: G28 ; home all axes
; old: G1 Z5 F5000 ; lift nozzle

; from https://www.reddit.com/r/3Dprinting/comments/254r3h/thought_id_share_my_slic3r_start_code_which/
; edited to heat before homing.
G90 ; absolute positioning
G21 ; units to mm
M190 S70  ; wait for bed temp
M109 S205 ; wait for extruder temp
G28 ; home XYZ **Remove this line if you set home manually and/or don't use endstops**
M83 ; extruder relative mode
G1 Z.4 F200 ; raise Z .35mm @ 5mm/s **Change this to to your nozzle size**
G1 X15 E2.0 F75 ; extrude a thick line of 2 mm of filament **This should be good for .35 to .50 nozzles**
M82 ; extruder to absolute mode
G92 E0 ; reset E to 0 **Print G-code takes over from here**
G21 ; set units to millimeters
G90 ; use absolute coordinates
M82 ; use absolute distances for extrusion
G92 E0
G1 Z0.300 F9000.000
G1 E-5.00000 F2400.00000
G92 E0
G1 Z0.400 F9000.000
G1 X75.686 Y88.139 F9000.000
G1 Z0.300 F9000.000
G1 E5.00000 F2400.00000
G1 X77.982 Y86.863 E5.06618 F1800.000
G1 X81.000 Y86.322 E5.14340
G1 X129.000 Y86.322 E6.35243
G1 X131.597 Y86.720 E6.41861
G1 X133.956 Y87.876 E6.48479 F1800.000
G1 X135.861 Y89.686 E6.55096
G1 X137.137 Y91.982 E6.61714
G1 X137.678 Y95.000 E6.69436
G1 X137.678 Y115.000 E7.19812
G1 X137.280 Y117.597 E7.26430
G1 X136.124 Y119.956 E7.33048
G1 X134.314 Y121.861 E7.39665
G1 X132.018 Y123.137 E7.46283
G1 X129.000 Y123.678 E7.54005
G1 X81.000 Y123.678 E8.74909
G1 X78.403 Y123.280 E8.81526
G1 X76.044 Y122.124 E8.88144
G1 X74.139 Y120.314 E8.94761
G1 X72.863 Y118.018 E9.01379
G1 X72.322 Y115.000 E9.09101
G1 X72.322 Y95.000 E9.59478
G1 X72.720 Y92.403 E9.66095
G1 X73.876 Y90.044 E9.72713
G1 X75.644 Y88.183 E9.79179
G1 X76.086 Y88.539 F9000.000
G1 X76.206 Y88.418 E9.79608 F1800.000
G1 X78.472 Y87.260 E9.86017
G1 X81.000 Y86.858 E9.92465
G1 X129.000 Y86.858 E11.13369
G1 X131.513 Y87.255 E11.19778
G1 X133.781 Y88.409 E11.26187 F1800.000
G1 X135.582 Y90.206 E11.32596
G1 X136.740 Y92.472 E11.39005
G1 X137.142 Y95.000 E11.45453
G1 X137.142 Y115.000 E11.95829
G1 X136.745 Y117.513 E12.02238
G1 X135.591 Y119.781 E12.08647
G1 X133.794 Y121.582 E12.15056
G1 X131.528 Y122.740 E12.21465
G1 X129.000 Y123.142 E12.27913
G1 X81.000 Y123.142 E13.48817
G1 X78.487 Y122.745 E13.55226
G1 X76.219 Y121.591 E13.61635
G1 X74.418 Y119.794 E13.68044
G1 X73.260 Y117.528 E13.74453
G1 X72.858 Y115.000 E13.80901
G1 X72.858 Y95.000 E14.31277
G1 X73.255 Y92.487 E14.37686
G1 X74.409 Y90.219 E14.44095
G1 X76.044 Y88.581 E14.49924
G1 X76.473 Y88.947 F9000.000
G1 X76.725 Y88.708 E14.50797 F1800.000
G1 X78.955 Y87.673 E14.56990
G1 X81.000 Y87.393 E14.62189
G1 X129.000 Y87.393 E15.83093
G1 X131.426 Y87.791 E15.89286
G1 X133.599 Y88.941 E15.95479 F1800.000
G1 X135.292 Y90.725 E16.01673
G1 X136.327 Y92.955 E16.07866
G1 X136.607 Y95.000 E16.13065
G1 X136.607 Y115.000 E16.63441
G1 X136.209 Y117.426 E16.69634
G1 X135.059 Y119.599 E16.75828
G1 X133.275 Y121.292 E16.82021
G1 X131.045 Y122.327 E16.88214
G1 X129.000 Y122.607 E16.93413
G1 X81.000 Y122.607 E18.14317
G1 X78.574 Y122.209 E18.20510
G1 X76.401 Y121.059 E18.26703
G1 X74.708 Y119.275 E18.32896
G1 X73.673 Y117.045 E18.39089
G1 X73.393 Y115.000 E18.44288
G1 X73.393 Y95.000 E18.94665
G1 X73.791 Y92.574 E19.00858
G1 X74.941 Y90.401 E19.07051
G1 X76.430 Y88.988 E19.12220
G1 X76.845 Y89.364 F9000.000
G1 X77.241 Y89.011 E19.13554 F1800.000
G1 X79.431 Y88.105 E19.19524
G1 X81.000 Y87.929 E19.23502
G1 X129.000 Y87.929 E20.44405
G1 X131.337 Y88.326 E20.50375
G1 X133.411 Y89.473 E20.56345 F1800.000
G1 X134.989 Y91.241 E20.62314
G1 X135.895 Y93.431 E20.68284
G1 X136.071 Y95.000 E20.72262
G1 X136.071 Y115.000 E21.22638
G1 X135.674 Y117.337 E21.28608
G1 X134.527 Y119.411 E21.34577
G1 X132.759 Y120.989 E21.40547
G1 X130.569 Y121.895 E21.46517
G1 X129.000 Y122.071 E21.50494
G1 X81.000 Y122.071 E22.71398
G1 X78.663 Y121.674 E22.77368
G1 X76.589 Y120.527 E22.83337
G1 X75.011 Y118.759 E22.89307
G1 X74.105 Y116.569 E22.95277
G1 X73.929 Y115.000 E22.99254
G1 X73.929 Y95.000 E23.49631
G1 X74.326 Y92.663 E23.55600
G1 X75.473 Y90.589 E23.61570
G1 X76.801 Y89.404 E23.66054
G1 X77.200 Y89.789 F9000.000
G1 X77.753 Y89.328 E23.67869 F1800.000
G1 X81.000 Y88.464 E23.76331
G1 X129.000 Y88.464 E24.97234
G1 X131.243 Y88.861 E25.02972
G1 X133.213 Y90.004 E25.08709 F1800.000
G1 X134.672 Y91.753 E25.14447
G1 X135.536 Y95.000 E25.22908
G1 X135.536 Y115.000 E25.73285
G1 X135.139 Y117.243 E25.79022
G1 X133.996 Y119.213 E25.84760
G1 X132.247 Y120.672 E25.90497
G1 X129.000 Y121.536 E25.98959
G1 X81.000 Y121.536 E27.19863
G1 X78.757 Y121.139 E27.25600
G1 X76.787 Y119.996 E27.31338
G1 X75.328 Y118.247 E27.37075
G1 X74.464 Y115.000 E27.45537
G1 X74.464 Y95.000 E27.95913
G1 X74.861 Y92.757 E28.01651
G1 X76.004 Y90.787 E28.07388
G1 X77.154 Y89.828 E28.11160
G1 E23.11160 F2400.00000
G92 E0
G1 Z0.400 F9000.000
G1 X128.164 Y114.164 F9000.000
G1 Z0.300 F9000.000
G1 E5.00000 F2400.00000
G1 X81.836 Y114.164 E6.16694 F1800.000
G1 X81.836 Y95.836 E6.62861
G1 X128.164 Y95.836 E7.79555
G1 X128.164 Y114.104 E8.25571
G1 X128.700 Y114.700 F9000.000
G1 X81.300 Y114.700 E9.44963 F1800.000
G1 X81.300 Y95.300 E9.93828
G1 X128.700 Y95.300 E11.13221
G1 X128.700 Y114.640 E11.61935
G1 X128.354 Y114.500 F9000.000
G1 X127.843 Y96.424 F9000.000
G1 X127.576 Y96.157 E11.62898 F1800.000
G1 X126.809 Y96.157 E11.64850
G1 X127.843 Y97.191 E11.68575
G1 X127.843 Y97.957 E11.70528
G1 X126.043 Y96.157 E11.77014
G1 X125.277 Y96.157 E11.78966
G1 X127.843 Y98.723 E11.88214
G1 X127.843 Y99.490 E11.90166
G1 X124.510 Y96.157 E12.02175
G1 X123.744 Y96.157 E12.04128
G1 X127.843 Y100.256 E12.18898
G1 X127.843 Y101.022 E12.20851
G1 X122.978 Y96.157 E12.38383
G1 X122.211 Y96.157 E12.40335
G1 X127.843 Y101.789 E12.60629
G1 X127.843 Y102.555 E12.62581
G1 X121.445 Y96.157 E12.85636
G1 X120.679 Y96.157 E12.87589
G1 X127.843 Y103.321 E13.13405
G1 X127.843 Y104.087 E13.15357
G1 X119.913 Y96.157 E13.43935
G1 X119.146 Y96.157 E13.45888
G1 X127.843 Y104.854 E13.77227
G1 X127.843 Y105.620 E13.79179
G1 X118.380 Y96.157 E14.13280
G1 X117.614 Y96.157 E14.15233
G1 X127.843 Y106.386 E14.52095
G1 X127.843 Y107.153 E14.54047
G1 X116.847 Y96.157 E14.93671
G1 X116.081 Y96.157 E14.95623
G1 X127.843 Y107.919 E15.38008
G1 X127.843 Y108.685 E15.39961
G1 X115.315 Y96.157 E15.85107
G1 X114.548 Y96.157 E15.87060
G1 X127.843 Y109.452 E16.34968
G1 X127.843 Y110.218 E16.36921
G1 X113.782 Y96.157 E16.87590
G1 X113.016 Y96.157 E16.89543
G1 X127.843 Y110.984 E17.42973
G1 X127.843 Y111.750 E17.44926
G1 X112.250 Y96.157 E18.01118
G1 X111.483 Y96.157 E18.03071
G1 X127.843 Y112.517 E18.62025
G1 X127.843 Y113.283 E18.63977
G1 X110.717 Y96.157 E19.25692
G1 X109.951 Y96.157 E19.27645
G1 X127.636 Y113.843 E19.91377
G1 X126.870 Y113.843 E19.93330
G1 X109.184 Y96.157 E20.57062
G1 X108.418 Y96.157 E20.59014
G1 X126.104 Y113.843 E21.22746
G1 X125.337 Y113.843 E21.24699
G1 X107.652 Y96.157 E21.88431
G1 X106.885 Y96.157 E21.90384
G1 X124.571 Y113.843 E22.54115
G1 X123.805 Y113.843 E22.56068
G1 X106.119 Y96.157 E23.19800
G1 X105.353 Y96.157 E23.21753
G1 X123.038 Y113.843 E23.85485
G1 X122.272 Y113.843 E23.87437
G1 X104.587 Y96.157 E24.51169
G1 X103.820 Y96.157 E24.53122
G1 X121.506 Y113.843 E25.16854
G1 X120.739 Y113.843 E25.18807
G1 X103.054 Y96.157 E25.82539
G1 X102.288 Y96.157 E25.84491
G1 X119.973 Y113.843 E26.48223
G1 X119.207 Y113.843 E26.50176
G1 X101.521 Y96.157 E27.13908
G1 X100.755 Y96.157 E27.15860
G1 X118.441 Y113.843 E27.79592
G1 X117.674 Y113.843 E27.81545
G1 X99.989 Y96.157 E28.45277
G1 X99.222 Y96.157 E28.47230
G1 X116.908 Y113.843 E29.10962
G1 X116.142 Y113.843 E29.12914
G1 X98.456 Y96.157 E29.76646
G1 X97.690 Y96.157 E29.78599
G1 X115.375 Y113.843 E30.42331
G1 X114.609 Y113.843 E30.44284
G1 X96.924 Y96.157 E31.08015
G1 X96.157 Y96.157 E31.09968
G1 X113.843 Y113.843 E31.73700
G1 X113.076 Y113.843 E31.75653
G1 X95.391 Y96.157 E32.39385
G1 X94.625 Y96.157 E32.41337
G1 X112.310 Y113.843 E33.05069
G1 X111.544 Y113.843 E33.07022
G1 X93.858 Y96.157 E33.70754
G1 X93.092 Y96.157 E33.72707
G1 X110.778 Y113.843 E34.36439
G1 X110.011 Y113.843 E34.38391
G1 X92.326 Y96.157 E35.02123
G1 X91.559 Y96.157 E35.04076
G1 X109.245 Y113.843 E35.67808
G1 X108.479 Y113.843 E35.69760
G1 X90.793 Y96.157 E36.33492
G1 X90.027 Y96.157 E36.35445
G1 X107.712 Y113.843 E36.99177
G1 X106.946 Y113.843 E37.01130
G1 X89.261 Y96.157 E37.64862
G1 X88.494 Y96.157 E37.66814
G1 X106.180 Y113.843 E38.30546
G1 X105.413 Y113.843 E38.32499
G1 X87.728 Y96.157 E38.96231
G1 X86.962 Y96.157 E38.98184
G1 X104.647 Y113.843 E39.61915
G1 X103.881 Y113.843 E39.63868
G1 X86.195 Y96.157 E40.27600
G1 X85.429 Y96.157 E40.29553
G1 X103.115 Y113.843 E40.93285
G1 X102.348 Y113.843 E40.95237
G1 X84.663 Y96.157 E41.58969
G1 X83.896 Y96.157 E41.60922
G1 X101.582 Y113.843 E42.24654
G1 X100.816 Y113.843 E42.26607
G1 X83.130 Y96.157 E42.90339
G1 X82.364 Y96.157 E42.92291
G1 X100.049 Y113.843 E43.56023
G1 X99.283 Y113.843 E43.57976
G1 X82.157 Y96.717 E44.19691
G1 X82.157 Y97.483 E44.21643
G1 X98.517 Y113.843 E44.80597
G1 X97.750 Y113.843 E44.82550
G1 X82.157 Y98.250 E45.38742
G1 X82.157 Y99.016 E45.40694
G1 X96.984 Y113.843 E45.94125
G1 X96.218 Y113.843 E45.96077
G1 X82.157 Y99.782 E46.46747
G1 X82.157 Y100.548 E46.48699
G1 X95.452 Y113.843 E46.96607
G1 X94.685 Y113.843 E46.98560
G1 X82.157 Y101.315 E47.43706
G1 X82.157 Y102.081 E47.45658
G1 X93.919 Y113.843 E47.88043
G1 X93.153 Y113.843 E47.89996
G1 X82.157 Y102.847 E48.29619
G1 X82.157 Y103.614 E48.31572
G1 X92.386 Y113.843 E48.68433
G1 X91.620 Y113.843 E48.70386
G1 X82.157 Y104.380 E49.04486
G1 X82.157 Y105.146 E49.06439
G1 X90.854 Y113.843 E49.37778
G1 X90.087 Y113.843 E49.39731
G1 X82.157 Y105.913 E49.68308
G1 X82.157 Y106.679 E49.70261
G1 X89.321 Y113.843 E49.96077
G1 X88.555 Y113.843 E49.98029
G1 X82.157 Y107.445 E50.21084
G1 X82.157 Y108.211 E50.23037
G1 X87.789 Y113.843 E50.43330
G1 X87.022 Y113.843 E50.45282
G1 X82.157 Y108.978 E50.62814
G1 X82.157 Y109.744 E50.64766
G1 X86.256 Y113.843 E50.79537
G1 X85.490 Y113.843 E50.81489
G1 X82.157 Y110.510 E50.93498
G1 X82.157 Y111.277 E50.95451
G1 X84.723 Y113.843 E51.04698
G1 X83.957 Y113.843 E51.06650
G1 X82.157 Y112.043 E51.13136
G1 X82.157 Y112.809 E51.15089
G1 X83.191 Y113.843 E51.18813
G1 X82.424 Y113.843 E51.20766
G1 X82.157 Y113.576 E51.21729
M104 S195 ; set temperature
G1 Z0.400 F9000.000
G1 X128.281 Y114.281 F9000.000
G1 X81.719 Y114.281 E51.69795 F3000.000
G1 X81.719 Y95.719 E51.88957
G1 X128.281 Y95.719 E52.37024
G1 X128.281 Y114.221 E52.56124
G1 X128.800 Y114.800 F9000.000
G1 X81.200 Y114.800 E52.84369 F1500.000
G1 X81.200 Y95.200 E52.95999
G1 X128.800 Y95.200 E53.24244
G1 X128.800 Y114.740 E53.35839
G1 X128.454 Y114.600 F9000.000
G1 X127.562 Y113.881 F9000.000
G1 X127.881 Y113.562 E53.36309 F1500.000
G1 X127.881 Y112.623 E53.37285
G1 X126.623 Y113.881 E53.39136
G1 X125.685 Y113.881 E53.40113
G1 X127.881 Y111.685 E53.43345
G1 X127.881 Y110.746 E53.44321
G1 X124.746 Y113.881 E53.48934
G1 X123.808 Y113.881 E53.49911
G1 X127.881 Y109.808 E53.55905
G1 X127.881 Y108.869 E53.56881
G1 X122.869 Y113.881 E53.64256
G1 X121.930 Y113.881 E53.65232
G1 X127.881 Y107.930 E53.73988
G1 X127.881 Y106.992 E53.74965
G1 X120.992 Y113.881 E53.85102
G1 X120.053 Y113.881 E53.86078
G1 X127.881 Y106.053 E53.97596
G1 X127.881 Y105.115 E53.98573
G1 X119.115 Y113.881 E54.11472
G1 X118.176 Y113.881 E54.12448
G1 X127.881 Y104.176 E54.26728
G1 X127.881 Y103.237 E54.27704
G1 X117.237 Y113.881 E54.43365
G1 X116.299 Y113.881 E54.44342
G1 X127.881 Y102.299 E54.61384
G1 X127.881 Y101.360 E54.62360
G1 X115.360 Y113.881 E54.80783
G1 X114.421 Y113.881 E54.81760
G1 X127.881 Y100.421 E55.01563
G1 X127.881 Y99.483 E55.02540
G1 X113.483 Y113.881 E55.23725
G1 X112.544 Y113.881 E55.24701
G1 X127.881 Y98.544 E55.47267
G1 X127.881 Y97.606 E55.48244
G1 X111.606 Y113.881 E55.72191
G1 X110.667 Y113.881 E55.73167
G1 X127.881 Y96.667 E55.98495
G1 X127.491 Y96.119 E55.99195
G1 X109.728 Y113.881 E56.25330
G1 X108.790 Y113.881 E56.26306
G1 X126.553 Y96.119 E56.52441
G1 X125.614 Y96.119 E56.53418
G1 X107.851 Y113.881 E56.79552
G1 X106.913 Y113.881 E56.80529
G1 X124.675 Y96.119 E57.06664
G1 X123.737 Y96.119 E57.07640
G1 X105.974 Y113.881 E57.33775
G1 X105.035 Y113.881 E57.34752
G1 X122.798 Y96.119 E57.60886
G1 X121.860 Y96.119 E57.61863
G1 X104.097 Y113.881 E57.87998
G1 X103.158 Y113.881 E57.88974
G1 X120.921 Y96.119 E58.15109
G1 X119.982 Y96.119 E58.16085
G1 X102.220 Y113.881 E58.42220
G1 X101.281 Y113.881 E58.43197
G1 X119.044 Y96.119 E58.69331
G1 X118.105 Y96.119 E58.70308
G1 X100.342 Y113.881 E58.96443
G1 X99.404 Y113.881 E58.97419
G1 X117.167 Y96.119 E59.23554
G1 X116.228 Y96.119 E59.24530
G1 X98.465 Y113.881 E59.50665
G1 X97.526 Y113.881 E59.51642
G1 X115.289 Y96.119 E59.77776
G1 X114.351 Y96.119 E59.78753
G1 X96.588 Y113.881 E60.04888
G1 X95.649 Y113.881 E60.05864
G1 X113.412 Y96.119 E60.31999
G1 X112.473 Y96.119 E60.32976
G1 X94.711 Y113.881 E60.59110
G1 X93.772 Y113.881 E60.60087
G1 X111.535 Y96.119 E60.86222
G1 X110.596 Y96.119 E60.87198
G1 X92.833 Y113.881 E61.13333
G1 X91.895 Y113.881 E61.14309
G1 X109.658 Y96.119 E61.40444
G1 X108.719 Y96.119 E61.41421
G1 X90.956 Y113.881 E61.67555
G1 X90.018 Y113.881 E61.68532
G1 X107.780 Y96.119 E61.94667
G1 X106.842 Y96.119 E61.95643
G1 X89.079 Y113.881 E62.21778
G1 X88.140 Y113.881 E62.22754
G1 X105.903 Y96.119 E62.48889
G1 X104.965 Y96.119 E62.49866
G1 X87.202 Y113.881 E62.76000
G1 X86.263 Y113.881 E62.76977
G1 X104.026 Y96.119 E63.03112
G1 X103.087 Y96.119 E63.04088
G1 X85.325 Y113.881 E63.30223
G1 X84.386 Y113.881 E63.31200
G1 X102.149 Y96.119 E63.57334
G1 X101.210 Y96.119 E63.58311
G1 X83.447 Y113.881 E63.84446
G1 X82.509 Y113.881 E63.85422
G1 X100.272 Y96.119 E64.11557
G1 X99.333 Y96.119 E64.12533
G1 X82.119 Y113.333 E64.37861
G1 X82.119 Y112.394 E64.38838
G1 X98.394 Y96.119 E64.62784
G1 X97.456 Y96.119 E64.63761
G1 X82.119 Y111.456 E64.86327
G1 X82.119 Y110.517 E64.87303
G1 X96.517 Y96.119 E65.08488
G1 X95.578 Y96.119 E65.09464
G1 X82.119 Y109.578 E65.29268
G1 X82.119 Y108.640 E65.30245
G1 X94.640 Y96.119 E65.48667
G1 X93.701 Y96.119 E65.49644
G1 X82.119 Y107.701 E65.66686
G1 X82.119 Y106.763 E65.67662
G1 X92.763 Y96.119 E65.83323
G1 X91.824 Y96.119 E65.84299
G1 X82.119 Y105.824 E65.98579
G1 X82.119 Y104.885 E65.99556
G1 X90.885 Y96.119 E66.12454
G1 X89.947 Y96.119 E66.13431
G1 X82.119 Y103.947 E66.24949
G1 X82.119 Y103.008 E66.25925
G1 X89.008 Y96.119 E66.36062
G1 X88.070 Y96.119 E66.37038
G1 X82.119 Y102.070 E66.45794
G1 X82.119 Y101.131 E66.46771
G1 X87.131 Y96.119 E66.54146
G1 X86.192 Y96.119 E66.55122
G1 X82.119 Y100.192 E66.61116
G1 X82.119 Y99.254 E66.62092
G1 X85.254 Y96.119 E66.66705
G1 X84.315 Y96.119 E66.67682
G1 X82.119 Y98.315 E66.70913
G1 X82.119 Y97.377 E66.71890
G1 X83.377 Y96.119 E66.73741
G1 X82.438 Y96.119 E66.74717
G1 X82.119 Y96.438 E66.75187
G1 Z0.500 F9000.000
G1 X128.281 Y114.281 F9000.000
G1 X81.719 Y114.281 E67.23254 F3000.000
G1 X81.719 Y95.719 E67.42416
G1 X128.281 Y95.719 E67.90482
G1 X128.281 Y114.221 E68.09583
G1 X128.800 Y114.800 F9000.000
G1 X81.200 Y114.800 E68.37828 F1500.000
G1 X81.200 Y95.200 E68.49458
G1 X128.800 Y95.200 E68.77703
G1 X128.800 Y114.740 E68.89297
G1 X128.454 Y114.600 F9000.000
G1 X127.881 Y96.438 F9000.000
G1 X127.562 Y96.119 E68.89767 F1500.000
G1 X126.623 Y96.119 E68.90744
G1 X127.881 Y97.377 E68.92595
G1 X127.881 Y98.315 E68.93571
G1 X125.685 Y96.119 E68.96803
G1 X124.746 Y96.119 E68.97780
G1 X127.881 Y99.254 E69.02393
G1 X127.881 Y100.192 E69.03369
G1 X123.808 Y96.119 E69.09363
G1 X122.869 Y96.119 E69.10340
G1 X127.881 Y101.131 E69.17714
G1 X127.881 Y102.070 E69.18691
G1 X121.930 Y96.119 E69.27447
G1 X120.992 Y96.119 E69.28423
G1 X127.881 Y103.008 E69.38560
G1 X127.881 Y103.947 E69.39537
G1 X120.053 Y96.119 E69.51055
G1 X119.115 Y96.119 E69.52031
G1 X127.881 Y104.885 E69.64930
G1 X127.881 Y105.824 E69.65907
