; generated by Slic3r 1.2.9 on 2015-07-12 at 14:14:21

; external perimeters extrusion width = 0.40mm
; perimeters extrusion width = 0.48mm
; infill extrusion width = 0.48mm
; solid infill extrusion width = 0.48mm
; top infill extrusion width = 0.48mm

M107
; old: G28 ; home all axes
; old: G1 Z5 F5000 ; lift nozzle

; from https://www.reddit.com/r/3Dprinting/comments/254r3h/thought_id_share_my_slic3r_start_code_which/
; edited to heat before homing.
G90 ; absolute positioning
G21 ; units to mm
M190 S70  ; wait for bed temp
M109 S205 ; wait for extruder temp
G28 ; home XYZ **Remove this line if you set home manually and/or don't use endstops**
M83 ; extruder relative mode
G1 Z.4 F200 ; raise Z .35mm @ 5mm/s **Change this to to your nozzle size**
G1 X15 E2.0 F75 ; extrude a thick line of 2 mm of filament **This should be good for .35 to .50 nozzles**
M82 ; extruder to absolute mode
G92 E0 ; reset E to 0 **Print G-code takes over from here**
G21 ; set units to millimeters
G90 ; use absolute coordinates
M82 ; use absolute distances for extrusion
G92 E0
G1 Z0.300 F9000.000
G1 E-5.00000 F2400.00000
G92 E0
G1 Z0.400 F9000.000
G1 X75.686 Y88.139 F9000.000
G1 Z0.300 F9000.000
G1 E5.00000 F2400.00000
G1 X77.982 Y86.863 E5.06618 F1800.000
G1 X81.000 Y86.322 E5.14340
G1 X129.000 Y86.322 E6.35243
G1 X131.597 Y86.720 E6.41861
G1 X133.956 Y87.876 E6.48479 F1800.000
G1 X135.861 Y89.686 E6.55096
G1 X137.137 Y91.982 E6.61714
G1 X137.678 Y95.000 E6.69436
G1 X137.678 Y115.000 E7.19812
G1 X137.280 Y117.597 E7.26430
G1 X136.124 Y119.956 E7.33048
G1 X134.314 Y121.861 E7.39665
G1 X132.018 Y123.137 E7.46283
G1 X129.000 Y123.678 E7.54005
G1 X81.000 Y123.678 E8.74909
G1 X78.403 Y123.280 E8.81526
G1 X76.044 Y122.124 E8.88144
G1 X74.139 Y120.314 E8.94761
G1 X72.863 Y118.018 E9.01379
G1 X72.322 Y115.000 E9.09101
G1 X72.322 Y95.000 E9.59478
G1 X72.720 Y92.403 E9.66095
G1 X73.876 Y90.044 E9.72713
G1 X75.644 Y88.183 E9.79179
G1 X76.086 Y88.539 F9000.000
G1 X76.206 Y88.418 E9.79608 F1800.000
G1 X78.472 Y87.260 E9.86017
G1 X81.000 Y86.858 E9.92465
G1 X129.000 Y86.858 E11.13369
G1 X131.513 Y87.255 E11.19778
G1 X133.781 Y88.409 E11.26187 F1800.000
G1 X135.582 Y90.206 E11.32596
G1 X136.740 Y92.472 E11.39005
G1 X137.142 Y95.000 E11.45453
G1 X137.142 Y115.000 E11.95829
G1 X136.745 Y117.513 E12.02238
G1 X135.591 Y119.781 E12.08647
G1 X133.794 Y121.582 E12.15056
G1 X131.528 Y122.740 E12.21465
G1 X129.000 Y123.142 E12.27913
G1 X81.000 Y123.142 E13.48817
G1 X78.487 Y122.745 E13.55226
G1 X76.219 Y121.591 E13.61635
G1 X74.418 Y119.794 E13.68044
G1 X73.260 Y117.528 E13.74453
G1 X72.858 Y115.000 E13.80901
G1 X72.858 Y95.000 E14.31277
G1 X73.255 Y92.487 E14.37686
G1 X74.409 Y90.219 E14.44095
G1 X76.044 Y88.581 E14.49924
G1 X76.473 Y88.947 F9000.000
G1 X76.725 Y88.708 E14.50797 F1800.000
G1 X78.955 Y87.673 E14.56990
G1 X81.000 Y87.393 E14.62189
G1 X129.000 Y87.393 E15.83093
G1 X131.426 Y87.791 E15.89286
G1 X133.599 Y88.941 E15.95479 F1800.000
G1 X135.292 Y90.725 E16.01673
G1 X136.327 Y92.955 E16.07866
G1 X136.607 Y95.000 E16.13065
G1 X136.607 Y115.000 E16.63441
G1 X136.209 Y117.426 E16.69634
G1 X135.059 Y119.599 E16.75828
G1 X133.275 Y121.292 E16.82021
G1 X131.045 Y122.327 E16.88214
G1 X129.000 Y122.607 E16.93413
G1 X81.000 Y122.607 E18.14317
G1 X78.574 Y122.209 E18.20510
G1 X76.401 Y121.059 E18.26703
G1 X74.708 Y119.275 E18.32896
G1 X73.673 Y117.045 E18.39089
G1 X73.393 Y115.000 E18.44288
G1 X73.393 Y95.000 E18.94665
G1 X73.791 Y92.574 E19.00858
G1 X74.941 Y90.401 E19.07051
G1 X76.430 Y88.988 E19.12220
G1 X76.845 Y89.364 F9000.000
G1 X77.241 Y89.011 E19.13554 F1800.000
G1 X79.431 Y88.105 E19.19524
G1 X81.000 Y87.929 E19.23502
G1 X129.000 Y87.929 E20.44405
G1 X131.337 Y88.326 E20.50375
G1 X133.411 Y89.473 E20.56345 F1800.000
G1 X134.989 Y91.241 E20.62314
G1 X135.895 Y93.431 E20.68284
G1 X136.071 Y95.000 E20.72262
G1 X136.071 Y115.000 E21.22638
G1 X135.674 Y117.337 E21.28608
G1 X134.527 Y119.411 E21.34577
G1 X132.759 Y120.989 E21.40547
G1 X130.569 Y121.895 E21.46517
G1 X129.000 Y122.071 E21.50494
G1 X81.000 Y122.071 E22.71398
G1 X78.663 Y121.674 E22.77368
G1 X76.589 Y120.527 E22.83337
G1 X75.011 Y118.759 E22.89307
G1 X74.105 Y116.569 E22.95277
G1 X73.929 Y115.000 E22.99254
G1 X73.929 Y95.000 E23.49631
G1 X74.326 Y92.663 E23.55600
G1 X75.473 Y90.589 E23.61570
G1 X76.801 Y89.404 E23.66054
G1 X77.200 Y89.789 F9000.000
G1 X77.753 Y89.328 E23.67869 F1800.000
G1 X81.000 Y88.464 E23.76331
G1 X129.000 Y88.464 E24.97234
G1 X131.243 Y88.861 E25.02972
G1 X133.213 Y90.004 E25.08709 F1800.000
G1 X134.672 Y91.753 E25.14447
G1 X135.536 Y95.000 E25.22908
G1 X135.536 Y115.000 E25.73285
G1 X135.139 Y117.243 E25.79022
G1 X133.996 Y119.213 E25.84760
G1 X132.247 Y120.672 E25.90497
G1 X129.000 Y121.536 E25.98959
G1 X81.000 Y121.536 E27.19863
G1 X78.757 Y121.139 E27.25600
G1 X76.787 Y119.996 E27.31338
G1 X75.328 Y118.247 E27.37075
G1 X74.464 Y115.000 E27.45537
G1 X74.464 Y95.000 E27.95913
G1 X74.861 Y92.757 E28.01651
G1 X76.004 Y90.787 E28.07388
G1 X77.154 Y89.828 E28.11160
G1 E23.11160 F2400.00000
G92 E0
G1 Z0.400 F9000.000
G1 X128.164 Y114.164 F9000.000
G1 Z0.300 F9000.000
G1 E5.00000 F2400.00000
G1 X81.836 Y114.164 E6.16694 F1800.000
G1 X81.836 Y95.836 E6.62861
G1 X128.164 Y95.836 E7.79555
G1 X128.164 Y114.104 E8.25571
G1 X128.700 Y114.700 F9000.000
G1 X81.300 Y114.700 E9.44963 F1800.000
G1 X81.300 Y95.300 E9.93828
G1 X128.700 Y95.300 E11.13221
G1 X128.700 Y114.640 E11.61935
G1 X128.354 Y114.500 F9000.000
G1 X127.843 Y96.424 F9000.000
G1 X127.576 Y96.157 E11.62898 F1800.000
G1 X126.809 Y96.157 E11.64850
G1 X127.843 Y97.191 E11.68575
G1 X127.843 Y97.957 E11.70528
G1 X126.043 Y96.157 E11.77014
G1 X125.277 Y96.157 E11.78966
G1 X127.843 Y98.723 E11.88214
G1 X127.843 Y99.490 E11.90166
G1 X124.510 Y96.157 E12.02175
G1 X123.744 Y96.157 E12.04128
G1 X127.843 Y100.256 E12.18898
G1 X127.843 Y101.022 E12.20851
G1 X122.978 Y96.157 E12.38383
G1 X122.211 Y96.157 E12.40335
G1 X127.843 Y101.789 E12.60629
G1 X127.843 Y102.555 E12.62581
G1 X121.445 Y96.157 E12.85636
G1 X120.679 Y96.157 E12.87589
G1 X127.843 Y103.321 E13.13405
G1 X127.843 Y104.087 E13.15357
G1 X119.913 Y96.157 E13.43935
G1 X119.146 Y96.157 E13.45888
G1 X127.843 Y104.854 E13.77227
G1 X127.843 Y105.620 E13.79179
G1 X118.380 Y96.157 E14.13280
G1 X117.614 Y96.157 E14.15233
G1 X127.843 Y106.386 E14.52095
G1 X127.843 Y107.153 E14.54047
G1 X116.847 Y96.157 E14.93671
G1 X116.081 Y96.157 E14.95623
G1 X127.843 Y107.919 E15.38008
G1 X127.843 Y108.685 E15.39961
G1 X115.315 Y96.157 E15.85107
G1 X114.548 Y96.157 E15.87060
G1 X127.843 Y109.452 E16.34968
G1 X127.843 Y110.218 E16.36921
G1 X113.782 Y96.157 E16.87590
G1 X113.016 Y96.157 E16.89543
G1 X127.843 Y110.984 E17.42973
G1 X127.843 Y111.750 E17.44926
G1 X112.250 Y96.157 E18.01118
G1 X111.483 Y96.157 E18.03071
G1 X127.843 Y112.517 E18.62025
G1 X127.843 Y113.283 E18.63977
G1 X110.717 Y96.157 E19.25692
G1 X109.951 Y96.157 E19.27645
G1 X127.636 Y113.843 E19.91377
G1 X126.870 Y113.843 E19.93330
G1 X109.184 Y96.157 E20.57062
G1 X108.418 Y96.157 E20.59014
G1 X126.104 Y113.843 E21.22746
G1 X125.337 Y113.843 E21.24699
G1 X107.652 Y96.157 E21.88431
G1 X106.885 Y96.157 E21.90384
G1 X124.571 Y113.843 E22.54115
G1 X123.805 Y113.843 E22.56068
G1 X106.119 Y96.157 E23.19800
G1 X105.353 Y96.157 E23.21753
G1 X123.038 Y113.843 E23.85485
G1 X122.272 Y113.843 E23.87437
G1 X104.587 Y96.157 E24.51169
G1 X103.820 Y96.157 E24.53122
G1 X121.506 Y113.843 E25.16854
G1 X120.739 Y113.843 E25.18807
G1 X103.054 Y96.157 E25.82539
G1 X102.288 Y96.157 E25.84491
G1 X119.973 Y113.843 E26.48223
G1 X119.207 Y113.843 E26.50176
G1 X101.521 Y96.157 E27.13908
G1 X100.755 Y96.157 E27.15860
G1 X118.441 Y113.843 E27.79592
G1 X117.674 Y113.843 E27.81545
G1 X99.989 Y96.157 E28.45277
G1 X99.222 Y96.157 E28.47230
G1 X116.908 Y113.843 E29.10962
G1 X116.142 Y113.843 E29.12914
G1 X98.456 Y96.157 E29.76646
G1 X97.690 Y96.157 E29.78599
G1 X115.375 Y113.843 E30.42331
G1 X114.609 Y113.843 E30.44284
G1 X96.924 Y96.157 E31.08015
G1 X96.157 Y96.157 E31.09968
G1 X113.843 Y113.843 E31.73700
G1 X113.076 Y113.843 E31.75653
G1 X95.391 Y96.157 E32.39385
G1 X94.625 Y96.157 E32.41337
G1 X112.310 Y113.843 E33.05069
G1 X111.544 Y113.843 E33.07022
G1 X93.858 Y96.157 E33.70754
G1 X93.092 Y96.157 E33.72707
G1 X110.778 Y113.843 E34.36439
G1 X110.011 Y113.843 E34.38391
G1 X92.326 Y96.157 E35.02123
G1 X91.559 Y96.157 E35.04076
G1 X109.245 Y113.843 E35.67808
G1 X108.479 Y113.843 E35.69760
G1 X90.793 Y96.157 E36.33492
G1 X90.027 Y96.157 E36.35445
G1 X107.712 Y113.843 E36.99177
G1 X106.946 Y113.843 E37.01130
G1 X89.261 Y96.157 E37.64862
G1 X88.494 Y96.157 E37.66814
G1 X106.180 Y113.843 E38.30546
G1 X105.413 Y113.843 E38.32499
G1 X87.728 Y96.157 E38.96231
G1 X86.962 Y96.157 E38.98184
G1 X104.647 Y113.843 E39.61915
G1 X103.881 Y113.843 E39.63868
G1 X86.195 Y96.157 E40.27600
G1 X85.429 Y96.157 E40.29553
G1 X103.115 Y113.843 E40.93285
G1 X102.348 Y113.843 E40.95237
G1 X84.663 Y96.157 E41.58969
G1 X83.896 Y96.157 E41.60922
G1 X101.582 Y113.843 E42.24654
G1 X100.816 Y113.843 E42.26607
G1 X83.130 Y96.157 E42.90339
G1 X82.364 Y96.157 E42.92291
G1 X100.049 Y113.843 E43.56023
G1 X99.283 Y113.843 E43.57976
G1 X82.157 Y96.717 E44.19691
G1 X82.157 Y97.483 E44.21643
G1 X98.517 Y113.843 E44.80597
G1 X97.750 Y113.843 E44.82550
G1 X82.157 Y98.250 E45.38742
G1 X82.157 Y99.016 E45.40694
G1 X96.984 Y113.843 E45.94125
G1 X96.218 Y113.843 E45.96077
G1 X82.157 Y99.782 E46.46747
G1 X82.157 Y100.548 E46.48699
G1 X95.452 Y113.843 E46.96607
G1 X94.685 Y113.843 E46.98560
G1 X82.157 Y101.315 E47.43706
G1 X82.157 Y102.081 E47.45658
G1 X93.919 Y113.843 E47.88043
G1 X93.153 Y113.843 E47.89996
G1 X82.157 Y102.847 E48.29619
G1 X82.157 Y103.614 E48.31572
G1 X92.386 Y113.843 E48.68433
G1 X91.620 Y113.843 E48.70386
G1 X82.157 Y104.380 E49.04486
G1 X82.157 Y105.146 E49.06439
G1 X90.854 Y113.843 E49.37778
G1 X90.087 Y113.843 E49.39731
G1 X82.157 Y105.913 E49.68308
G1 X82.157 Y106.679 E49.70261
G1 X89.321 Y113.843 E49.96077
G1 X88.555 Y113.843 E49.98029
G1 X82.157 Y107.445 E50.21084
G1 X82.157 Y108.211 E50.23037
G1 X87.789 Y113.843 E50.43330
G1 X87.022 Y113.843 E50.45282
G1 X82.157 Y108.978 E50.62814
G1 X82.157 Y109.744 E50.64766
G1 X86.256 Y113.843 E50.79537
G1 X85.490 Y113.843 E50.81489
G1 X82.157 Y110.510 E50.93498
G1 X82.157 Y111.277 E50.95451
G1 X84.723 Y113.843 E51.04698
G1 X83.957 Y113.843 E51.06650
G1 X82.157 Y112.043 E51.13136
G1 X82.157 Y112.809 E51.15089
G1 X83.191 Y113.843 E51.18813
G1 X82.424 Y113.843 E51.20766
G1 X82.157 Y113.576 E51.21729
M104 S195 ; set temperature
G1 Z0.600 F9000.000
G1 X128.423 Y114.423 F9000.000
G1 X81.577 Y114.423 E52.14007 F3000.000
G1 X81.577 Y95.577 E52.51129
G1 X128.423 Y95.577 E53.43407
G1 X128.423 Y114.363 E53.80412
G1 X128.800 Y114.800 F9000.000
G1 X81.200 Y114.800 E54.55538 F1500.000
G1 X81.200 Y95.200 E54.86473
G1 X128.800 Y95.200 E55.61600
G1 X128.800 Y114.740 E55.92440
G1 X128.454 Y114.600 F9000.000
G1 X127.958 Y114.176 F9000.000
G1 X128.176 Y113.958 E55.93049 F1500.000
G1 X128.176 Y113.363 E55.94227
G1 X127.363 Y114.176 E55.96501
G1 X126.768 Y114.176 E55.97679
G1 X128.176 Y112.768 E56.01618
G1 X128.176 Y112.173 E56.02796
G1 X126.173 Y114.176 E56.08401
G1 X125.578 Y114.176 E56.09578
G1 X128.176 Y111.578 E56.16848
G1 X128.176 Y110.983 E56.18026
G1 X124.983 Y114.176 E56.26961
G1 X124.387 Y114.176 E56.28139
G1 X128.176 Y110.387 E56.38739
G1 X128.176 Y109.792 E56.39917
G1 X123.792 Y114.176 E56.52182
G1 X123.197 Y114.176 E56.53360
G1 X128.176 Y109.197 E56.67291
G1 X128.176 Y108.602 E56.68468
G1 X122.602 Y114.176 E56.84064
G1 X122.007 Y114.176 E56.85242
G1 X128.176 Y108.007 E57.02503
G1 X128.176 Y107.412 E57.03681
G1 X121.412 Y114.176 E57.22607
G1 X120.817 Y114.176 E57.23785
G1 X128.176 Y106.817 E57.44376
G1 X128.176 Y106.222 E57.45554
G1 X120.222 Y114.176 E57.67811
G1 X119.627 Y114.176 E57.68988
G1 X128.176 Y105.627 E57.92911
G1 X128.176 Y105.032 E57.94088
G1 X119.032 Y114.176 E58.19675
G1 X118.437 Y114.176 E58.20853
G1 X128.176 Y104.437 E58.48106
G1 X128.176 Y103.842 E58.49283
G1 X117.842 Y114.176 E58.78201
G1 X117.247 Y114.176 E58.79378
G1 X128.176 Y103.247 E59.09961
G1 X128.176 Y102.652 E59.11139
G1 X116.652 Y114.176 E59.43387
G1 X116.057 Y114.176 E59.44565
G1 X128.176 Y102.057 E59.78478
G1 X128.176 Y101.462 E59.79655
G1 X115.462 Y114.176 E60.15234
G1 X114.866 Y114.176 E60.16412
G1 X128.176 Y100.866 E60.53656
G1 X128.176 Y100.271 E60.54833
G1 X114.271 Y114.176 E60.93742
G1 X113.676 Y114.176 E60.94920
G1 X128.176 Y99.676 E61.35494
G1 X128.176 Y99.081 E61.36671
G1 X113.081 Y114.176 E61.78911
G1 X112.486 Y114.176 E61.80088
G1 X128.176 Y98.486 E62.23993
G1 X128.176 Y97.891 E62.25171
G1 X111.891 Y114.176 E62.70740
G1 X111.296 Y114.176 E62.71918
G1 X128.176 Y97.296 E63.19153
G1 X128.176 Y96.701 E63.20331
G1 X110.701 Y114.176 E63.69231
G1 X110.106 Y114.176 E63.70408
G1 X128.176 Y96.106 E64.20974
G1 X127.862 Y95.824 E64.21808
G1 X109.511 Y114.176 E64.73161
G1 X108.916 Y114.176 E64.74339
G1 X127.267 Y95.824 E65.25692
G1 X126.672 Y95.824 E65.26870
G1 X108.321 Y114.176 E65.78223
G1 X107.726 Y114.176 E65.79400
G1 X126.077 Y95.824 E66.30754
G1 X125.482 Y95.824 E66.31931
G1 X107.131 Y114.176 E66.83285
G1 X106.536 Y114.176 E66.84462
G1 X124.887 Y95.824 E67.35816
G1 X124.292 Y95.824 E67.36993
G1 X105.941 Y114.176 E67.88347
G1 X105.345 Y114.176 E67.89524
G1 X123.697 Y95.824 E68.40877
G1 X123.102 Y95.824 E68.42055
G1 X104.750 Y114.176 E68.93408
G1 X104.155 Y114.176 E68.94586
G1 X122.506 Y95.824 E69.45939
G1 X121.911 Y95.824 E69.47117
G1 X103.560 Y114.176 E69.98470
G1 X102.965 Y114.176 E69.99648
G1 X121.316 Y95.824 E70.51001
G1 X120.721 Y95.824 E70.52179
G1 X102.370 Y114.176 E71.03532
G1 X101.775 Y114.176 E71.04709
G1 X120.126 Y95.824 E71.56063
G1 X119.531 Y95.824 E71.57240
G1 X101.180 Y114.176 E72.08594
G1 X100.585 Y114.176 E72.09771
G1 X118.936 Y95.824 E72.61125
G1 X118.341 Y95.824 E72.62302
G1 X99.990 Y114.176 E73.13655
G1 X99.395 Y114.176 E73.14833
G1 X117.746 Y95.824 E73.66186
G1 X117.151 Y95.824 E73.67364
G1 X98.800 Y114.176 E74.18717
G1 X98.205 Y114.176 E74.19895
G1 X116.556 Y95.824 E74.71248
G1 X115.961 Y95.824 E74.72426
G1 X97.610 Y114.176 E75.23779
G1 X97.015 Y114.176 E75.24956
G1 X115.366 Y95.824 E75.76310
G1 X114.771 Y95.824 E75.77487
G1 X96.419 Y114.176 E76.28841
G1 X95.824 Y114.176 E76.30018
G1 X114.176 Y95.824 E76.81371
G1 X113.581 Y95.824 E76.82549
G1 X95.229 Y114.176 E77.33902
G1 X94.634 Y114.176 E77.35080
G1 X112.985 Y95.824 E77.86433
G1 X112.390 Y95.824 E77.87611
G1 X94.039 Y114.176 E78.38964
G1 X93.444 Y114.176 E78.40142
G1 X111.795 Y95.824 E78.91495
G1 X111.200 Y95.824 E78.92672
G1 X92.849 Y114.176 E79.44026
G1 X92.254 Y114.176 E79.45203
G1 X110.605 Y95.824 E79.96557
G1 X110.010 Y95.824 E79.97734
G1 X91.659 Y114.176 E80.49088
G1 X91.064 Y114.176 E80.50265
G1 X109.415 Y95.824 E81.01618
G1 X108.820 Y95.824 E81.02796
G1 X90.469 Y114.176 E81.54149
G1 X89.874 Y114.176 E81.55327
G1 X108.225 Y95.824 E82.06680
G1 X107.630 Y95.824 E82.07858
G1 X89.279 Y114.176 E82.59211
G1 X88.684 Y114.176 E82.60389
G1 X107.035 Y95.824 E83.11742
G1 X106.440 Y95.824 E83.12919
G1 X88.089 Y114.176 E83.64273
G1 X87.494 Y114.176 E83.65450
G1 X105.845 Y95.824 E84.16804
G1 X105.250 Y95.824 E84.17981
G1 X86.898 Y114.176 E84.69334
G1 X86.303 Y114.176 E84.70512
G1 X104.655 Y95.824 E85.21865
G1 X104.059 Y95.824 E85.23043
G1 X85.708 Y114.176 E85.74396
G1 X85.113 Y114.176 E85.75574
G1 X103.464 Y95.824 E86.26927
G1 X102.869 Y95.824 E86.28105
G1 X84.518 Y114.176 E86.79458
G1 X83.923 Y114.176 E86.80636
G1 X102.274 Y95.824 E87.31989
G1 X101.679 Y95.824 E87.33166
G1 X83.328 Y114.176 E87.84520
G1 X82.733 Y114.176 E87.85697
G1 X101.084 Y95.824 E88.37051
G1 X100.489 Y95.824 E88.38228
G1 X82.138 Y114.176 E88.89582
G1 X81.824 Y113.894 E88.90415
G1 X99.894 Y95.824 E89.40981
G1 X99.299 Y95.824 E89.42158
G1 X81.824 Y113.299 E89.91059
G1 X81.824 Y112.704 E89.92236
G1 X98.704 Y95.824 E90.39471
G1 X98.109 Y95.824 E90.40649
G1 X81.824 Y112.109 E90.86219
G1 X81.824 Y111.514 E90.87396
G1 X97.514 Y95.824 E91.31301
G1 X96.919 Y95.824 E91.32478
G1 X81.824 Y110.919 E91.74718
