;FLAVOR:UltiGCode
;TIME:3663
;MATERIAL:7612
;MATERIAL2:0

;Layer count: 266
;LAYER:0
M107
G0 F9000 X107.231 Y45.834 Z0.300
;TYPE:SKIRT
G1 F1800 X112.616 Y45.977 E0.80803
G1 X114.736 Y46.146 E1.12704
G1 X116.847 Y46.427 E1.44649
G1 X118.940 Y46.819 E1.76590
G1 X121.008 Y47.321 E2.08510
G1 X123.049 Y47.931 E2.40464
G1 X125.054 Y48.650 E2.72414
G1 X127.018 Y49.473 E3.04356
G1 X128.935 Y50.399 E3.36290
G1 X130.802 Y51.424 E3.68238
G1 X132.611 Y52.547 E4.00176
G1 X134.358 Y53.765 E4.32121
G1 X136.038 Y55.072 E4.64049
G1 X137.648 Y56.469 E4.96023
G1 X139.241 Y58.007 E5.29238
G1 X140.634 Y59.505 E5.59922
G1 X142.025 Y61.164 E5.92396
G1 X143.327 Y62.899 E6.24934
G1 X144.532 Y64.703 E6.57476
G1 X145.354 Y66.087 E6.81621
G1 X145.639 Y66.568 E6.90008
G1 X146.417 Y68.049 E7.15102
G1 X147.311 Y69.943 E7.46517
G1 X147.547 Y70.470 E7.55179
G1 X148.139 Y71.968 E7.79340
G1 X148.338 Y72.489 E7.87706
G1 X148.853 Y74.022 E8.11963
G1 X149.022 Y74.554 E8.20336
G1 X149.464 Y76.149 E8.45163
G1 X149.945 Y78.250 E8.77493
G1 X150.315 Y80.386 E9.10011
G1 X150.570 Y82.540 E9.42546
G1 X150.708 Y84.706 E9.75102
G1 X150.729 Y87.009 E10.09648
G1 X150.638 Y88.966 E10.39035
G1 X150.431 Y91.119 E10.71479
G1 X150.106 Y93.264 E11.04021
G1 X149.667 Y95.387 E11.36540
G1 X149.114 Y97.484 E11.69070
G1 X148.449 Y99.550 E12.01626
G1 X147.673 Y101.575 E12.34155
G1 X147.017 Y103.046 E12.58315
G1 X146.789 Y103.555 E12.66681
G1 X146.029 Y105.045 E12.91770
G1 X144.998 Y106.871 E13.23225
G1 X144.704 Y107.366 E13.31861
G1 X143.824 Y108.715 E13.56020
G1 X143.512 Y109.180 E13.64420
G1 X142.531 Y110.519 E13.89319
G1 X141.185 Y112.198 E14.21597
G1 X139.736 Y113.818 E14.54199
G1 X138.038 Y115.515 E14.90209
G1 X136.647 Y116.757 E15.18181
G1 X134.970 Y118.116 E15.50559
G1 X133.214 Y119.389 E15.83092
G1 X131.391 Y120.565 E16.15633
G1 X129.510 Y121.641 E16.48138
G1 X127.571 Y122.616 E16.80693
G1 X125.583 Y123.483 E17.13225
G1 X123.552 Y124.243 E17.45754
G1 X121.482 Y124.892 E17.78294
G1 X119.380 Y125.428 E18.10833
G1 X117.738 Y125.754 E18.35944
G1 X115.617 Y126.086 E18.68146
G1 X113.458 Y126.306 E19.00699
G1 X111.353 Y126.406 E19.32309
G1 X110.899 Y126.420 E19.39123
G1 X108.787 Y126.387 E19.70806
G1 X107.080 Y126.271 E19.96470
G1 X106.558 Y126.231 E20.04323
G1 X104.907 Y126.028 E20.29275
G1 X102.821 Y125.681 E20.60995
G1 X100.797 Y125.231 E20.92096
G1 X100.275 Y125.106 E21.00148
G1 X98.732 Y124.660 E21.24240
G1 X98.230 Y124.511 E21.32095
G1 X96.658 Y123.964 E21.57061
G1 X94.749 Y123.210 E21.87849
G1 X94.251 Y123.003 E21.95939
G1 X92.800 Y122.319 E22.20001
G1 X92.329 Y122.095 E22.27824
G1 X90.857 Y121.303 E22.52897
G1 X89.042 Y120.225 E22.84562
G1 X87.272 Y119.044 E23.16480
G1 X85.565 Y117.769 E23.48439
G1 X83.980 Y116.449 E23.79379
G1 X83.571 Y116.099 E23.87453
G1 X80.317 Y113.013 E24.54723
G1 X81.691 Y110.371 E24.99392
G1 X87.795 Y104.266 E26.28888
G1 X91.336 Y107.613 E27.01975
G1 X92.516 Y108.611 E27.25157
G1 X93.858 Y109.623 E27.50369
G1 X94.920 Y110.333 E27.69531
G1 X95.212 Y110.527 E27.74790
G1 X96.287 Y111.162 E27.93518
G1 X97.811 Y111.971 E28.19399
G1 X98.116 Y112.123 E28.24510
G1 X99.245 Y112.627 E28.43056
G1 X100.817 Y113.242 E28.68377
G1 X102.385 Y113.753 E28.93114
G1 X103.992 Y114.176 E29.18040
G1 X105.596 Y114.501 E29.42589
G1 X107.264 Y114.738 E29.67860
G1 X108.463 Y114.839 E29.85909
G1 X110.209 Y114.913 E30.12123
G1 X110.484 Y114.921 E30.16249
G1 X112.071 Y114.877 E30.40063
G1 X113.681 Y114.742 E30.64298
G1 X115.285 Y114.517 E30.88594
G1 X116.872 Y114.201 E31.12866
G1 X118.438 Y113.798 E31.37121
G1 X119.983 Y113.306 E31.61443
G1 X121.478 Y112.736 E31.85443
G1 X122.607 Y112.231 E32.03995
G1 X124.081 Y111.494 E32.28714
G1 X125.477 Y110.693 E32.52857
G1 X126.824 Y109.816 E32.76967
G1 X128.185 Y108.817 E33.02291
G1 X128.425 Y108.637 E33.06791
G1 X129.420 Y107.796 E33.26333
G1 X129.663 Y107.590 E33.31112
G1 X130.569 Y106.733 E33.49818
G1 X131.047 Y106.255 E33.59958
G1 X131.902 Y105.352 E33.78612
G1 X132.950 Y104.112 E34.02965
G1 X133.917 Y102.828 E34.27076
G1 X134.822 Y101.476 E34.51480
G1 X135.646 Y100.079 E34.75809
G1 X136.385 Y98.650 E34.99940
G1 X137.047 Y97.172 E35.24232
G1 X137.486 Y96.023 E35.42683
G1 X138.029 Y94.387 E35.68539
G1 X138.111 Y94.128 E35.72614
G1 X138.420 Y92.929 E35.91187
G1 X138.759 Y91.330 E36.15705
G1 X139.003 Y89.742 E36.39804
G1 X139.168 Y88.034 E36.65544
G1 X139.189 Y87.776 E36.69426
G1 X139.227 Y86.456 E36.89235
G1 X139.235 Y86.174 E36.93466
G1 X139.191 Y84.587 E37.17280
G1 X139.056 Y82.977 E37.41515
G1 X138.831 Y81.373 E37.65811
G1 X138.515 Y79.786 E37.90083
G1 X138.112 Y78.220 E38.14338
G1 X137.620 Y76.675 E38.38660
G1 X137.050 Y75.180 E38.62660
G1 X136.545 Y74.051 E38.81212
G1 X135.808 Y72.577 E39.05931
G1 X135.007 Y71.181 E39.30074
G1 X134.130 Y69.834 E39.54184
G1 X133.117 Y68.453 E39.79874
G1 X132.951 Y68.233 E39.84008
G1 X132.110 Y67.238 E40.03550
G1 X131.904 Y66.995 E40.08329
G1 X131.045 Y66.087 E40.27078
G1 X130.569 Y65.611 E40.37175
G1 X129.669 Y64.760 E40.55755
G1 X128.395 Y63.684 E40.80769
G1 X127.409 Y62.942 E40.99279
G1 X125.981 Y61.963 E41.25249
G1 X125.700 Y61.780 E41.30279
G1 X124.632 Y61.150 E41.48879
G1 X123.146 Y60.365 E41.74088
G1 X121.642 Y59.679 E41.98884
G1 X120.089 Y59.077 E42.23868
G1 X118.526 Y58.571 E42.48511
G1 X116.920 Y58.154 E42.73399
G1 X115.293 Y57.829 E42.98287
G1 X114.010 Y57.648 E43.17722
G1 X113.656 Y57.600 E43.23081
G1 X112.358 Y57.490 E43.42620
G1 X112.358 Y57.491 E43.42635
G1 X112.100 Y57.469 E43.46520
G1 X107.247 Y57.334 E44.19343
G1 X107.231 Y45.834 E45.91843
G10
G0 F9000 X111.237 Y49.942
;TYPE:WALL-INNER
G11
G1 F1800 X112.403 Y49.973 E46.09339
G1 X114.328 Y50.127 E46.38306
G1 X116.210 Y50.377 E46.66784
G1 X118.092 Y50.730 E46.95507
G1 X119.958 Y51.182 E47.24306
G1 X121.808 Y51.736 E47.53274
G1 X123.599 Y52.378 E47.81812
G1 X125.387 Y53.126 E48.10885
G1 X127.100 Y53.954 E48.39424
G1 X128.776 Y54.875 E48.68110
G1 X130.414 Y55.892 E48.97030
G1 X131.987 Y56.988 E49.25788
G1 X133.493 Y58.160 E49.54412
G1 X134.952 Y59.425 E49.83378
G1 X136.380 Y60.804 E50.13155
G1 X137.631 Y62.150 E50.40719
G1 X138.894 Y63.656 E50.70202
G1 X140.056 Y65.205 E50.99248
G1 X141.151 Y66.843 E51.28802
G1 X141.914 Y68.128 E51.51219
G1 X142.843 Y69.848 E51.80542
G1 X143.674 Y71.608 E52.09736
G1 X144.412 Y73.423 E52.39126
G1 X144.568 Y73.827 E52.45622
G1 X145.048 Y75.258 E52.68262
G1 X145.590 Y77.148 E52.97755
G1 X146.022 Y79.035 E53.26792
G1 X146.355 Y80.959 E53.56081
G1 X146.587 Y82.922 E53.85731
G1 X146.709 Y84.842 E54.14589
G1 X146.728 Y86.938 E54.46031
G1 X146.648 Y88.663 E54.71934
G1 X146.459 Y90.629 E55.01560
G1 X146.165 Y92.574 E55.31066
G1 X145.773 Y94.468 E55.60078
G1 X145.276 Y96.353 E55.89319
G1 X144.674 Y98.223 E56.18787
G1 X143.975 Y100.045 E56.48059
G1 X143.366 Y101.413 E56.70521
G1 X142.505 Y103.150 E56.99601
G1 X141.540 Y104.859 E57.29040
G1 X141.313 Y105.242 E57.35719
G1 X140.490 Y106.504 E57.58318
G1 X139.355 Y108.087 E57.87536
G1 X138.134 Y109.609 E58.16805
G1 X136.833 Y111.064 E58.46082
G1 X135.286 Y112.609 E58.78878
G1 X134.056 Y113.708 E59.03619
G1 X132.528 Y114.945 E59.33109
G1 X130.959 Y116.084 E59.62191
G1 X129.316 Y117.143 E59.91512
G1 X127.612 Y118.119 E60.20968
G1 X125.867 Y118.995 E60.50256
G1 X124.082 Y119.774 E60.79470
G1 X122.262 Y120.455 E61.08618
G1 X120.388 Y121.042 E61.38075
G1 X118.498 Y121.524 E61.67332
G1 X117.031 Y121.816 E61.89769
G1 X115.101 Y122.118 E62.19071
G1 X113.160 Y122.316 E62.48337
G1 X111.203 Y122.408 E62.77725
G1 X110.862 Y122.419 E62.82842
G1 X108.946 Y122.389 E63.11586
G1 X107.375 Y122.282 E63.35205
G1 X105.493 Y122.071 E63.63612
G1 X103.576 Y121.751 E63.92765
G1 X101.706 Y121.336 E64.21498
G1 X99.853 Y120.820 E64.50350
G1 X99.449 Y120.701 E64.56668
G1 X98.066 Y120.219 E64.78636
G1 X96.246 Y119.500 E65.07989
G1 X94.511 Y118.704 E65.36623
G1 X92.841 Y117.829 E65.64903
G1 X91.172 Y116.837 E65.94026
G1 X89.584 Y115.778 E66.22657
G1 X88.038 Y114.623 E66.51604
G1 X86.556 Y113.389 E66.80531
G1 X85.398 Y112.320 E67.04171
G1 X87.873 Y109.845 E67.56674
G1 X88.660 Y110.588 E67.72909
G1 X90.024 Y111.742 E67.99709
G1 X91.530 Y112.878 E68.28005
G1 X92.705 Y113.663 E68.49201
G1 X93.098 Y113.925 E68.56286
G1 X94.328 Y114.650 E68.77703
G1 X95.980 Y115.528 E69.05765
G1 X96.408 Y115.741 E69.12936
G1 X97.709 Y116.322 E69.34309
G1 X99.462 Y117.007 E69.62540
G1 X101.256 Y117.592 E69.90845
G1 X103.080 Y118.072 E70.19136
G1 X104.930 Y118.446 E70.47448
G1 X106.797 Y118.713 E70.75738
G1 X108.221 Y118.833 E70.97173
G1 X110.083 Y118.912 E71.25128
G1 X110.490 Y118.922 E71.31235
G1 X112.295 Y118.872 E71.58321
G1 X114.128 Y118.719 E71.85911
G1 X115.953 Y118.463 E72.13554
G1 X117.759 Y118.104 E72.41174
G1 X119.542 Y117.645 E72.68791
G1 X121.297 Y117.086 E72.96419
G1 X123.018 Y116.429 E73.24052
G1 X124.322 Y115.846 E73.45477
G1 X125.965 Y115.024 E73.73035
G1 X127.561 Y114.108 E74.00638
G1 X129.105 Y113.104 E74.28263
G1 X130.576 Y112.025 E74.55628
G1 X130.922 Y111.763 E74.62138
G1 X132.002 Y110.851 E74.83341
G1 X133.362 Y109.597 E75.11090
G1 X133.910 Y109.049 E75.22715
G1 X134.887 Y108.016 E75.44042
G1 X136.076 Y106.609 E75.71674
G1 X137.184 Y105.139 E75.99286
G1 X138.208 Y103.609 E76.26902
G1 X139.145 Y102.022 E76.54546
G1 X139.990 Y100.387 E76.82153
G1 X140.743 Y98.704 E77.09810
G1 X141.253 Y97.370 E77.31232
G1 X141.826 Y95.643 E77.58526
G1 X141.958 Y95.230 E77.65029
G1 X142.314 Y93.846 E77.86465
G1 X142.695 Y92.050 E78.14005
G1 X142.975 Y90.230 E78.41626
G1 X143.150 Y88.413 E78.69007
G1 X143.226 Y86.570 E78.96676
G1 X143.236 Y86.168 E79.02707
G1 X143.186 Y84.363 E79.29793
G1 X143.033 Y82.530 E79.57383
G1 X142.777 Y80.705 E79.85026
G1 X142.418 Y78.899 E80.12646
G1 X141.959 Y77.116 E80.40263
G1 X141.400 Y75.361 E80.67892
G1 X140.743 Y73.640 E80.95524
G1 X140.160 Y72.336 E81.16950
G1 X139.338 Y70.693 E81.44507
G1 X138.422 Y69.097 E81.72110
G1 X137.418 Y67.553 E81.99736
G1 X136.339 Y66.082 E82.27100
G1 X136.077 Y65.736 E82.33610
G1 X135.165 Y64.656 E82.54813
G1 X133.911 Y63.296 E82.82562
G1 X133.363 Y62.748 E82.94187
G1 X132.330 Y61.771 E83.15514
G1 X130.888 Y60.553 E83.43828
G1 X129.747 Y59.696 E83.65233
G1 X128.207 Y58.638 E83.93259
G1 X127.805 Y58.377 E84.00448
G1 X126.578 Y57.654 E84.21811
G1 X124.913 Y56.775 E84.50053
G1 X123.197 Y55.992 E84.78346
G1 X121.437 Y55.309 E85.06664
G1 X119.642 Y54.729 E85.34959
G1 X117.817 Y54.254 E85.63247
G1 X115.966 Y53.884 E85.91561
G1 X114.566 Y53.687 E86.12768
G1 X114.097 Y53.623 E86.19868
G1 X112.324 Y53.474 E86.46557
G1 X111.242 Y53.444 E86.62793
G1 X111.237 Y49.942 E87.15323
G0 F9000 X112.437 Y49.474
;TYPE:WALL-OUTER
G1 F1800 X114.360 Y49.627 E87.44259
G1 X116.292 Y49.884 E87.73494
G1 X118.208 Y50.243 E88.02734
G1 X120.087 Y50.699 E88.31738
G1 X121.962 Y51.260 E88.61094
G1 X123.780 Y51.911 E88.90060
G1 X125.586 Y52.668 E89.19434
G1 X127.336 Y53.513 E89.48584
G1 X129.035 Y54.447 E89.77666
G1 X130.680 Y55.468 E90.06707
G1 X132.287 Y56.588 E90.36089
G1 X133.810 Y57.773 E90.65034
G1 X135.279 Y59.047 E90.94202
G1 X136.746 Y60.464 E91.24796
G1 X138.005 Y61.818 E91.52529
G1 X139.286 Y63.346 E91.82438
G1 X140.466 Y64.918 E92.11922
G1 X141.567 Y66.565 E92.41639
G1 X142.585 Y68.280 E92.71554
G1 X143.281 Y69.606 E92.94018
G1 X144.130 Y71.403 E93.23830
G1 X144.318 Y71.824 E93.30746
G1 X144.877 Y73.239 E93.53567
G1 X145.525 Y75.107 E93.83225
G1 X146.069 Y77.003 E94.12813
G1 X146.514 Y78.946 E94.42712
G1 X146.850 Y80.883 E94.72201
G1 X147.084 Y82.863 E95.02108
G1 X147.209 Y84.826 E95.31612
G1 X147.228 Y86.936 E95.63264
G1 X147.146 Y88.711 E95.89917
G1 X146.955 Y90.696 E96.19830
G1 X146.661 Y92.640 E96.49321
G1 X146.260 Y94.579 E96.79022
G1 X145.753 Y96.504 E97.08881
G1 X145.145 Y98.392 E97.38634
G1 X144.441 Y100.229 E97.68143
G1 X143.634 Y102.037 E97.97842
G1 X142.947 Y103.383 E98.20510
G1 X141.970 Y105.114 E98.50325
G1 X141.729 Y105.520 E98.57407
G1 X140.905 Y106.783 E98.80027
G1 X139.749 Y108.394 E99.09770
G1 X138.518 Y109.930 E99.39296
G1 X137.198 Y111.406 E99.68998
G1 X135.629 Y112.973 E100.02261
G1 X134.373 Y114.095 E100.27523
G1 X132.844 Y115.334 E100.57043
G1 X131.242 Y116.496 E100.86729
G1 X129.568 Y117.576 E101.16611
G1 X127.848 Y118.560 E101.46335
G1 X126.091 Y119.443 E101.75831
G1 X124.271 Y120.236 E102.05610
G1 X122.421 Y120.929 E102.35243
G1 X120.519 Y121.525 E102.65141
G1 X118.606 Y122.013 E102.94755
G1 X117.131 Y122.306 E103.17312
G1 X115.171 Y122.613 E103.47070
G1 X113.199 Y122.814 E103.76804
G1 X111.214 Y122.908 E104.06612
G1 X110.869 Y122.919 E104.11790
G1 X108.926 Y122.889 E104.40938
G1 X107.336 Y122.781 E104.64843
G1 X106.909 Y122.748 E104.71267
G1 X105.413 Y122.564 E104.93876
G1 X103.482 Y122.242 E105.23241
G1 X101.589 Y121.822 E105.52327
G1 X101.166 Y121.720 E105.58853
G1 X99.716 Y121.302 E105.81489
G1 X99.298 Y121.177 E105.88034
G1 X97.882 Y120.684 E106.10524
G1 X96.062 Y119.965 E106.39877
G1 X93.905 Y118.969 E106.75515
G1 X92.586 Y118.259 E106.97984
G1 X90.908 Y117.262 E107.27262
G1 X89.286 Y116.180 E107.56508
G1 X87.729 Y115.017 E107.85659
G1 X86.236 Y113.773 E108.14810
G1 X84.682 Y112.330 E108.46619
G1 X87.864 Y109.148 E109.14120
G1 X88.993 Y110.215 E109.37421
G1 X90.336 Y111.351 E109.63806
G1 X91.819 Y112.470 E109.91674
G1 X93.364 Y113.501 E110.19535
G1 X94.573 Y114.214 E110.40589
G1 X96.209 Y115.083 E110.68376
G1 X96.621 Y115.288 E110.75278
G1 X97.902 Y115.861 E110.96328
G1 X99.631 Y116.536 E111.24169
G1 X101.397 Y117.112 E111.52033
G1 X103.193 Y117.585 E111.79892
G1 X105.015 Y117.953 E112.07773
G1 X106.854 Y118.216 E112.35639
G1 X108.252 Y118.334 E112.56684
G1 X110.100 Y118.412 E112.84428
G1 X110.489 Y118.422 E112.90265
G1 X112.267 Y118.373 E113.16945
G1 X114.073 Y118.222 E113.44130
G1 X115.870 Y117.970 E113.71349
G1 X117.648 Y117.616 E113.98542
G1 X119.404 Y117.164 E114.25741
G1 X121.132 Y116.614 E114.52942
G1 X122.827 Y115.967 E114.80156
G1 X124.108 Y115.394 E115.01206
G1 X125.728 Y114.583 E115.28381
G1 X127.300 Y113.681 E115.55567
G1 X128.820 Y112.693 E115.82760
G1 X130.277 Y111.624 E116.09867
G1 X131.996 Y110.200 E116.43350
G1 X133.013 Y109.238 E116.64348
G1 X133.551 Y108.700 E116.75761
G1 X134.514 Y107.683 E116.96770
G1 X135.685 Y106.297 E117.23987
G1 X136.776 Y104.849 E117.51182
G1 X137.785 Y103.342 E117.78386
G1 X138.707 Y101.780 E118.05593
G1 X139.539 Y100.170 E118.32777
G1 X140.281 Y98.513 E118.60010
G1 X140.782 Y97.202 E118.81062
G1 X141.351 Y95.488 E119.08152
G1 X141.477 Y95.091 E119.14400
G1 X141.827 Y93.732 E119.35450
G1 X142.203 Y91.960 E119.62622
G1 X142.478 Y90.168 E119.89816
G1 X142.652 Y88.369 E120.16927
G1 X142.686 Y87.953 E120.23188
G1 X142.736 Y86.169 E120.49958
G1 X142.687 Y84.391 E120.76639
G1 X142.536 Y82.585 E121.03823
G1 X142.284 Y80.788 E121.31042
G1 X141.930 Y79.010 E121.58235
G1 X141.478 Y77.254 E121.85434
G1 X140.928 Y75.526 E122.12635
G1 X140.281 Y73.831 E122.39849
G1 X139.708 Y72.550 E122.60899
G1 X138.897 Y70.930 E122.88074
G1 X137.995 Y69.358 E123.15260
G1 X137.007 Y67.838 E123.42453
G1 X135.938 Y66.381 E123.69560
G1 X134.514 Y64.662 E124.03043
G1 X133.552 Y63.645 E124.24041
G1 X133.014 Y63.107 E124.35454
G1 X131.997 Y62.144 E124.56463
G1 X130.576 Y60.944 E124.84362
G1 X129.455 Y60.102 E125.05392
G1 X127.929 Y59.054 E125.33160
G1 X126.334 Y58.091 E125.61107
G1 X124.692 Y57.224 E125.88960
G1 X123.002 Y56.453 E126.16823
G1 X121.270 Y55.780 E126.44696
G1 X119.502 Y55.209 E126.72565
G1 X117.705 Y54.741 E127.00419
G1 X115.882 Y54.377 E127.28303
G1 X114.497 Y54.182 E127.49283
G1 X114.042 Y54.120 E127.56171
G1 X112.296 Y53.973 E127.82454
G1 X110.743 Y53.930 E128.05758
G1 X110.736 Y49.429 E128.73273
G1 X112.437 Y49.474 E128.98797
G0 F9000 X112.755 Y50.177
;TYPE:SKIN
G1 F1800 X116.363 Y53.784 E129.75324
G0 F9000 X115.515 Y53.643
G1 F1800 X112.009 Y50.138 E130.49686
G0 F9000 X111.411 Y50.246
G1 F1800 X114.693 Y53.528 E131.19308
G0 F9000 X113.886 Y53.428
G1 F1800 X111.412 Y50.954 E131.71790
G0 F9000 X111.413 Y51.662
G1 F1800 X113.115 Y53.364 E132.07895
G0 F9000 X112.343 Y53.299
G1 F1800 X111.414 Y52.371 E132.27591
G0 F9000 X111.415 Y53.079
G1 F1800 X111.615 Y53.279 E132.31834
G0 F9000 X113.524 Y50.238
G1 F1800 X117.247 Y53.961 E133.10810
G0 F9000 X118.154 Y54.160
G1 F1800 X114.292 Y50.299 E133.92725
