;FLAVOR:UltiGCode
;TIME:1950
;MATERIAL:3961
;MATERIAL2:0

;Layer count: 266
;LAYER:0
M107
G0 F9000 X106.329 Y72.163 Z0.300
;TYPE:SKIRT
G1 F1800 X111.714 Y72.306 E0.80803
G1 X113.834 Y72.475 E1.12704
G1 X115.945 Y72.756 E1.44649
G1 X118.038 Y73.148 E1.76590
G1 X120.106 Y73.650 E2.08510
G1 X122.147 Y74.260 E2.40464
G1 X124.152 Y74.979 E2.72414
G1 X126.116 Y75.802 E3.04356
G1 X128.033 Y76.728 E3.36290
G1 X129.900 Y77.753 E3.68238
G1 X131.709 Y78.876 E4.00176
G1 X133.456 Y80.094 E4.32121
G1 X135.136 Y81.401 E4.64049
G1 X136.746 Y82.798 E4.96023
G1 X138.339 Y84.336 E5.29238
G1 X139.732 Y85.834 E5.59922
G1 X141.123 Y87.493 E5.92396
G1 X142.425 Y89.228 E6.24934
G1 X143.630 Y91.032 E6.57476
G1 X144.452 Y92.416 E6.81621
G1 X144.737 Y92.897 E6.90008
G1 X145.515 Y94.378 E7.15102
G1 X146.409 Y96.272 E7.46517
G1 X146.645 Y96.799 E7.55179
G1 X147.237 Y98.297 E7.79340
G1 X147.436 Y98.818 E7.87706
G1 X147.951 Y100.351 E8.11963
G1 X148.120 Y100.883 E8.20336
G1 X148.562 Y102.478 E8.45163
G1 X149.043 Y104.579 E8.77493
G1 X149.413 Y106.715 E9.10011
G1 X149.668 Y108.869 E9.42546
G1 X149.806 Y111.035 E9.75102
G1 X149.827 Y113.338 E10.09648
G1 X149.736 Y115.295 E10.39035
G1 X149.529 Y117.448 E10.71479
G1 X149.204 Y119.593 E11.04021
G1 X148.765 Y121.716 E11.36540
G1 X148.212 Y123.813 E11.69070
G1 X147.547 Y125.879 E12.01626
G1 X146.771 Y127.904 E12.34155
G1 X146.115 Y129.375 E12.58315
G1 X145.887 Y129.884 E12.66681
G1 X145.127 Y131.374 E12.91770
G1 X144.096 Y133.200 E13.23225
G1 X143.802 Y133.695 E13.31861
G1 X142.922 Y135.044 E13.56020
G1 X142.610 Y135.509 E13.64420
G1 X141.629 Y136.848 E13.89319
G1 X140.283 Y138.527 E14.21597
G1 X138.834 Y140.147 E14.54199
G1 X137.136 Y141.844 E14.90209
G1 X135.745 Y143.086 E15.18181
G1 X134.068 Y144.445 E15.50559
G1 X132.312 Y145.718 E15.83092
G1 X130.489 Y146.894 E16.15633
G1 X128.608 Y147.970 E16.48138
G1 X126.669 Y148.945 E16.80693
G1 X124.681 Y149.812 E17.13225
G1 X122.650 Y150.572 E17.45754
G1 X120.580 Y151.221 E17.78294
G1 X118.478 Y151.757 E18.10833
G1 X116.836 Y152.083 E18.35944
G1 X114.715 Y152.415 E18.68146
G1 X112.556 Y152.635 E19.00699
G1 X110.451 Y152.735 E19.32309
G1 X109.997 Y152.749 E19.39123
G1 X107.885 Y152.716 E19.70806
G1 X106.178 Y152.600 E19.96470
G1 X105.656 Y152.560 E20.04323
G1 X104.005 Y152.357 E20.29275
G1 X101.919 Y152.010 E20.60995
G1 X99.895 Y151.560 E20.92096
G1 X99.373 Y151.435 E21.00148
G1 X97.830 Y150.989 E21.24240
G1 X97.328 Y150.840 E21.32095
G1 X95.756 Y150.293 E21.57061
G1 X93.847 Y149.539 E21.87849
G1 X93.349 Y149.332 E21.95939
G1 X91.898 Y148.648 E22.20001
G1 X91.427 Y148.424 E22.27824
G1 X89.955 Y147.632 E22.52897
G1 X88.140 Y146.554 E22.84562
G1 X86.370 Y145.373 E23.16480
G1 X84.663 Y144.098 E23.48439
G1 X83.078 Y142.778 E23.79379
G1 X82.669 Y142.428 E23.87453
G1 X79.415 Y139.342 E24.54723
G1 X80.789 Y136.700 E24.99392
G1 X86.893 Y130.595 E26.28888
G1 X90.434 Y133.942 E27.01975
G1 X91.614 Y134.940 E27.25157
G1 X92.956 Y135.952 E27.50369
G1 X94.018 Y136.662 E27.69531
G1 X94.310 Y136.856 E27.74790
G1 X95.385 Y137.491 E27.93518
G1 X96.909 Y138.300 E28.19399
G1 X97.214 Y138.452 E28.24510
G1 X98.343 Y138.956 E28.43056
G1 X99.915 Y139.571 E28.68377
G1 X101.483 Y140.082 E28.93114
G1 X103.090 Y140.505 E29.18040
G1 X104.694 Y140.830 E29.42589
G1 X106.362 Y141.067 E29.67860
G1 X107.561 Y141.168 E29.85909
G1 X109.307 Y141.242 E30.12123
G1 X109.582 Y141.250 E30.16249
G1 X111.169 Y141.206 E30.40063
G1 X112.779 Y141.071 E30.64298
G1 X114.383 Y140.846 E30.88594
G1 X115.970 Y140.530 E31.12866
G1 X117.536 Y140.127 E31.37121
G1 X119.081 Y139.635 E31.61443
G1 X120.576 Y139.065 E31.85443
G1 X121.705 Y138.560 E32.03995
G1 X123.179 Y137.823 E32.28714
G1 X124.575 Y137.022 E32.52857
G1 X125.922 Y136.145 E32.76967
G1 X127.283 Y135.146 E33.02291
G1 X127.523 Y134.966 E33.06791
G1 X128.518 Y134.125 E33.26333
G1 X128.761 Y133.919 E33.31112
G1 X129.667 Y133.062 E33.49818
G1 X130.145 Y132.584 E33.59958
G1 X131.000 Y131.681 E33.78612
G1 X132.048 Y130.441 E34.02965
G1 X133.015 Y129.157 E34.27076
G1 X133.920 Y127.805 E34.51480
G1 X134.744 Y126.408 E34.75809
G1 X135.483 Y124.979 E34.99940
G1 X136.145 Y123.501 E35.24232
G1 X136.584 Y122.352 E35.42683
G1 X137.127 Y120.716 E35.68539
G1 X137.209 Y120.457 E35.72614
G1 X137.518 Y119.258 E35.91187
G1 X137.857 Y117.659 E36.15705
G1 X138.101 Y116.071 E36.39804
G1 X138.266 Y114.363 E36.65544
G1 X138.287 Y114.105 E36.69426
G1 X138.325 Y112.785 E36.89235
G1 X138.333 Y112.503 E36.93466
G1 X138.289 Y110.916 E37.17280
G1 X138.154 Y109.306 E37.41515
G1 X137.929 Y107.702 E37.65811
G1 X137.613 Y106.115 E37.90083
G1 X137.210 Y104.549 E38.14338
G1 X136.718 Y103.004 E38.38660
G1 X136.148 Y101.509 E38.62660
G1 X135.643 Y100.380 E38.81212
G1 X134.906 Y98.906 E39.05931
G1 X134.105 Y97.510 E39.30074
G1 X133.228 Y96.163 E39.54184
G1 X132.215 Y94.782 E39.79874
G1 X132.049 Y94.562 E39.84008
G1 X131.208 Y93.567 E40.03550
G1 X131.002 Y93.324 E40.08329
G1 X130.143 Y92.416 E40.27078
G1 X129.667 Y91.940 E40.37175
G1 X128.767 Y91.089 E40.55755
G1 X127.493 Y90.013 E40.80769
G1 X126.507 Y89.271 E40.99279
G1 X125.079 Y88.292 E41.25249
G1 X124.798 Y88.109 E41.30279
G1 X123.730 Y87.479 E41.48879
G1 X122.244 Y86.694 E41.74088
G1 X120.740 Y86.008 E41.98884
G1 X119.187 Y85.406 E42.23868
G1 X117.624 Y84.900 E42.48511
G1 X116.018 Y84.483 E42.73399
G1 X114.391 Y84.158 E42.98287
G1 X113.108 Y83.977 E43.17722
G1 X112.754 Y83.929 E43.23081
G1 X111.456 Y83.819 E43.42620
G1 X111.456 Y83.820 E43.42635
G1 X111.198 Y83.798 E43.46520
G1 X106.345 Y83.663 E44.19343
G1 X106.329 Y72.163 E45.91843
G10
G0 F9000 X110.335 Y76.271
;TYPE:WALL-INNER
G11
G1 F1800 X111.501 Y76.302 E46.09339
G1 X113.426 Y76.456 E46.38306
G1 X115.308 Y76.706 E46.66784
G1 X117.190 Y77.059 E46.95507
G1 X119.056 Y77.511 E47.24306
G1 X120.906 Y78.065 E47.53274
G1 X122.697 Y78.707 E47.81812
G1 X124.485 Y79.455 E48.10885
G1 X126.198 Y80.283 E48.39424
G1 X127.874 Y81.204 E48.68110
G1 X129.512 Y82.221 E48.97030
G1 X131.085 Y83.317 E49.25788
G1 X132.591 Y84.489 E49.54412
G1 X134.050 Y85.754 E49.83378
G1 X135.478 Y87.133 E50.13155
G1 X136.729 Y88.479 E50.40719
G1 X137.992 Y89.985 E50.70202
G1 X139.154 Y91.534 E50.99248
G1 X140.249 Y93.172 E51.28802
G1 X141.012 Y94.457 E51.51219
G1 X141.941 Y96.177 E51.80542
G1 X142.772 Y97.937 E52.09736
G1 X143.510 Y99.752 E52.39126
G1 X143.666 Y100.156 E52.45622
G1 X144.146 Y101.587 E52.68262
G1 X144.688 Y103.477 E52.97755
G1 X145.120 Y105.364 E53.26792
G1 X145.453 Y107.288 E53.56081
G1 X145.685 Y109.251 E53.85731
G1 X145.807 Y111.171 E54.14589
G1 X145.826 Y113.267 E54.46031
G1 X145.746 Y114.992 E54.71934
G1 X145.557 Y116.958 E55.01560
G1 X145.263 Y118.903 E55.31066
G1 X144.871 Y120.797 E55.60078
G1 X144.374 Y122.682 E55.89319
G1 X143.772 Y124.552 E56.18787
G1 X143.073 Y126.374 E56.48059
G1 X142.464 Y127.742 E56.70521
G1 X141.603 Y129.479 E56.99601
G1 X140.638 Y131.188 E57.29040
G1 X140.411 Y131.571 E57.35719
G1 X139.588 Y132.833 E57.58318
G1 X138.453 Y134.416 E57.87536
G1 X137.232 Y135.938 E58.16805
G1 X135.931 Y137.393 E58.46082
G1 X134.384 Y138.938 E58.78878
G1 X133.154 Y140.037 E59.03619
G1 X131.626 Y141.274 E59.33109
G1 X130.057 Y142.413 E59.62191
G1 X128.414 Y143.472 E59.91512
G1 X126.710 Y144.448 E60.20968
G1 X124.965 Y145.324 E60.50256
G1 X123.180 Y146.103 E60.79470
G1 X121.360 Y146.784 E61.08618
G1 X119.486 Y147.371 E61.38075
G1 X117.596 Y147.853 E61.67332
G1 X116.129 Y148.145 E61.89769
G1 X114.199 Y148.447 E62.19071
G1 X112.258 Y148.645 E62.48337
G1 X110.301 Y148.737 E62.77725
G1 X109.960 Y148.748 E62.82842
G1 X108.044 Y148.718 E63.11586
G1 X106.473 Y148.611 E63.35205
G1 X104.591 Y148.400 E63.63612
G1 X102.674 Y148.080 E63.92765
G1 X100.804 Y147.665 E64.21498
G1 X98.951 Y147.149 E64.50350
G1 X98.547 Y147.030 E64.56668
G1 X97.164 Y146.548 E64.78636
G1 X95.344 Y145.829 E65.07989
G1 X93.609 Y145.033 E65.36623
G1 X91.939 Y144.158 E65.64903
G1 X90.270 Y143.166 E65.94026
G1 X88.682 Y142.107 E66.22657
G1 X87.136 Y140.952 E66.51604
G1 X85.654 Y139.718 E66.80531
G1 X84.496 Y138.649 E67.04171
G1 X86.971 Y136.174 E67.56674
G1 X87.758 Y136.917 E67.72909
G1 X89.122 Y138.071 E67.99709
G1 X90.628 Y139.207 E68.28005
G1 X91.803 Y139.992 E68.49201
G1 X92.196 Y140.254 E68.56286
G1 X93.426 Y140.979 E68.77703
G1 X95.078 Y141.857 E69.05765
G1 X95.506 Y142.070 E69.12936
G1 X96.807 Y142.651 E69.34309
G1 X98.560 Y143.336 E69.62540
G1 X100.354 Y143.921 E69.90845
G1 X102.178 Y144.401 E70.19136
G1 X104.028 Y144.775 E70.47448
G1 X105.895 Y145.042 E70.75738
G1 X107.319 Y145.162 E70.97173
G1 X109.181 Y145.241 E71.25128
G1 X109.588 Y145.251 E71.31235
G1 X111.393 Y145.201 E71.58321
G1 X113.226 Y145.048 E71.85911
G1 X115.051 Y144.792 E72.13554
G1 X116.857 Y144.433 E72.41174
G1 X118.640 Y143.974 E72.68791
G1 X120.395 Y143.415 E72.96419
G1 X122.116 Y142.758 E73.24052
G1 X123.420 Y142.175 E73.45477
G1 X125.063 Y141.353 E73.73035
G1 X126.659 Y140.437 E74.00638
G1 X128.203 Y139.433 E74.28263
G1 X129.674 Y138.354 E74.55628
G1 X130.020 Y138.092 E74.62138
G1 X131.100 Y137.180 E74.83341
G1 X132.460 Y135.926 E75.11090
G1 X133.008 Y135.378 E75.22715
G1 X133.985 Y134.345 E75.44042
G1 X135.174 Y132.938 E75.71674
G1 X136.282 Y131.468 E75.99286
G1 X137.306 Y129.938 E76.26902
G1 X138.243 Y128.351 E76.54546
G1 X139.088 Y126.716 E76.82153
G1 X139.841 Y125.033 E77.09810
G1 X140.351 Y123.699 E77.31232
G1 X140.924 Y121.972 E77.58526
G1 X141.056 Y121.559 E77.65029
G1 X141.412 Y120.175 E77.86465
G1 X141.793 Y118.379 E78.14005
G1 X142.073 Y116.559 E78.41626
G1 X142.248 Y114.742 E78.69007
G1 X142.324 Y112.899 E78.96676
G1 X142.334 Y112.497 E79.02707
G1 X142.284 Y110.692 E79.29793
G1 X142.131 Y108.859 E79.57383
G1 X141.875 Y107.034 E79.85026
G1 X141.516 Y105.228 E80.12646
G1 X141.057 Y103.445 E80.40263
G1 X140.498 Y101.690 E80.67892
G1 X139.841 Y99.969 E80.95524
G1 X139.258 Y98.665 E81.16950
G1 X138.436 Y97.022 E81.44507
G1 X137.520 Y95.426 E81.72110
G1 X136.516 Y93.882 E81.99736
G1 X135.437 Y92.411 E82.27100
G1 X135.175 Y92.065 E82.33610
G1 X134.263 Y90.985 E82.54813
G1 X133.009 Y89.625 E82.82562
G1 X132.461 Y89.077 E82.94187
G1 X131.428 Y88.100 E83.15514
G1 X129.986 Y86.882 E83.43828
G1 X128.845 Y86.025 E83.65233
G1 X127.305 Y84.967 E83.93259
G1 X126.903 Y84.706 E84.00448
G1 X125.676 Y83.983 E84.21811
G1 X124.011 Y83.104 E84.50053
G1 X122.295 Y82.321 E84.78346
G1 X120.535 Y81.638 E85.06664
G1 X118.740 Y81.058 E85.34959
G1 X116.915 Y80.583 E85.63247
G1 X115.064 Y80.213 E85.91561
G1 X113.664 Y80.016 E86.12768
G1 X113.195 Y79.952 E86.19868
G1 X111.422 Y79.803 E86.46557
G1 X110.340 Y79.773 E86.62793
G1 X110.335 Y76.271 E87.15323
G0 F9000 X111.535 Y75.803
;TYPE:WALL-OUTER
G1 F1800 X113.458 Y75.956 E87.44259
G1 X115.390 Y76.213 E87.73494
G1 X117.306 Y76.572 E88.02734
G1 X119.185 Y77.028 E88.31738
G1 X121.060 Y77.589 E88.61094
G1 X122.878 Y78.240 E88.90060
G1 X124.684 Y78.997 E89.19434
G1 X126.434 Y79.842 E89.48584
G1 X128.133 Y80.776 E89.77666
G1 X129.778 Y81.797 E90.06707
G1 X131.385 Y82.917 E90.36089
G1 X132.908 Y84.102 E90.65034
G1 X134.377 Y85.376 E90.94202
G1 X135.844 Y86.793 E91.24796
G1 X137.103 Y88.147 E91.52529
G1 X138.384 Y89.675 E91.82438
G1 X139.564 Y91.247 E92.11922
G1 X140.665 Y92.894 E92.41639
G1 X141.683 Y94.609 E92.71554
G1 X142.379 Y95.935 E92.94018
G1 X143.228 Y97.732 E93.23830
G1 X143.416 Y98.153 E93.30746
G1 X143.975 Y99.568 E93.53567
G1 X144.623 Y101.436 E93.83225
G1 X145.167 Y103.332 E94.12813
G1 X145.612 Y105.275 E94.42712
G1 X145.948 Y107.212 E94.72201
G1 X146.182 Y109.192 E95.02108
G1 X146.307 Y111.155 E95.31612
G1 X146.326 Y113.265 E95.63264
G1 X146.244 Y115.040 E95.89917
G1 X146.053 Y117.025 E96.19830
G1 X145.759 Y118.969 E96.49321
G1 X145.358 Y120.908 E96.79022
G1 X144.851 Y122.833 E97.08881
G1 X144.243 Y124.721 E97.38634
G1 X143.539 Y126.558 E97.68143
G1 X142.732 Y128.366 E97.97842
G1 X142.045 Y129.712 E98.20510
G1 X141.068 Y131.443 E98.50325
G1 X140.827 Y131.849 E98.57407
G1 X140.003 Y133.112 E98.80027
G1 X138.847 Y134.723 E99.09770
G1 X137.616 Y136.259 E99.39296
G1 X136.296 Y137.735 E99.68998
G1 X134.727 Y139.302 E100.02261
G1 X133.471 Y140.424 E100.27523
G1 X131.942 Y141.663 E100.57043
G1 X130.340 Y142.825 E100.86729
G1 X128.666 Y143.905 E101.16611
G1 X126.946 Y144.889 E101.46335
G1 X125.189 Y145.772 E101.75831
G1 X123.369 Y146.565 E102.05610
G1 X121.519 Y147.258 E102.35243
G1 X119.617 Y147.854 E102.65141
G1 X117.704 Y148.342 E102.94755
G1 X116.229 Y148.635 E103.17312
G1 X114.269 Y148.942 E103.47070
G1 X112.297 Y149.143 E103.76804
G1 X110.312 Y149.237 E104.06612
G1 X109.967 Y149.248 E104.11790
G1 X108.024 Y149.218 E104.40938
G1 X106.434 Y149.110 E104.64843
G1 X106.007 Y149.077 E104.71267
G1 X104.511 Y148.893 E104.93876
G1 X102.580 Y148.571 E105.23241
G1 X100.687 Y148.151 E105.52327
G1 X100.264 Y148.049 E105.58853
G1 X98.814 Y147.631 E105.81489
G1 X98.396 Y147.506 E105.88034
G1 X96.980 Y147.013 E106.10524
G1 X95.160 Y146.294 E106.39877
G1 X93.003 Y145.298 E106.75515
G1 X91.684 Y144.588 E106.97984
G1 X90.006 Y143.591 E107.27262
G1 X88.384 Y142.509 E107.56508
G1 X86.827 Y141.346 E107.85659
G1 X85.334 Y140.102 E108.14810
G1 X83.780 Y138.659 E108.46619
G1 X86.962 Y135.477 E109.14120
G1 X88.091 Y136.544 E109.37421
G1 X89.434 Y137.680 E109.63806
G1 X90.917 Y138.799 E109.91674
G1 X92.462 Y139.830 E110.19535
G1 X93.671 Y140.543 E110.40589
G1 X95.307 Y141.412 E110.68376
G1 X95.719 Y141.617 E110.75278
G1 X97.000 Y142.190 E110.96328
G1 X98.729 Y142.865 E111.24169
G1 X100.495 Y143.441 E111.52033
G1 X102.291 Y143.914 E111.79892
G1 X104.113 Y144.282 E112.07773
G1 X105.952 Y144.545 E112.35639
G1 X107.350 Y144.663 E112.56684
G1 X109.198 Y144.741 E112.84428
G1 X109.587 Y144.751 E112.90265
G1 X111.365 Y144.702 E113.16945
G1 X113.171 Y144.551 E113.44130
G1 X114.968 Y144.299 E113.71349
G1 X116.746 Y143.945 E113.98542
G1 X118.502 Y143.493 E114.25741
G1 X120.230 Y142.943 E114.52942
G1 X121.925 Y142.296 E114.80156
G1 X123.206 Y141.723 E115.01206
G1 X124.826 Y140.912 E115.28381
G1 X126.398 Y140.010 E115.55567
G1 X127.918 Y139.022 E115.82760
G1 X129.375 Y137.953 E116.09867
G1 X131.094 Y136.529 E116.43350
G1 X132.111 Y135.567 E116.64348
G1 X132.649 Y135.029 E116.75761
G1 X133.612 Y134.012 E116.96770
G1 X134.783 Y132.626 E117.23987
G1 X135.874 Y131.178 E117.51182
G1 X136.883 Y129.671 E117.78386
G1 X137.805 Y128.109 E118.05593
G1 X138.637 Y126.499 E118.32777
G1 X139.379 Y124.842 E118.60010
G1 X139.880 Y123.531 E118.81062
G1 X140.449 Y121.817 E119.08152
G1 X140.575 Y121.420 E119.14400
G1 X140.925 Y120.061 E119.35450
G1 X141.301 Y118.289 E119.62622
G1 X141.576 Y116.497 E119.89816
G1 X141.750 Y114.698 E120.16927
G1 X141.784 Y114.282 E120.23188
G1 X141.834 Y112.498 E120.49958
G1 X141.785 Y110.720 E120.76639
G1 X141.634 Y108.914 E121.03823
G1 X141.382 Y107.117 E121.31042
G1 X141.028 Y105.339 E121.58235
G1 X140.576 Y103.583 E121.85434
G1 X140.026 Y101.855 E122.12635
G1 X139.379 Y100.160 E122.39849
G1 X138.806 Y98.879 E122.60899
G1 X137.995 Y97.259 E122.88074
G1 X137.093 Y95.687 E123.15260
G1 X136.105 Y94.167 E123.42453
G1 X135.036 Y92.710 E123.69560
G1 X133.612 Y90.991 E124.03043
G1 X132.650 Y89.974 E124.24041
G1 X132.112 Y89.436 E124.35454
G1 X131.095 Y88.473 E124.56463
G1 X129.674 Y87.273 E124.84362
G1 X128.553 Y86.431 E125.05392
G1 X127.027 Y85.383 E125.33160
G1 X125.432 Y84.420 E125.61107
G1 X123.790 Y83.553 E125.88960
G1 X122.100 Y82.782 E126.16823
G1 X120.368 Y82.109 E126.44696
G1 X118.600 Y81.538 E126.72565
G1 X116.803 Y81.070 E127.00419
G1 X114.980 Y80.706 E127.28303
G1 X113.595 Y80.511 E127.49283
G1 X113.140 Y80.449 E127.56171
G1 X111.394 Y80.302 E127.82454
G1 X109.841 Y80.259 E128.05758
G1 X109.834 Y75.758 E128.73273
G1 X111.535 Y75.803 E128.98797
G0 F9000 X111.478 Y76.477
;TYPE:SKIN
G1 F1800 X115.032 Y80.030 E129.74178
G0 F9000 X115.913 Y80.204
G1 F1800 X112.246 Y76.537 E130.51967
G0 F9000 X113.014 Y76.598
G1 F1800 X116.797 Y80.381 E131.32216
G0 F9000 X117.740 Y80.617
G1 F1800 X113.806 Y76.683 E132.15669
G0 F9000 X114.622 Y76.792
G1 F1800 X118.696 Y80.866 E133.02092
G0 F9000 X119.730 Y81.192
G1 F1800 X115.449 Y76.912 E133.92895
G0 F9000 X116.319 Y77.074
G1 F1800 X120.795 Y81.550 E134.87845
G0 F9000 X121.951 Y82.000
