; generated by Slic3r 1.2.9 on 2015-07-19 at 15:25:17

; external perimeters extrusion width = 0.40mm
; perimeters extrusion width = 0.67mm
; infill extrusion width = 0.67mm
; solid infill extrusion width = 0.67mm
; top infill extrusion width = 0.67mm

M107
; old: G28 ; home all axes
; old: G1 Z5 F5000 ; lift nozzle

; from https://www.reddit.com/r/3Dprinting/comments/254r3h/thought_id_share_my_slic3r_start_code_which/
; edited to heat before homing.
G90 ; absolute positioning
G21 ; units to mm
M190 S70  ; wait for bed temp
M109 S205 ; wait for extruder temp
G28 ; home XYZ **Remove this line if you set home manually and/or don't use endstops**
M83 ; extruder relative mode
G1 Z.4 F200 ; raise Z .35mm @ 5mm/s **Change this to to your nozzle size**
G1 X15 E2.0 F75 ; extrude a thick line of 2 mm of filament **This should be good for .35 to .50 nozzles**
M82 ; extruder to absolute mode
G92 E0 ; reset E to 0 **Print G-code takes over from here**
G21 ; set units to millimeters
G90 ; use absolute coordinates
M82 ; use absolute distances for extrusion
G92 E0
G1 Z0.300 F9000.000
G1 E-5.00000 F2400.00000
G92 E0
G1 Z0.400 F9000.000
G1 X74.325 Y74.568 F9000.000
G1 Z0.300 F9000.000
G1 E5.00000 F2400.00000
G1 X75.590 Y73.429 E5.04287 F1800.000
G1 X81.814 Y68.907 E5.23666
G1 X83.288 Y68.056 E5.27953
G1 X90.316 Y64.927 E5.47331
G1 X91.935 Y64.401 E5.51619
G1 X99.460 Y62.801 E5.70997
G1 X101.153 Y62.623 E5.75285
G1 X108.847 Y62.623 E5.94663
G1 X110.540 Y62.801 E5.98950
G1 X118.065 Y64.401 E6.18328 F1800.000
G1 X119.684 Y64.927 E6.22616
G1 X126.712 Y68.056 E6.41994
G1 X128.184 Y68.906 E6.46275
G1 X134.410 Y73.429 E6.65660
G1 X135.675 Y74.568 E6.69947
G1 X140.823 Y80.286 E6.89326
G1 X141.823 Y81.662 E6.93613
G1 X145.670 Y88.325 E7.12991
G1 X146.362 Y89.880 E7.17279
G1 X148.740 Y97.197 E7.36657
G1 X149.094 Y98.862 E7.40945
G1 X149.898 Y106.513 E7.60323
G1 X149.765 Y109.054 E7.66732
G1 X148.855 Y111.430 E7.73140
G1 X147.255 Y113.409 E7.79549
G1 X145.871 Y114.416 E7.83861
G1 X90.671 Y146.286 E9.44409
G1 X88.296 Y147.198 E9.50818
G1 X85.755 Y147.333 E9.57227
G1 X83.297 Y146.676 E9.63636
G1 X81.814 Y145.821 E9.67948
G1 X75.590 Y141.299 E9.87326
G1 X74.325 Y140.160 E9.91613
G1 X69.177 Y134.443 E10.10991
G1 X68.177 Y133.066 E10.15279
G1 X64.330 Y126.404 E10.34657
G1 X63.638 Y124.848 E10.38945
G1 X61.260 Y117.531 E10.58323
G1 X60.906 Y115.867 E10.62610
G1 X60.102 Y108.215 E10.81988
G1 X60.102 Y106.513 E10.86276
G1 X60.906 Y98.862 E11.05654
G1 X61.260 Y97.198 E11.09939
G1 X63.638 Y89.880 E11.29320
G1 X64.330 Y88.325 E11.33608
G1 X68.177 Y81.663 E11.52986
G1 X69.177 Y80.286 E11.57273
G1 X74.285 Y74.613 E11.76500
G1 X74.723 Y74.927 F9000.000
G1 X75.905 Y73.863 E11.80506 F1800.000
G1 X82.129 Y69.341 E11.99884
G1 X83.506 Y68.545 E12.03889
G1 X90.534 Y65.416 E12.23267
G1 X92.047 Y64.925 E12.27273
G1 X99.572 Y63.325 E12.46651
G1 X101.153 Y63.159 E12.50657
G1 X108.847 Y63.159 E12.70035
G1 X110.428 Y63.325 E12.74040
G1 X117.953 Y64.925 E12.93418 F1800.000
G1 X119.466 Y65.416 E12.97424
G1 X126.494 Y68.545 E13.16802
G1 X127.869 Y69.339 E13.20802
G1 X134.095 Y73.863 E13.40186
G1 X135.277 Y74.927 E13.44191
G1 X140.425 Y80.644 E13.63570
G1 X141.359 Y81.930 E13.67575
G1 X145.206 Y88.593 E13.86953
G1 X145.853 Y90.046 E13.90959
G1 X148.230 Y97.363 E14.10337
G1 X148.561 Y98.918 E14.14342
G1 X149.365 Y106.569 E14.33720
G1 X149.224 Y109.024 E14.39914
G1 X148.306 Y111.305 E14.46107
G1 X146.710 Y113.175 E14.52300
G1 X145.603 Y113.952 E14.55705
G1 X90.403 Y145.822 E16.16254
G1 X88.103 Y146.691 E16.22447
G1 X85.646 Y146.781 E16.28640
G1 X83.289 Y146.082 E16.34833
G1 X82.129 Y145.388 E16.38239
G1 X75.905 Y140.866 E16.57617
G1 X74.723 Y139.802 E16.61622
G1 X69.575 Y134.085 E16.81000
G1 X68.640 Y132.798 E16.85006
G1 X64.794 Y126.136 E17.04384
G1 X64.147 Y124.683 E17.08390
G1 X61.770 Y117.366 E17.27768
G1 X61.439 Y115.811 E17.31773
G1 X60.635 Y108.160 E17.51151
G1 X60.635 Y106.569 E17.55157
G1 X61.439 Y98.918 E17.74535
G1 X61.769 Y97.364 E17.78538
G1 X64.147 Y90.046 E17.97919
G1 X64.794 Y88.593 E18.01924
G1 X68.640 Y81.930 E18.21302
G1 X69.575 Y80.644 E18.25308
G1 X74.683 Y74.971 E18.44535
G1 X75.121 Y75.285 F9000.000
G1 X76.220 Y74.296 E18.48258 F1800.000
G1 X82.444 Y69.774 E18.67636
G1 X83.724 Y69.035 E18.71360
G1 X90.752 Y65.906 E18.90738
G1 X92.158 Y65.449 E18.94462
G1 X99.683 Y63.849 E19.13840
G1 X101.153 Y63.695 E19.17563
G1 X108.847 Y63.695 E19.36941
G1 X110.317 Y63.849 E19.40665
G1 X117.842 Y65.449 E19.60043 F1800.000
G1 X119.248 Y65.906 E19.63766
G1 X126.276 Y69.035 E19.83145
G1 X127.555 Y69.773 E19.86862
G1 X133.780 Y74.296 E20.06246
G1 X134.879 Y75.285 E20.09969
G1 X140.027 Y81.002 E20.29348
G1 X140.896 Y82.198 E20.33071
G1 X144.742 Y88.861 E20.52449
G1 X145.344 Y90.211 E20.56173
G1 X147.721 Y97.528 E20.75551
G1 X148.028 Y98.974 E20.79274
G1 X148.833 Y106.625 E20.98653
G1 X148.682 Y108.990 E21.04622
G1 X147.758 Y111.173 E21.10592
G1 X145.336 Y113.488 E21.19032
G1 X90.136 Y145.358 E22.79581
G1 X87.914 Y146.182 E22.85550
G1 X85.544 Y146.226 E22.91520
G1 X82.444 Y144.955 E22.99960
G1 X76.220 Y140.433 E23.19338
G1 X75.121 Y139.444 E23.23061
G1 X69.973 Y133.726 E23.42440
G1 X69.104 Y132.531 E23.46163
G1 X65.258 Y125.868 E23.65541
G1 X64.656 Y124.517 E23.69265
G1 X62.279 Y117.200 E23.88643
G1 X61.972 Y115.755 E23.92366
G1 X61.168 Y108.104 E24.11744
G1 X61.168 Y106.625 E24.15468
G1 X61.972 Y98.974 E24.34846
G1 X62.279 Y97.529 E24.38567
G1 X64.656 Y90.211 E24.57948
G1 X65.258 Y88.861 E24.61671
G1 X69.104 Y82.198 E24.81049
G1 X69.973 Y81.002 E24.84773
G1 X75.081 Y75.330 E25.04000
G1 X75.519 Y75.643 F9000.000
G1 X76.534 Y74.729 E25.07441 F1800.000
G1 X82.759 Y70.207 E25.26819
G1 X83.942 Y69.524 E25.30261
G1 X90.970 Y66.395 E25.49639
G1 X92.269 Y65.973 E25.53081
G1 X99.795 Y64.373 E25.72459
G1 X101.153 Y64.230 E25.75900
G1 X108.847 Y64.230 E25.95278
G1 X110.205 Y64.373 E25.98720
G1 X117.731 Y65.973 E26.18098 F1800.000
G1 X119.030 Y66.395 E26.21539
G1 X126.058 Y69.524 E26.40917
G1 X127.240 Y70.206 E26.44354
G1 X133.466 Y74.729 E26.63737
G1 X134.481 Y75.643 E26.67178
G1 X139.629 Y81.361 E26.86557
G1 X140.432 Y82.466 E26.89997
G1 X144.279 Y89.129 E27.09376
G1 X144.834 Y90.377 E27.12818
G1 X147.212 Y97.694 E27.32196
G1 X147.496 Y99.030 E27.35637
G1 X148.300 Y106.681 E27.55015
G1 X148.140 Y108.953 E27.60753
G1 X147.209 Y111.033 E27.66490
G1 X145.068 Y113.024 E27.73856
G1 X89.868 Y144.894 E29.34405
G1 X87.727 Y145.672 E29.40142
G1 X85.449 Y145.668 E29.45880
G1 X82.758 Y144.521 E29.53246
G1 X76.534 Y139.999 E29.72624
G1 X75.519 Y139.085 E29.76066
G1 X70.371 Y133.368 E29.95444
G1 X69.568 Y132.263 E29.98885
G1 X65.722 Y125.600 E30.18263
G1 X65.166 Y124.352 E30.21705
G1 X62.788 Y117.035 E30.41083
G1 X62.504 Y115.699 E30.44524
G1 X61.700 Y108.048 E30.63902
G1 X61.700 Y106.681 E30.67344
G1 X62.504 Y99.030 E30.86722
G1 X62.788 Y97.694 E30.90161
G1 X65.166 Y90.377 E31.09541
G1 X65.722 Y89.129 E31.12983
G1 X69.568 Y82.466 E31.32361
G1 X70.371 Y81.361 E31.35802
G1 X75.479 Y75.688 E31.55030
G1 F7200
G1 X76.534 Y74.729 E31.09875
G1 F7200
G1 X82.759 Y70.207 E28.66252
G1 F7200
G1 X83.942 Y69.524 E28.22988
G1 F7200
G1 X88.066 Y67.688 E26.80030
G1 E26.55030 F2400.00000
G92 E0
G1 Z0.400 F9000.000
G1 X140.872 Y106.529 F9000.000
G1 Z0.300 F9000.000
G1 E5.00000 F2400.00000
G1 X133.752 Y106.529 E5.17933 F1800.000
G1 X133.210 Y101.368 E5.31003
G1 X131.347 Y95.634 E5.46190
G1 X128.332 Y90.412 E5.61376
G1 X124.298 Y85.932 E5.76563
G1 X119.420 Y82.388 E5.91750
G1 X113.912 Y79.936 E6.06936
G1 X108.015 Y78.682 E6.22123
G1 X101.985 Y78.682 E6.37310
G1 X96.088 Y79.936 E6.52496
G1 X90.580 Y82.388 E6.67683
G1 X85.702 Y85.932 E6.82869
G1 X81.668 Y90.412 E6.98056
G1 X78.653 Y95.634 E7.13243
G1 X76.790 Y101.368 E7.28429
G1 X76.160 Y107.364 E7.43616
G1 X76.790 Y113.361 E7.58803
G1 X78.653 Y119.095 E7.73989
G1 X81.668 Y124.316 E7.89176
G1 X85.702 Y128.797 E8.04362
G1 X89.900 Y131.847 E8.17433
G1 X86.340 Y138.013 E8.35366
G1 X80.938 Y134.088 E8.52185
G1 X75.908 Y128.501 E8.71120
G1 X72.149 Y121.990 E8.90056
G1 X69.826 Y114.841 E9.08992
G1 X69.040 Y107.364 E9.27927
G1 X69.826 Y99.888 E9.46863
G1 X72.149 Y92.738 E9.65798
G1 X75.908 Y86.228 E9.84734
G1 X80.938 Y80.641 E10.03670
G1 X87.020 Y76.222 E10.22605
G1 X93.888 Y73.165 E10.41541
G1 X101.241 Y71.602 E10.60476
G1 X108.759 Y71.602 E10.79412
G1 X116.112 Y73.165 E10.98348
G1 X122.980 Y76.222 E11.17283
G1 X129.062 Y80.641 E11.36219
G1 X134.092 Y86.228 E11.55155
G1 X137.851 Y92.738 E11.74090
G1 X140.174 Y99.888 E11.93026
G1 X140.866 Y106.469 E12.09694
G1 X141.467 Y107.064 F9000.000
G1 X133.270 Y107.064 E12.30340 F1800.000
G1 X132.683 Y101.480 E12.44483
G1 X130.855 Y95.853 E12.59386
G1 X127.897 Y90.729 E12.74289
G1 X123.938 Y86.332 E12.89192
G1 X119.151 Y82.854 E13.04095
G1 X113.746 Y80.448 E13.18998
G1 X107.958 Y79.218 E13.33901
G1 X102.042 Y79.218 E13.48804
G1 X96.254 Y80.448 E13.63707
G1 X90.849 Y82.854 E13.78610
G1 X86.062 Y86.332 E13.93513
G1 X82.103 Y90.729 E14.08417
G1 X79.145 Y95.853 E14.23320
G1 X77.317 Y101.480 E14.38223
G1 X76.698 Y107.364 E14.53126
G1 X77.317 Y113.249 E14.68029
G1 X79.145 Y118.876 E14.82932
G1 X82.103 Y124.000 E14.97835
G1 X86.062 Y128.397 E15.12738
G1 X90.605 Y131.697 E15.26881
G1 X86.507 Y138.796 E15.47527
G1 X80.578 Y134.488 E15.65986
G1 X75.472 Y128.818 E15.85205
G1 X71.657 Y122.210 E16.04425
G1 X69.299 Y114.953 E16.23644
G1 X68.502 Y107.364 E16.42863
G1 X69.299 Y99.776 E16.62082
G1 X71.657 Y92.519 E16.81301
G1 X75.472 Y85.911 E17.00521
G1 X80.578 Y80.241 E17.19740
G1 X86.751 Y75.756 E17.38959
G1 X93.721 Y72.652 E17.58178
G1 X101.185 Y71.066 E17.77398
G1 X108.815 Y71.066 E17.96617
G1 X116.279 Y72.652 E18.15836
G1 X123.249 Y75.756 E18.35055
G1 X129.422 Y80.241 E18.54275
G1 X134.528 Y85.911 E18.73494
G1 X138.343 Y92.519 E18.92713
G1 X140.701 Y99.776 E19.11932
G1 X141.461 Y107.005 E19.30240
G1 X141.114 Y106.877 F9000.000
G1 X134.989 Y106.207 F9000.000
G1 X133.945 Y105.162 E19.33972 F1800.000
G1 X133.856 Y104.314 E19.36129
G1 X135.749 Y106.207 E19.42893
G1 X136.509 Y106.207 E19.44813
G1 X133.766 Y103.465 E19.54610
G1 X133.677 Y102.616 E19.56766
G1 X137.268 Y106.207 E19.69596
G1 X138.028 Y106.207 E19.71515
G1 X133.588 Y101.767 E19.87378
G1 X133.419 Y100.838 E19.89763
G1 X138.788 Y106.207 E20.08945
G1 X139.547 Y106.207 E20.10864
G1 X133.053 Y99.713 E20.34065
G1 X132.687 Y98.587 E20.37054
G1 X140.307 Y106.207 E20.64275
G1 X140.436 Y105.576 E20.65902
G1 X132.322 Y97.462 E20.94890
G1 X131.956 Y96.337 E20.97878
G1 X140.347 Y104.727 E21.27853
G1 X140.257 Y103.878 E21.30009
G1 X131.512 Y95.133 E21.61251
G1 X130.475 Y93.336 F9000.000
G1 X140.168 Y103.029 E21.95881 F1800.000
G1 X140.079 Y102.180 E21.98037
G1 X129.437 Y91.538 E22.36056
G1 X127.424 Y88.766 F9000.000
G1 X139.990 Y101.332 E22.80945 F1800.000
G1 X139.900 Y100.483 E22.83101
G1 X112.081 Y72.663 E23.82486
G1 X113.046 Y72.868 E23.84977
G1 X139.662 Y99.484 E24.80063
G1 X139.296 Y98.359 E24.83052
G1 X114.010 Y73.073 E25.73385
G1 X114.975 Y73.278 E25.75877
G1 X138.931 Y97.234 E26.61457
G1 X138.565 Y96.109 E26.64446
G1 X115.972 Y73.516 E27.45159
G1 X117.341 Y74.125 F9000.000
G1 X138.199 Y94.983 E28.19673 F1800.000
G1 X137.834 Y93.858 E28.22662
G1 X118.711 Y74.735 E28.90979
G1 X120.080 Y75.345 F9000.000
G1 X137.291 Y92.555 E29.52463 F1800.000
G1 X136.253 Y90.758 F9000.000
G1 X121.450 Y75.954 E30.05347 F1800.000
G1 X122.995 Y76.741 F9000.000
G1 X135.215 Y88.960 E30.49002 F1800.000
G1 X134.177 Y87.163 F9000.000
G1 X125.773 Y78.759 E30.79025 F1800.000
G1 X128.551 Y80.777 F9000.000
G1 X129.139 Y81.365 E30.81125 F1800.000
G1 X123.512 Y84.854 F9000.000
G1 X111.116 Y72.458 E31.25409 F1800.000
G1 X110.152 Y72.253 E31.27901
G1 X120.734 Y82.836 E31.65707
G1 X118.867 Y81.728 F9000.000
G1 X109.187 Y72.048 E32.00290 F1800.000
G1 X108.302 Y71.923 E32.02547
G1 X117.498 Y81.119 E32.35398
G1 X116.128 Y80.509 F9000.000
G1 X107.543 Y71.923 E32.66070 F1800.000
G1 X106.783 Y71.923 E32.67989
G1 X114.759 Y79.899 E32.96484
G1 X113.618 Y79.518 F9000.000
G1 X106.023 Y71.923 E33.23614 F1800.000
G1 X105.264 Y71.923 E33.25534
G1 X112.653 Y79.312 E33.51932
G1 X111.688 Y79.107 E33.54423
G1 X104.504 Y71.923 E33.80089
G1 X103.744 Y71.923 E33.82008
G1 X110.723 Y78.902 E34.06941
G1 X109.759 Y78.697 E34.09432
G1 X102.985 Y71.923 E34.33633
G1 X102.225 Y71.923 E34.35552
G1 X108.794 Y78.492 E34.59019
G1 X107.903 Y78.360 E34.61296
G1 X101.465 Y71.923 E34.84293
G1 X100.788 Y72.005 E34.86017
G1 X107.143 Y78.360 E35.08722
G1 X106.383 Y78.360 E35.10641
G1 X100.161 Y72.138 E35.32869
G1 X99.535 Y72.272 E35.34487
G1 X105.623 Y78.360 E35.56240
G1 X104.864 Y78.360 E35.58159
G1 X98.908 Y72.405 E35.79436
G1 X98.281 Y72.538 E35.81054
G1 X104.104 Y78.360 E36.01855
G1 X103.344 Y78.360 E36.03774
G1 X97.655 Y72.671 E36.24100
G1 X97.028 Y72.804 E36.25718
G1 X102.585 Y78.360 E36.45567
G1 X101.865 Y78.400 E36.47388
G1 X96.402 Y72.937 E36.66905
G1 X95.775 Y73.071 E36.68523
G1 X101.239 Y78.534 E36.88040
G1 X100.612 Y78.667 E36.89658
G1 X95.149 Y73.204 E37.09175
G1 X94.522 Y73.337 E37.10793
G1 X99.986 Y78.800 E37.30310
G1 X99.359 Y78.933 E37.31928
G1 X93.898 Y73.472 E37.51437
G1 X93.372 Y73.706 E37.52890
G1 X98.733 Y79.066 E37.72039
G1 X98.106 Y79.199 E37.73657
G1 X92.847 Y73.940 E37.92446
G1 X92.321 Y74.174 E37.93899
G1 X97.480 Y79.333 E38.12327
G1 X96.853 Y79.466 E38.13945
G1 X91.796 Y74.408 E38.32013
G1 X91.270 Y74.642 E38.33466
G1 X96.226 Y79.599 E38.51174
G1 X95.675 Y79.807 E38.52663
G1 X90.744 Y74.876 E38.70278
G1 X90.219 Y75.110 E38.71731
G1 X95.149 Y80.041 E38.89347
G1 X94.624 Y80.275 E38.90800
G1 X89.693 Y75.344 E39.08415
G1 X89.167 Y75.579 E39.09869
G1 X94.098 Y80.509 E39.27484
G1 X93.572 Y80.743 E39.28937
G1 X88.642 Y75.813 E39.46553
G1 X88.116 Y76.047 E39.48006
G1 X93.047 Y80.977 E39.65621
G1 X92.521 Y81.211 E39.67075
G1 X87.590 Y76.281 E39.84690
G1 X87.075 Y76.525 E39.86131
G1 X91.996 Y81.445 E40.03711
G1 X91.470 Y81.679 E40.05165
G1 X86.635 Y76.844 E40.22439
G1 X86.195 Y77.164 E40.23813
G1 X90.944 Y81.914 E40.40781
G1 X90.428 Y82.157 E40.42223
G1 X85.755 Y77.484 E40.58917
G1 X85.315 Y77.803 E40.60291
G1 X89.988 Y82.476 E40.76986
G1 X89.548 Y82.796 E40.78360
G1 X84.875 Y78.123 E40.95054
G1 X84.435 Y78.443 E40.96428
G1 X89.108 Y83.116 E41.13123
G1 X88.668 Y83.435 E41.14497
G1 X83.995 Y78.762 E41.31191
G1 X83.555 Y79.082 E41.32565
G1 X88.228 Y83.755 E41.49260
G1 X87.788 Y84.075 E41.50634
G1 X83.115 Y79.402 E41.67328
G1 X82.675 Y79.721 E41.68702
G1 X87.348 Y84.394 E41.85397
G1 X86.908 Y84.714 E41.86771
G1 X82.235 Y80.041 E42.03465
G1 X81.795 Y80.361 E42.04839
G1 X86.468 Y85.034 E42.21534
G1 X86.028 Y85.353 E42.22907
G1 X81.355 Y80.680 E42.39602
G1 X80.957 Y81.042 E42.40960
G1 X85.588 Y85.673 E42.57505
G1 X85.216 Y86.061 E42.58862
G1 X80.592 Y81.437 E42.75383
G1 X80.232 Y81.836 E42.76742
G1 X84.856 Y86.461 E42.93262
G1 X84.496 Y86.861 E42.94621
G1 X79.872 Y82.236 E43.11142
G1 X79.512 Y82.636 E43.12500
G1 X84.136 Y87.260 E43.29021
G1 X83.776 Y87.660 E43.30380
G1 X79.152 Y83.036 E43.46900
G1 X78.792 Y83.435 E43.48259
G1 X83.416 Y88.060 E43.64780
G1 X83.056 Y88.460 E43.66139
G1 X78.432 Y83.835 E43.82659
G1 X78.072 Y84.235 E43.84018
G1 X82.696 Y88.859 E44.00539
G1 X82.337 Y89.259 E44.01897
G1 X77.712 Y84.635 E44.18418
G1 X77.352 Y85.034 E44.19777
G1 X81.977 Y89.659 E44.36297
G1 X81.617 Y90.059 E44.37656
G1 X76.992 Y85.434 E44.54177
G1 X76.632 Y85.834 E44.55536
G1 X81.296 Y90.497 E44.72195
G1 X81.017 Y90.979 E44.73600
G1 X76.272 Y86.234 E44.90551
G1 X75.966 Y86.687 E44.91933
G1 X80.739 Y91.460 E45.08986
G1 X80.461 Y91.942 E45.10391
G1 X75.688 Y87.169 E45.27443
G1 X75.410 Y87.650 E45.28848
G1 X80.183 Y92.424 E45.45901
G1 X79.905 Y92.905 E45.47305
G1 X75.132 Y88.132 E45.64358
G1 X74.854 Y88.613 E45.65763
G1 X79.627 Y93.387 E45.82815
G1 X79.349 Y93.868 E45.84220
G1 X74.576 Y89.095 E46.01273
G1 X74.298 Y89.577 E46.02677
G1 X79.071 Y94.350 E46.19730
G1 X78.793 Y94.832 E46.21135
G1 X74.020 Y90.058 E46.38187
G1 X73.742 Y90.540 E46.39592
G1 X78.515 Y95.313 E46.56645
G1 X78.280 Y95.838 E46.58097
G1 X73.464 Y91.022 E46.75303
G1 X73.186 Y91.503 E46.76707
G1 X78.094 Y96.411 E46.94241
G1 X77.907 Y96.984 E46.95764
