; generated by Slic3r 1.2.9 on 2015-07-31 at 20:36:40

; external perimeters extrusion width = 0.40mm
; perimeters extrusion width = 0.67mm
; infill extrusion width = 0.67mm
; solid infill extrusion width = 0.67mm
; top infill extrusion width = 0.67mm

M107
; old: G28 ; home all axes
; old: G1 Z5 F5000 ; lift nozzle

; from https://www.reddit.com/r/3Dprinting/comments/254r3h/thought_id_share_my_slic3r_start_code_which/
; edited to heat before homing.
G90 ; absolute positioning
G21 ; units to mm
M190 S70  ; wait for bed temp
M109 S215 ; wait for extruder temp
G28 ; home XYZ **Remove this line if you set home manually and/or don't use endstops**
M83 ; extruder relative mode
G1 Z.4 F200 ; raise Z .35mm @ 5mm/s **Change this to to your nozzle size**
G1 X15 E2.0 F75 ; extrude a thick line of 2 mm of filament **This should be good for .35 to .50 nozzles**
M82 ; extruder to absolute mode
G92 E0 ; reset E to 0 **Print G-code takes over from here**
G21 ; set units to millimeters
G90 ; use absolute coordinates
M82 ; use absolute distances for extrusion
G92 E0
G1 Z0.300 F9000.000
G1 E-5.00000 F2400.00000
G92 E0
G1 Z0.400 F9000.000
G1 X90.876 Y75.044 F9000.000
G1 Z0.300 F9000.000
G1 E5.00000 F2400.00000
G1 X92.686 Y73.139 E5.06618 F1800.000
G1 X94.982 Y71.863 E5.13235
G1 X98.000 Y71.322 E5.20957
G1 X113.500 Y71.322 E5.59999
G1 X116.097 Y71.720 E5.66617
G1 X118.456 Y72.876 E5.73234 F1800.000
G1 X120.361 Y74.686 E5.79852
G1 X121.637 Y76.982 E5.86470
G1 X122.178 Y80.000 E5.94192
G1 X122.178 Y130.000 E7.20133
G1 X121.780 Y132.597 E7.26751
G1 X120.624 Y134.956 E7.33368
G1 X118.814 Y136.861 E7.39986
G1 X116.518 Y138.137 E7.46603
G1 X113.500 Y138.678 E7.54325
G1 X98.000 Y138.678 E7.93367
G1 X95.403 Y138.280 E7.99985
G1 X93.044 Y137.124 E8.06602
G1 X91.139 Y135.314 E8.13220
G1 X89.863 Y133.018 E8.19838
G1 X89.322 Y130.000 E8.27560
G1 X89.322 Y80.000 E9.53501
G1 X89.720 Y77.403 E9.60119
G1 X90.850 Y75.098 E9.66585
G1 X91.370 Y75.295 F9000.000
G1 X91.409 Y75.219 E9.66801 F1800.000
G1 X93.206 Y73.418 E9.73209
G1 X95.472 Y72.260 E9.79618
G1 X98.000 Y71.858 E9.86067
G1 X113.500 Y71.858 E10.25108
G1 X116.013 Y72.255 E10.31517
G1 X118.281 Y73.409 E10.37926 F1800.000
G1 X120.082 Y75.206 E10.44335
G1 X121.240 Y77.472 E10.50744
G1 X121.642 Y80.000 E10.57192
G1 X121.642 Y130.000 E11.83134
G1 X121.245 Y132.513 E11.89543
G1 X120.091 Y134.781 E11.95951
G1 X118.294 Y136.582 E12.02360
G1 X116.028 Y137.740 E12.08769
G1 X113.500 Y138.142 E12.15217
G1 X98.000 Y138.142 E12.54259
G1 X95.487 Y137.745 E12.60668
G1 X93.219 Y136.591 E12.67077
G1 X91.418 Y134.794 E12.73486
G1 X90.260 Y132.528 E12.79895
G1 X89.858 Y130.000 E12.86343
G1 X89.858 Y80.000 E14.12284
G1 X90.255 Y77.487 E14.18693
G1 X91.343 Y75.349 E14.24736
G1 X91.860 Y75.555 F9000.000
G1 X91.941 Y75.401 E14.25174 F1800.000
G1 X93.725 Y73.708 E14.31367
G1 X95.955 Y72.673 E14.37561
G1 X98.000 Y72.393 E14.42760
G1 X113.500 Y72.393 E14.81802
G1 X115.926 Y72.791 E14.87995
G1 X118.099 Y73.941 E14.94188 F1800.000
G1 X119.792 Y75.725 E15.00381
G1 X120.827 Y77.955 E15.06574
G1 X121.107 Y80.000 E15.11773
G1 X121.107 Y130.000 E16.37715
G1 X120.709 Y132.426 E16.43908
G1 X119.559 Y134.599 E16.50101
G1 X117.775 Y136.292 E16.56294
G1 X115.545 Y137.327 E16.62487
G1 X113.500 Y137.607 E16.67686
G1 X98.000 Y137.607 E17.06728
G1 X95.574 Y137.209 E17.12921
G1 X93.401 Y136.059 E17.19114
G1 X91.708 Y134.275 E17.25308
G1 X90.673 Y132.045 E17.31501
G1 X90.393 Y130.000 E17.36700
G1 X90.393 Y80.000 E18.62641
G1 X90.791 Y77.574 E18.68834
G1 X91.832 Y75.608 E18.74438
G1 X92.344 Y75.822 F9000.000
G1 X92.473 Y75.589 E18.75108 F1800.000
G1 X94.241 Y74.011 E18.81078
G1 X96.431 Y73.105 E18.87048
G1 X98.000 Y72.929 E18.91025
G1 X113.500 Y72.929 E19.30067
G1 X115.837 Y73.326 E19.36037
G1 X117.911 Y74.473 E19.42006 F1800.000
G1 X119.489 Y76.241 E19.47976
G1 X120.395 Y78.431 E19.53946
G1 X120.571 Y80.000 E19.57923
G1 X120.571 Y130.000 E20.83865
G1 X120.174 Y132.337 E20.89834
G1 X119.027 Y134.411 E20.95804
G1 X117.259 Y135.989 E21.01773
G1 X115.069 Y136.895 E21.07743
G1 X113.500 Y137.071 E21.11721
G1 X98.000 Y137.071 E21.50763
G1 X95.663 Y136.674 E21.56732
G1 X93.589 Y135.527 E21.62702
G1 X92.011 Y133.759 E21.68672
G1 X91.105 Y131.569 E21.74641
G1 X90.929 Y130.000 E21.78619
G1 X90.929 Y80.000 E23.04560
G1 X91.326 Y77.663 E23.10530
G1 X92.315 Y75.875 E23.15678
G1 X92.822 Y76.100 F9000.000
G1 X93.004 Y75.787 E23.16590 F1800.000
G1 X94.753 Y74.328 E23.22327
G1 X98.000 Y73.464 E23.30789
G1 X113.500 Y73.464 E23.69831
G1 X115.743 Y73.861 E23.75568
G1 X117.713 Y75.004 E23.81306 F1800.000
G1 X119.172 Y76.753 E23.87043
G1 X120.036 Y80.000 E23.95505
G1 X120.036 Y130.000 E25.21446
G1 X119.639 Y132.243 E25.27184
G1 X118.496 Y134.213 E25.32921
G1 X116.747 Y135.672 E25.38659
G1 X113.500 Y136.536 E25.47121
G1 X98.000 Y136.536 E25.86162
G1 X95.757 Y136.139 E25.91900
G1 X93.787 Y134.996 E25.97637
G1 X92.328 Y133.247 E26.03375
G1 X91.464 Y130.000 E26.11837
G1 X91.464 Y80.000 E27.37778
G1 X91.861 Y77.757 E27.43515
G1 X92.792 Y76.152 E27.48190
G1 F7200
G1 X93.004 Y75.787 E27.34824
G1 F7200
G1 X94.753 Y74.328 E26.62692
G1 F7200
G1 X98.000 Y73.464 E25.56310
G1 F7200
G1 X106.941 Y73.464 E22.73190
G1 E22.48190 F2400.00000
G92 E0
G1 Z0.400 F9000.000
G1 X112.664 Y129.164 F9000.000
G1 Z0.300 F9000.000
G1 E5.00000 F2400.00000
G1 X98.836 Y129.164 E5.34832 F1800.000
G1 X98.836 Y80.836 E6.56564
G1 X112.664 Y80.836 E6.91396
G1 X112.664 Y129.104 E8.12977
G1 X113.200 Y129.700 F9000.000
G1 X98.300 Y129.700 E8.50507 F1800.000
G1 X98.300 Y80.300 E9.74937
G1 X113.200 Y80.300 E10.12468
G1 X113.200 Y129.640 E11.36746
G1 X112.854 Y129.500 F9000.000
G1 X99.424 Y128.843 F9000.000
G1 X99.157 Y128.576 E11.37706 F1800.000
G1 X99.157 Y127.812 E11.39646
G1 X100.188 Y128.843 E11.43349
G1 X100.952 Y128.843 E11.45288
G1 X99.157 Y127.048 E11.51734
G1 X99.157 Y126.284 E11.53674
G1 X101.716 Y128.843 E11.62863
G1 X102.479 Y128.843 E11.64803
G1 X99.157 Y125.521 E11.76735
G1 X99.157 Y124.757 E11.78675
G1 X103.243 Y128.843 E11.93350
G1 X104.007 Y128.843 E11.95290
G1 X99.157 Y123.993 E12.12708
G1 X99.157 Y123.229 E12.14648
G1 X104.771 Y128.843 E12.34810
G1 X105.534 Y128.843 E12.36749
G1 X99.157 Y122.466 E12.59654
G1 X99.157 Y121.702 E12.61594
G1 X106.298 Y128.843 E12.87242
G1 X107.062 Y128.843 E12.89181
G1 X99.157 Y120.938 E13.17572
G1 X99.157 Y120.174 E13.19512
G1 X107.826 Y128.843 E13.50646
G1 X108.589 Y128.843 E13.52586
G1 X99.157 Y119.411 E13.86463
G1 X99.157 Y118.647 E13.88403
G1 X109.353 Y128.843 E14.25024
G1 X110.117 Y128.843 E14.26963
G1 X99.157 Y117.883 E14.66327
G1 X99.157 Y117.119 E14.68267
G1 X110.881 Y128.843 E15.10373
G1 X111.645 Y128.843 E15.12313
G1 X99.157 Y116.355 E15.57163
G1 X99.157 Y115.592 E15.59103
G1 X112.343 Y128.777 E16.06461
G1 X112.343 Y128.013 E16.08400
G1 X99.157 Y114.828 E16.55758
G1 X99.157 Y114.064 E16.57698
G1 X112.343 Y127.250 E17.05056
G1 X112.343 Y126.486 E17.06995
G1 X99.157 Y113.300 E17.54353
G1 X99.157 Y112.537 E17.56293
G1 X112.343 Y125.722 E18.03650
G1 X112.343 Y124.958 E18.05590
G1 X99.157 Y111.773 E18.52948
G1 X99.157 Y111.009 E18.54888
G1 X112.343 Y124.195 E19.02245
G1 X112.343 Y123.431 E19.04185
G1 X99.157 Y110.245 E19.51543
G1 X99.157 Y109.482 E19.53483
G1 X112.343 Y122.667 E20.00840
G1 X112.343 Y121.903 E20.02780
G1 X99.157 Y108.718 E20.50138
G1 X99.157 Y107.954 E20.52078
G1 X112.343 Y121.140 E20.99435
G1 X112.343 Y120.376 E21.01375
G1 X99.157 Y107.190 E21.48733
G1 X99.157 Y106.427 E21.50673
G1 X112.343 Y119.612 E21.98030
G1 X112.343 Y118.848 E21.99970
G1 X99.157 Y105.663 E22.47328
G1 X99.157 Y104.899 E22.49268
G1 X112.343 Y118.085 E22.96625
G1 X112.343 Y117.321 E22.98565
G1 X99.157 Y104.135 E23.45923
G1 X99.157 Y103.372 E23.47862
G1 X112.343 Y116.557 E23.95220
G1 X112.343 Y115.793 E23.97160
G1 X99.157 Y102.608 E24.44518
G1 X99.157 Y101.844 E24.46457
G1 X112.343 Y115.030 E24.93815
G1 X112.343 Y114.266 E24.95755
G1 X99.157 Y101.080 E25.43113
G1 X99.157 Y100.317 E25.45052
G1 X112.343 Y113.502 E25.92410
G1 X112.343 Y112.738 E25.94350
G1 X99.157 Y99.553 E26.41708
G1 X99.157 Y98.789 E26.43647
G1 X112.343 Y111.975 E26.91005
G1 X112.343 Y111.211 E26.92945
G1 X99.157 Y98.025 E27.40303
G1 X99.157 Y97.262 E27.42242
G1 X112.343 Y110.447 E27.89600
G1 X112.343 Y109.683 E27.91540
G1 X99.157 Y96.498 E28.38898
G1 X99.157 Y95.734 E28.40837
G1 X112.343 Y108.920 E28.88195
G1 X112.343 Y108.156 E28.90135
G1 X99.157 Y94.970 E29.37493
G1 X99.157 Y94.207 E29.39432
G1 X112.343 Y107.392 E29.86790
G1 X112.343 Y106.628 E29.88730
G1 X99.157 Y93.443 E30.36088
G1 X99.157 Y92.679 E30.38027
G1 X112.343 Y105.865 E30.85385
G1 X112.343 Y105.101 E30.87325
G1 X99.157 Y91.915 E31.34682
G1 X99.157 Y91.152 E31.36622
G1 X112.343 Y104.337 E31.83980
G1 X112.343 Y103.573 E31.85920
G1 X99.157 Y90.388 E32.33277
G1 X99.157 Y89.624 E32.35217
G1 X112.343 Y102.810 E32.82575
G1 X112.343 Y102.046 E32.84515
G1 X99.157 Y88.860 E33.31872
G1 X99.157 Y88.097 E33.33812
G1 X112.343 Y101.282 E33.81170
G1 X112.343 Y100.518 E33.83110
G1 X99.157 Y87.333 E34.30467
G1 X99.157 Y86.569 E34.32407
G1 X112.343 Y99.755 E34.79765
G1 X112.343 Y98.991 E34.81705
G1 X99.157 Y85.805 E35.29062
G1 X99.157 Y85.042 E35.31002
G1 X112.343 Y98.227 E35.78360
G1 X112.343 Y97.463 E35.80299
G1 X99.157 Y84.278 E36.27657
G1 X99.157 Y83.514 E36.29597
G1 X112.343 Y96.700 E36.76955
G1 X112.343 Y95.936 E36.78894
G1 X99.157 Y82.750 E37.26252
G1 X99.157 Y81.987 E37.28192
G1 X112.343 Y95.172 E37.75550
G1 X112.343 Y94.408 E37.77489
G1 X99.157 Y81.223 E38.24847
G1 X99.855 Y81.157 E38.26628
G1 X112.343 Y93.645 E38.71478
G1 X112.343 Y92.881 E38.73418
G1 X100.619 Y81.157 E39.15525
G1 X101.383 Y81.157 E39.17465
G1 X112.343 Y92.117 E39.56829
G1 X112.343 Y91.353 E39.58768
G1 X102.147 Y81.157 E39.95389
G1 X102.910 Y81.157 E39.97329
G1 X112.343 Y90.590 E40.31206
G1 X112.343 Y89.826 E40.33146
G1 X103.674 Y81.157 E40.64280
G1 X104.438 Y81.157 E40.66220
G1 X112.343 Y89.062 E40.94611
G1 X112.343 Y88.298 E40.96551
G1 X105.202 Y81.157 E41.22199
G1 X105.965 Y81.157 E41.24139
G1 X112.343 Y87.535 E41.47044
G1 X112.343 Y86.771 E41.48983
G1 X106.729 Y81.157 E41.69145
G1 X107.493 Y81.157 E41.71085
G1 X112.343 Y86.007 E41.88504
G1 X112.343 Y85.243 E41.90443
G1 X108.257 Y81.157 E42.05119
G1 X109.020 Y81.157 E42.07059
G1 X112.343 Y84.480 E42.18991
G1 X112.343 Y83.716 E42.20931
G1 X109.784 Y81.157 E42.30120
G1 X110.548 Y81.157 E42.32060
G1 X112.343 Y82.952 E42.38506
G1 X112.343 Y82.188 E42.40446
G1 X111.312 Y81.157 E42.44149
G1 X112.076 Y81.157 E42.46088
G1 X112.343 Y81.424 E42.47048
M104 S205 ; set temperature
G1 Z0.500 F9000.000
G1 X112.807 Y129.307 F9000.000
G1 X98.693 Y129.307 E42.74852 F3000.000
G1 X98.693 Y80.693 E43.70614
G1 X112.807 Y80.693 E43.98418
G1 X112.807 Y129.247 E44.94063
G1 X113.300 Y129.800 F9000.000
G1 X98.200 Y129.800 E45.10967 F1500.000
G1 X98.200 Y80.200 E45.66493
G1 X113.300 Y80.200 E45.83397
G1 X113.300 Y129.740 E46.38856
G1 X112.954 Y129.600 F9000.000
G1 X112.120 Y128.927 F9000.000
G1 X112.427 Y128.620 E46.39712 F1500.000
G1 X112.427 Y127.729 E46.41472
G1 X111.229 Y128.927 E46.44818
G1 X110.338 Y128.927 E46.46578
G1 X112.427 Y126.838 E46.52413
G1 X112.427 Y125.947 E46.54174
G1 X109.447 Y128.927 E46.62498
G1 X108.556 Y128.927 E46.64258
G1 X112.427 Y125.056 E46.75072
G1 X112.427 Y124.165 E46.76832
G1 X107.665 Y128.927 E46.90135
G1 X106.774 Y128.927 E46.91895
G1 X112.427 Y123.274 E47.07688
G1 X112.427 Y122.382 E47.09448
G1 X105.882 Y128.927 E47.27729
G1 X104.991 Y128.927 E47.29490
G1 X112.427 Y121.491 E47.50260
G1 X112.427 Y120.600 E47.52021
G1 X104.100 Y128.927 E47.75281
G1 X103.209 Y128.927 E47.77041
G1 X112.427 Y119.709 E48.02791
G1 X112.427 Y118.818 E48.04551
G1 X102.318 Y128.927 E48.32790
G1 X101.427 Y128.927 E48.34550
G1 X112.427 Y117.927 E48.65278
G1 X112.427 Y117.036 E48.67038
G1 X100.536 Y128.927 E49.00255
G1 X99.645 Y128.927 E49.02016
G1 X112.427 Y116.145 E49.37722
G1 X112.427 Y115.254 E49.39483
G1 X99.073 Y128.607 E49.76786
G1 X99.073 Y127.716 E49.78546
G1 X112.427 Y114.363 E50.15849
G1 X112.427 Y113.472 E50.17609
G1 X99.073 Y126.825 E50.54912
G1 X99.073 Y125.934 E50.56673
G1 X112.427 Y112.581 E50.93976
G1 X112.427 Y111.690 E50.95736
G1 X99.073 Y125.043 E51.33039
G1 X99.073 Y124.152 E51.34799
G1 X112.427 Y110.798 E51.72103
G1 X112.427 Y109.907 E51.73863
G1 X99.073 Y123.260 E52.11166
G1 X99.073 Y122.369 E52.12926
G1 X112.427 Y109.016 E52.50229
G1 X112.427 Y108.125 E52.51989
G1 X99.073 Y121.478 E52.89293
G1 X99.073 Y120.587 E52.91053
G1 X112.427 Y107.234 E53.28356
G1 X112.427 Y106.343 E53.30116
G1 X99.073 Y119.696 E53.67419
G1 X99.073 Y118.805 E53.69179
G1 X112.427 Y105.452 E54.06483
G1 X112.427 Y104.561 E54.08243
G1 X99.073 Y117.914 E54.45546
G1 X99.073 Y117.023 E54.47306
G1 X112.427 Y103.670 E54.84609
G1 X112.427 Y102.779 E54.86370
G1 X99.073 Y116.132 E55.23673
G1 X99.073 Y115.241 E55.25433
G1 X112.427 Y101.888 E55.62736
G1 X112.427 Y100.997 E55.64496
G1 X99.073 Y114.350 E56.01799
G1 X99.073 Y113.459 E56.03560
G1 X112.427 Y100.106 E56.40863
G1 X112.427 Y99.215 E56.42623
G1 X99.073 Y112.568 E56.79926
G1 X99.073 Y111.677 E56.81686
G1 X112.427 Y98.323 E57.18989
G1 X112.427 Y97.432 E57.20750
G1 X99.073 Y110.785 E57.58053
G1 X99.073 Y109.894 E57.59813
G1 X112.427 Y96.541 E57.97116
G1 X112.427 Y95.650 E57.98876
G1 X99.073 Y109.003 E58.36180
G1 X99.073 Y108.112 E58.37940
G1 X112.427 Y94.759 E58.75243
G1 X112.427 Y93.868 E58.77003
G1 X99.073 Y107.221 E59.14306
G1 X99.073 Y106.330 E59.16066
G1 X112.427 Y92.977 E59.53370
G1 X112.427 Y92.086 E59.55130
G1 X99.073 Y105.439 E59.92433
G1 X99.073 Y104.548 E59.94193
G1 X112.427 Y91.195 E60.31496
G1 X112.427 Y90.304 E60.33256
G1 X99.073 Y103.657 E60.70560
G1 X99.073 Y102.766 E60.72320
G1 X112.427 Y89.413 E61.09623
G1 X112.427 Y88.522 E61.11383
G1 X99.073 Y101.875 E61.48686
G1 X99.073 Y100.984 E61.50447
G1 X112.427 Y87.631 E61.87750
G1 X112.427 Y86.739 E61.89510
G1 X99.073 Y100.093 E62.26813
G1 X99.073 Y99.201 E62.28573
G1 X112.427 Y85.848 E62.65876
G1 X112.427 Y84.957 E62.67637
G1 X99.073 Y98.310 E63.04940
G1 X99.073 Y97.419 E63.06700
G1 X112.427 Y84.066 E63.44003
G1 X112.427 Y83.175 E63.45763
G1 X99.073 Y96.528 E63.83066
G1 X99.073 Y95.637 E63.84827
G1 X112.427 Y82.284 E64.22130
G1 X112.427 Y81.393 E64.23890
G1 X99.073 Y94.746 E64.61193
G1 X99.073 Y93.855 E64.62953
G1 X111.855 Y81.073 E64.98660
G1 X110.964 Y81.073 E65.00420
G1 X99.073 Y92.964 E65.33637
G1 X99.073 Y92.073 E65.35398
G1 X110.073 Y81.073 E65.66126
G1 X109.182 Y81.073 E65.67886
G1 X99.073 Y91.182 E65.96124
G1 X99.073 Y90.291 E65.97885
G1 X108.291 Y81.073 E66.23634
G1 X107.400 Y81.073 E66.25394
G1 X99.073 Y89.400 E66.48654
G1 X99.073 Y88.509 E66.50414
G1 X106.509 Y81.073 E66.71185
G1 X105.617 Y81.073 E66.72945
G1 X99.073 Y87.617 E66.91227
G1 X99.073 Y86.726 E66.92987
G1 X104.726 Y81.073 E67.08779
G1 X103.835 Y81.073 E67.10539
G1 X99.073 Y85.835 E67.23842
G1 X99.073 Y84.944 E67.25602
G1 X102.944 Y81.073 E67.36416
G1 X102.053 Y81.073 E67.38176
G1 X99.073 Y84.053 E67.46500
G1 X99.073 Y83.162 E67.48260
G1 X101.162 Y81.073 E67.54095
G1 X100.271 Y81.073 E67.55855
G1 X99.073 Y82.271 E67.59201
G1 X99.073 Y81.380 E67.60961
G1 X99.380 Y81.073 E67.61817
G1 Z0.700 F9000.000
G1 X112.807 Y129.307 F9000.000
G1 X98.693 Y129.307 E67.89621 F3000.000
G1 X98.693 Y80.693 E68.85384
G1 X112.807 Y80.693 E69.13187
G1 X112.807 Y129.247 E70.08832
G1 X113.300 Y129.800 F9000.000
G1 X98.200 Y129.800 E70.25736 F1500.000
G1 X98.200 Y80.200 E70.81262
G1 X113.300 Y80.200 E70.98166
G1 X113.300 Y129.740 E71.53625
G1 X112.954 Y129.600 F9000.000
G1 X99.073 Y128.620 F9000.000
G1 X99.380 Y128.927 E71.54481 F1500.000
G1 X100.271 Y128.927 E71.56242
G1 X99.073 Y127.729 E71.59587
G1 X99.073 Y126.838 E71.61347
G1 X101.162 Y128.927 E71.67182
G1 X102.053 Y128.927 E71.68943
G1 X99.073 Y125.947 E71.77267
G1 X99.073 Y125.056 E71.79027
G1 X102.944 Y128.927 E71.89840
G1 X103.835 Y128.927 E71.91601
G1 X99.073 Y124.165 E72.04903
G1 X99.073 Y123.274 E72.06664
G1 X104.726 Y128.927 E72.22456
G1 X105.617 Y128.927 E72.24216
G1 X99.073 Y122.382 E72.42497
G1 X99.073 Y121.491 E72.44258
G1 X106.509 Y128.927 E72.65028
G1 X107.400 Y128.927 E72.66789
G1 X99.073 Y120.600 E72.90049
