; generated by Slic3r 1.2.9 on 2015-07-30 at 19:13:39

; external perimeters extrusion width = 0.40mm
; perimeters extrusion width = 0.67mm
; infill extrusion width = 0.67mm
; solid infill extrusion width = 0.67mm
; top infill extrusion width = 0.67mm

M107
; old: G28 ; home all axes
; old: G1 Z5 F5000 ; lift nozzle

; from https://www.reddit.com/r/3Dprinting/comments/254r3h/thought_id_share_my_slic3r_start_code_which/
; edited to heat before homing.
G90 ; absolute positioning
G21 ; units to mm
M190 S70  ; wait for bed temp
M109 S215 ; wait for extruder temp
G28 ; home XYZ **Remove this line if you set home manually and/or don't use endstops**
M83 ; extruder relative mode
G1 Z.4 F200 ; raise Z .35mm @ 5mm/s **Change this to to your nozzle size**
G1 X15 E2.0 F75 ; extrude a thick line of 2 mm of filament **This should be good for .35 to .50 nozzles**
M82 ; extruder to absolute mode
G92 E0 ; reset E to 0 **Print G-code takes over from here**
G21 ; set units to millimeters
G90 ; use absolute coordinates
M82 ; use absolute distances for extrusion
G92 E0
G1 Z0.300 F9000.000
G1 E-5.00000 F2400.00000
G92 E0
G1 Z0.400 F9000.000
G1 X91.640 Y86.961 F9000.000
G1 Z0.300 F9000.000
G1 E5.00000 F2400.00000
G1 X93.989 Y85.464 E5.07016 F1800.000
G1 X98.000 Y84.601 E5.17350
G1 X113.500 Y84.601 E5.56392
G1 X116.257 Y84.999 E5.63409
G1 X118.789 Y86.160 E5.70425 F1800.000
G1 X120.889 Y87.990 E5.77441
G1 X122.386 Y90.339 E5.84458
G1 X123.249 Y94.350 E5.94792
G1 X123.249 Y115.650 E6.48443
G1 X122.851 Y118.407 E6.55459
G1 X121.690 Y120.939 E6.62476
G1 X119.860 Y123.039 E6.69492
G1 X117.511 Y124.536 E6.76509
G1 X113.500 Y125.399 E6.86843
G1 X98.000 Y125.399 E7.25884
G1 X95.243 Y125.001 E7.32901
G1 X92.711 Y123.840 E7.39917
G1 X90.611 Y122.010 E7.46934
G1 X89.114 Y119.661 E7.53950
G1 X88.251 Y115.650 E7.64284
G1 X88.251 Y94.350 E8.17935
G1 X88.649 Y91.593 E8.24951
G1 X89.810 Y89.061 E8.31968
G1 X91.601 Y87.006 E8.38833
G1 X92.056 Y87.339 F9000.000
G1 X92.164 Y87.221 E8.39236 F1800.000
G1 X94.488 Y85.832 E8.46056
G1 X98.000 Y85.136 E8.55074
G1 X113.500 Y85.136 E8.94116
G1 X116.178 Y85.534 E9.00935
G1 X118.625 Y86.693 E9.07755 F1800.000
G1 X120.629 Y88.514 E9.14575
G1 X122.018 Y90.838 E9.21395
G1 X122.714 Y94.350 E9.30413
G1 X122.714 Y115.650 E9.84064
G1 X122.316 Y118.328 E9.90884
G1 X121.157 Y120.775 E9.97704
G1 X119.336 Y122.779 E10.04524
G1 X117.012 Y124.168 E10.11344
G1 X113.500 Y124.864 E10.20362
G1 X98.000 Y124.864 E10.59404
G1 X95.322 Y124.466 E10.66224
G1 X92.875 Y123.307 E10.73044
G1 X90.871 Y121.486 E10.79864
G1 X89.482 Y119.162 E10.86683
G1 X88.786 Y115.650 E10.95702
G1 X88.786 Y94.350 E11.49353
G1 X89.184 Y91.672 E11.56173
G1 X90.343 Y89.225 E11.62992
G1 X92.016 Y87.383 E11.69259
G1 X92.462 Y87.725 F9000.000
G1 X92.686 Y87.489 E11.70076 F1800.000
G1 X94.982 Y86.213 E11.76694
G1 X98.000 Y85.672 E11.84416
G1 X113.500 Y85.672 E12.23458
G1 X116.097 Y86.070 E12.30075
G1 X118.456 Y87.226 E12.36693 F1800.000
G1 X120.361 Y89.036 E12.43311
G1 X121.637 Y91.332 E12.49928
G1 X122.178 Y94.350 E12.57650
G1 X122.178 Y115.650 E13.11301
G1 X121.780 Y118.247 E13.17919
G1 X120.624 Y120.606 E13.24537
G1 X118.814 Y122.511 E13.31154
G1 X116.518 Y123.787 E13.37772
G1 X113.500 Y124.328 E13.45494
G1 X98.000 Y124.328 E13.84536
G1 X95.403 Y123.930 E13.91153
G1 X93.044 Y122.774 E13.97771
G1 X91.139 Y120.964 E14.04388
G1 X89.863 Y118.668 E14.11006
G1 X89.322 Y115.650 E14.18728
G1 X89.322 Y94.350 E14.72379
G1 X89.720 Y91.753 E14.78997
G1 X90.876 Y89.394 E14.85614
G1 X92.421 Y87.768 E14.91263
G1 X92.857 Y88.118 F9000.000
G1 X93.206 Y87.768 E14.92510 F1800.000
G1 X95.472 Y86.610 E14.98919
G1 X98.000 Y86.208 E15.05367
G1 X113.500 Y86.208 E15.44409
G1 X116.013 Y86.605 E15.50818
G1 X118.281 Y87.759 E15.57226 F1800.000
G1 X120.082 Y89.556 E15.63635
G1 X121.240 Y91.822 E15.70044
G1 X121.642 Y94.350 E15.76492
G1 X121.642 Y115.650 E16.30143
G1 X121.245 Y118.163 E16.36552
G1 X120.091 Y120.431 E16.42961
G1 X118.294 Y122.232 E16.49370
G1 X116.028 Y123.390 E16.55779
G1 X113.500 Y123.792 E16.62227
G1 X98.000 Y123.792 E17.01269
G1 X95.487 Y123.395 E17.07678
G1 X93.219 Y122.241 E17.14087
G1 X91.418 Y120.444 E17.20496
G1 X90.260 Y118.178 E17.26905
G1 X89.858 Y115.650 E17.33353
G1 X89.858 Y94.350 E17.87004
G1 X90.255 Y91.837 E17.93413
G1 X91.409 Y89.569 E17.99822
G1 X92.814 Y88.161 E18.04833
G1 X93.238 Y88.520 F9000.000
G1 X93.725 Y88.058 E18.06524 F1800.000
G1 X95.955 Y87.023 E18.12717
G1 X98.000 Y86.743 E18.17916
G1 X113.500 Y86.743 E18.56958
G1 X115.926 Y87.141 E18.63151
G1 X118.099 Y88.291 E18.69344 F1800.000
G1 X119.792 Y90.075 E18.75537
G1 X120.827 Y92.305 E18.81730
G1 X121.107 Y94.350 E18.86929
G1 X121.107 Y115.650 E19.40580
G1 X120.709 Y118.076 E19.46773
G1 X119.559 Y120.249 E19.52967
G1 X117.775 Y121.942 E19.59160
G1 X115.545 Y122.977 E19.65353
G1 X113.500 Y123.257 E19.70552
G1 X98.000 Y123.257 E20.09594
G1 X95.574 Y122.859 E20.15787
G1 X93.401 Y121.709 E20.21980
G1 X91.708 Y119.925 E20.28173
G1 X90.673 Y117.695 E20.34367
G1 X90.393 Y115.650 E20.39566
G1 X90.393 Y94.350 E20.93217
G1 X90.791 Y91.924 E20.99410
G1 X91.941 Y89.751 E21.05603
G1 X93.194 Y88.561 E21.09955
G1 X93.604 Y88.930 F9000.000
G1 X94.241 Y88.361 E21.12106 F1800.000
G1 X96.431 Y87.455 E21.18075
G1 X98.000 Y87.279 E21.22053
G1 X113.500 Y87.279 E21.61095
G1 X115.837 Y87.676 E21.67065
G1 X117.911 Y88.823 E21.73034 F1800.000
G1 X119.489 Y90.591 E21.79004
G1 X120.395 Y92.781 E21.84974
G1 X120.571 Y94.350 E21.88951
G1 X120.571 Y115.650 E22.42602
G1 X120.174 Y117.987 E22.48572
G1 X119.027 Y120.061 E22.54541
G1 X117.259 Y121.639 E22.60511
G1 X115.069 Y122.545 E22.66481
G1 X113.500 Y122.721 E22.70458
G1 X98.000 Y122.721 E23.09500
G1 X95.663 Y122.324 E23.15470
G1 X93.589 Y121.177 E23.21440
G1 X92.011 Y119.409 E23.27409
G1 X91.105 Y117.219 E23.33379
G1 X90.929 Y115.650 E23.37356
G1 X90.929 Y94.350 E23.91007
G1 X91.326 Y92.013 E23.96977
G1 X92.473 Y89.939 E24.02947
G1 X93.559 Y88.970 E24.06614
G1 X93.951 Y89.347 F9000.000
G1 X94.753 Y88.678 E24.09245 F1800.000
G1 X98.000 Y87.814 E24.17707
G1 X113.500 Y87.814 E24.56749
G1 X115.743 Y88.211 E24.62486
G1 X117.713 Y89.354 E24.68223 F1800.000
G1 X119.172 Y91.103 E24.73961
G1 X120.036 Y94.350 E24.82423
G1 X120.036 Y115.650 E25.36074
G1 X119.639 Y117.893 E25.41811
G1 X118.496 Y119.863 E25.47549
G1 X116.747 Y121.322 E25.53286
G1 X113.500 Y122.186 E25.61748
G1 X98.000 Y122.186 E26.00790
G1 X95.757 Y121.789 E26.06527
G1 X93.787 Y120.646 E26.12265
G1 X92.328 Y118.897 E26.18002
G1 X91.464 Y115.650 E26.26464
G1 X91.464 Y94.350 E26.80115
G1 X91.861 Y92.107 E26.85852
G1 X93.004 Y90.137 E26.91590
G1 X93.905 Y89.385 E26.94545
G1 F7200
G1 X94.753 Y88.678 E26.59573
G1 F7200
G1 X98.000 Y87.814 E25.53190
G1 F7200
G1 X108.536 Y87.814 E22.19545
G1 E21.94545 F2400.00000
G92 E0
G1 Z0.400 F9000.000
G1 X112.664 Y114.814 F9000.000
G1 Z0.300 F9000.000
G1 E5.00000 F2400.00000
G1 X98.836 Y114.814 E5.34832 F1800.000
G1 X98.836 Y95.186 E5.84274
G1 X112.664 Y95.186 E6.19106
G1 X112.664 Y114.754 E6.68396
G1 X113.200 Y115.350 F9000.000
G1 X98.300 Y115.350 E7.05927 F1800.000
G1 X98.300 Y94.650 E7.58066
G1 X113.200 Y94.650 E7.95597
G1 X113.200 Y115.290 E8.47585
G1 X112.854 Y115.150 F9000.000
G1 X99.424 Y114.493 F9000.000
G1 X99.157 Y114.226 E8.48555 F1800.000
G1 X99.157 Y113.454 E8.50535
G1 X100.196 Y114.493 E8.54304
G1 X100.968 Y114.493 E8.56284
G1 X99.157 Y112.682 E8.62854
G1 X99.157 Y111.911 E8.64834
G1 X101.739 Y114.493 E8.74203
G1 X102.511 Y114.493 E8.76183
G1 X99.157 Y111.139 E8.88353
G1 X99.157 Y110.367 E8.90333
G1 X103.283 Y114.493 E9.05302
G1 X104.054 Y114.493 E9.07282
G1 X99.157 Y109.596 E9.25051
G1 X99.157 Y108.824 E9.27031
G1 X104.826 Y114.493 E9.47601
G1 X105.597 Y114.493 E9.49580
G1 X99.157 Y108.053 E9.72950
G1 X99.157 Y107.281 E9.74930
G1 X106.369 Y114.493 E10.01099
G1 X107.141 Y114.493 E10.03079
G1 X99.157 Y106.509 E10.32048
G1 X99.157 Y105.738 E10.34028
G1 X107.912 Y114.493 E10.65797
G1 X108.684 Y114.493 E10.67777
G1 X99.157 Y104.966 E11.02346
G1 X99.157 Y104.194 E11.04326
G1 X109.456 Y114.493 E11.41695
G1 X110.227 Y114.493 E11.43675
G1 X99.157 Y103.423 E11.83844
G1 X99.157 Y102.651 E11.85824
G1 X110.999 Y114.493 E12.28793
G1 X111.770 Y114.493 E12.30773
G1 X99.157 Y101.880 E12.76542
G1 X99.157 Y101.108 E12.78522
G1 X112.343 Y114.293 E13.26368
G1 X112.343 Y113.522 E13.28348
G1 X99.157 Y100.336 E13.76194
G1 X99.157 Y99.565 E13.78174
G1 X112.343 Y112.750 E14.26020
G1 X112.343 Y111.979 E14.27999
G1 X99.157 Y98.793 E14.75845
G1 X99.157 Y98.021 E14.77825
G1 X112.343 Y111.207 E15.25671
G1 X112.343 Y110.435 E15.27651
G1 X99.157 Y97.250 E15.75497
G1 X99.157 Y96.478 E15.77477
G1 X112.343 Y109.664 E16.25322
G1 X112.343 Y108.892 E16.27302
G1 X99.157 Y95.707 E16.75148
G1 X99.730 Y95.507 E16.76703
G1 X112.343 Y108.120 E17.22472
G1 X112.343 Y107.349 E17.24452
G1 X100.501 Y95.507 E17.67421
G1 X101.273 Y95.507 E17.69401
G1 X112.343 Y106.577 E18.09570
G1 X112.343 Y105.806 E18.11550
G1 X102.044 Y95.507 E18.48920
G1 X102.816 Y95.507 E18.50899
G1 X112.343 Y105.034 E18.85469
G1 X112.343 Y104.262 E18.87449
G1 X103.588 Y95.507 E19.19218
G1 X104.359 Y95.507 E19.21198
G1 X112.343 Y103.491 E19.50167
G1 X112.343 Y102.719 E19.52147
G1 X105.131 Y95.507 E19.78317
G1 X105.903 Y95.507 E19.80296
G1 X112.343 Y101.947 E20.03666
G1 X112.343 Y101.176 E20.05646
G1 X106.674 Y95.507 E20.26215
G1 X107.446 Y95.507 E20.28195
G1 X112.343 Y100.404 E20.45965
G1 X112.343 Y99.633 E20.47945
G1 X108.217 Y95.507 E20.62914
G1 X108.989 Y95.507 E20.64894
G1 X112.343 Y98.861 E20.77064
G1 X112.343 Y98.089 E20.79044
G1 X109.761 Y95.507 E20.88413
G1 X110.532 Y95.507 E20.90393
G1 X112.343 Y97.318 E20.96963
G1 X112.343 Y96.546 E20.98943
G1 X111.304 Y95.507 E21.02712
G1 X112.076 Y95.507 E21.04692
G1 X112.343 Y95.774 E21.05662
M104 S205 ; set temperature
G1 Z0.500 F9000.000
G1 X112.807 Y114.957 F9000.000
G1 X98.693 Y114.957 E21.33465 F3000.000
G1 X98.693 Y95.043 E21.72694
G1 X112.807 Y95.043 E22.00497
G1 X112.807 Y114.897 E22.39608
G1 X113.300 Y115.450 F9000.000
G1 X98.200 Y115.450 E22.56512 F1500.000
G1 X98.200 Y94.550 E22.79909
G1 X113.300 Y94.550 E22.96813
G1 X113.300 Y115.390 E23.20143
G1 X112.954 Y115.250 F9000.000
G1 X112.120 Y114.577 F9000.000
G1 X112.427 Y114.270 E23.21019 F1500.000
G1 X112.427 Y113.359 E23.22859
G1 X111.209 Y114.577 E23.26338
G1 X110.298 Y114.577 E23.28179
G1 X112.427 Y112.448 E23.34261
G1 X112.427 Y111.536 E23.36102
G1 X109.386 Y114.577 E23.44788
G1 X108.475 Y114.577 E23.46628
G1 X112.427 Y110.625 E23.57917
G1 X112.427 Y109.714 E23.59758
G1 X107.564 Y114.577 E23.73649
G1 X106.653 Y114.577 E23.75490
G1 X112.427 Y108.803 E23.91985
G1 X112.427 Y107.891 E23.93826
G1 X105.741 Y114.577 E24.12924
G1 X104.830 Y114.577 E24.14765
G1 X112.427 Y106.980 E24.36466
G1 X112.427 Y106.069 E24.38307
G1 X103.919 Y114.577 E24.62612
G1 X103.008 Y114.577 E24.64452
G1 X112.427 Y105.158 E24.91360
G1 X112.427 Y104.246 E24.93201
G1 X102.096 Y114.577 E25.22712
G1 X101.185 Y114.577 E25.24552
G1 X112.427 Y103.335 E25.56667
G1 X112.427 Y102.424 E25.58507
G1 X100.274 Y114.577 E25.93225
G1 X99.363 Y114.577 E25.95065
G1 X112.427 Y101.513 E26.32386
G1 X112.427 Y100.602 E26.34227
G1 X99.073 Y113.955 E26.72374
G1 X99.073 Y113.043 E26.74215
G1 X112.427 Y99.690 E27.12362
G1 X112.427 Y98.779 E27.14202
G1 X99.073 Y112.132 E27.52349
G1 X99.073 Y111.221 E27.54190
G1 X112.427 Y97.868 E27.92337
G1 X112.427 Y96.957 E27.94178
G1 X99.073 Y110.310 E28.32325
G1 X99.073 Y109.398 E28.34165
G1 X112.427 Y96.045 E28.72312
G1 X112.137 Y95.423 E28.73698
G1 X99.073 Y108.487 E29.11019
G1 X99.073 Y107.576 E29.12859
G1 X111.226 Y95.423 E29.47577
G1 X110.315 Y95.423 E29.49417
G1 X99.073 Y106.665 E29.81531
G1 X99.073 Y105.754 E29.83372
G1 X109.404 Y95.423 E30.12883
G1 X108.492 Y95.423 E30.14724
G1 X99.073 Y104.842 E30.41631
G1 X99.073 Y103.931 E30.43472
G1 X107.581 Y95.423 E30.67777
G1 X106.670 Y95.423 E30.69617
G1 X99.073 Y103.020 E30.91319
G1 X99.073 Y102.109 E30.93159
G1 X105.759 Y95.423 E31.12257
G1 X104.847 Y95.423 E31.14098
G1 X99.073 Y101.197 E31.30593
G1 X99.073 Y100.286 E31.32434
G1 X103.936 Y95.423 E31.46326
G1 X103.025 Y95.423 E31.48166
G1 X99.073 Y99.375 E31.59455
G1 X99.073 Y98.464 E31.61296
G1 X102.114 Y95.423 E31.69981
G1 X101.202 Y95.423 E31.71822
G1 X99.073 Y97.552 E31.77904
G1 X99.073 Y96.641 E31.79744
G1 X100.291 Y95.423 E31.83223
G1 X99.380 Y95.423 E31.85064
G1 X99.073 Y95.730 E31.85940
G1 Z0.700 F9000.000
G1 X112.807 Y114.957 F9000.000
G1 X98.693 Y114.957 E32.13743 F3000.000
G1 X98.693 Y95.043 E32.52972
G1 X112.807 Y95.043 E32.80775
G1 X112.807 Y114.897 E33.19886
G1 X113.300 Y115.450 F9000.000
G1 X98.200 Y115.450 E33.36790 F1500.000
G1 X98.200 Y94.550 E33.60187
G1 X113.300 Y94.550 E33.77091
G1 X113.300 Y115.390 E34.00421
G1 X112.954 Y115.250 F9000.000
G1 X99.380 Y114.577 F9000.000
G1 X99.073 Y114.270 E34.01297 F1500.000
G1 X99.073 Y113.359 E34.03137
G1 X100.291 Y114.577 E34.06616
G1 X101.202 Y114.577 E34.08457
G1 X99.073 Y112.448 E34.14539
G1 X99.073 Y111.536 E34.16380
G1 X102.114 Y114.577 E34.25065
G1 X103.025 Y114.577 E34.26906
G1 X99.073 Y110.625 E34.38194
G1 X99.073 Y109.714 E34.40035
G1 X103.936 Y114.577 E34.53927
G1 X104.847 Y114.577 E34.55768
G1 X99.073 Y108.803 E34.72262
G1 X99.073 Y107.891 E34.74103
G1 X105.759 Y114.577 E34.93201
G1 X106.670 Y114.577 E34.95042
G1 X99.073 Y106.980 E35.16743
G1 X99.073 Y106.069 E35.18584
G1 X107.581 Y114.577 E35.42889
G1 X108.492 Y114.577 E35.44729
G1 X99.073 Y105.158 E35.71637
G1 X99.073 Y104.246 E35.73478
G1 X109.404 Y114.577 E36.02989
G1 X110.315 Y114.577 E36.04829
G1 X99.073 Y103.335 E36.36943
G1 X99.073 Y102.424 E36.38784
G1 X111.226 Y114.577 E36.73501
G1 X112.137 Y114.577 E36.75342
G1 X99.073 Y101.513 E37.12663
G1 X99.073 Y100.602 E37.14503
G1 X112.427 Y113.955 E37.52650
G1 X112.427 Y113.043 E37.54491
G1 X99.073 Y99.690 E37.92638
G1 X99.073 Y98.779 E37.94479
G1 X112.427 Y112.132 E38.32626
G1 X112.427 Y111.221 E38.34467
G1 X99.073 Y97.868 E38.72614
G1 X99.073 Y96.957 E38.74454
G1 X112.427 Y110.310 E39.12601
G1 X112.427 Y109.398 E39.14442
G1 X99.073 Y96.045 E39.52589
G1 X99.363 Y95.423 E39.53975
G1 X112.427 Y108.487 E39.91295
G1 X112.427 Y107.576 E39.93136
G1 X100.274 Y95.423 E40.27853
G1 X101.185 Y95.423 E40.29694
G1 X112.427 Y106.665 E40.61808
G1 X112.427 Y105.754 E40.63649
G1 X102.096 Y95.423 E40.93160
G1 X103.008 Y95.423 E40.95001
G1 X112.427 Y104.842 E41.21908
G1 X112.427 Y103.931 E41.23749
G1 X103.919 Y95.423 E41.48054
G1 X104.830 Y95.423 E41.49895
G1 X112.427 Y103.020 E41.71596
G1 X112.427 Y102.109 E41.73437
G1 X105.741 Y95.423 E41.92535
G1 X106.653 Y95.423 E41.94376
G1 X112.427 Y101.197 E42.10871
G1 X112.427 Y100.286 E42.12711
G1 X107.564 Y95.423 E42.26603
G1 X108.475 Y95.423 E42.28444
G1 X112.427 Y99.375 E42.39732
G1 X112.427 Y98.464 E42.41573
G1 X109.386 Y95.423 E42.50259
G1 X110.298 Y95.423 E42.52099
G1 X112.427 Y97.552 E42.58182
G1 X112.427 Y96.641 E42.60022
G1 X111.209 Y95.423 E42.63501
G1 X112.120 Y95.423 E42.65342
G1 X112.427 Y95.730 E42.66218
M106 S252.45
G1 Z0.900 F9000.000
G1 X112.807 Y114.957 F9000.000
G1 X98.693 Y114.957 E42.94021 F3000.000
G1 X98.693 Y95.043 E43.33250
G1 X112.807 Y95.043 E43.61053
G1 X112.807 Y114.897 E44.00164
G1 X113.300 Y115.450 F9000.000
G1 X98.200 Y115.450 E44.17068 F1500.000
G1 X98.200 Y94.550 E44.40465
G1 X113.300 Y94.550 E44.57369
G1 X113.300 Y115.390 E44.80699
G1 X112.954 Y115.250 F9000.000
G1 X107.617 Y114.577 F9000.000
G1 X112.427 Y109.767 E44.94096 F3600.000
G1 X112.427 Y103.844 E45.05765
G1 X101.694 Y114.577 E45.35664
G1 X99.073 Y111.273 E45.43970
G1 X112.427 Y97.920 E45.81169
G1 X108.999 Y95.423 E45.89522
G1 X99.073 Y105.349 E46.17172
G1 X99.073 Y99.425 E46.28841
G1 X103.075 Y95.423 E46.39988
G1 Z1.100 F9000.000
G1 X112.807 Y114.957 F9000.000
G1 X98.693 Y114.957 E46.67792 F3000.000
G1 X98.693 Y95.043 E47.07020
G1 X112.807 Y95.043 E47.34824
G1 X112.807 Y114.897 E47.73934
G1 X113.300 Y115.450 F9000.000
G1 X98.200 Y115.450 E47.90838 F1500.000
G1 X98.200 Y94.550 E48.14235
G1 X113.300 Y94.550 E48.31139
G1 X113.300 Y115.390 E48.54469
G1 X112.954 Y115.250 F9000.000
G1 X99.073 Y110.575 F9000.000
G1 X103.075 Y114.577 E48.65617 F3600.000
